/* XPM */
static char *bitcoin256[] = {
/* columns rows colors chars-per-pixel */
"256 256 249 2 ",
"   c #0C0A06",
".  c #08080A",
"X  c #070909",
"o  c #120D06",
"O  c #120D0C",
"+  c #1B0A0C",
"@  c #13110D",
"#  c #1B140D",
"$  c #1A150A",
"%  c #0E0E10",
"&  c #141312",
"*  c #1A1612",
"=  c #1D1915",
"-  c #161618",
";  c #1B1A1B",
":  c #0E100F",
">  c #240B0D",
",  c #2C0C0E",
"<  c #340D0F",
"1  c #21160D",
"2  c #231A0E",
"3  c #291B0E",
"4  c #3D0E10",
"5  c #350C10",
"6  c #221C14",
"7  c #2A1E13",
"8  c #231E19",
"9  c #261411",
"0  c #38100F",
"q  c #2C2215",
"w  c #26211A",
"e  c #2B241B",
"r  c #282318",
"t  c #332515",
"y  c #32261A",
"u  c #342A1C",
"i  c #3B2D1C",
"p  c #392916",
"a  c #3E311D",
"s  c #30210F",
"d  c #1E1E20",
"f  c #222224",
"g  c #2B2825",
"h  c #342C22",
"j  c #3A2E21",
"k  c #352E28",
"l  c #3C3223",
"z  c #3B3428",
"x  c #333335",
"c  c #2F2F31",
"v  c #490E12",
"b  c #560F14",
"n  c #471012",
"m  c #551113",
"M  c #641215",
"N  c #6D1216",
"B  c #651218",
"V  c #751517",
"C  c #7D1519",
"Z  c #741118",
"A  c #600F15",
"S  c #422E1A",
"D  c #43331C",
"F  c #4A351C",
"G  c #4B361A",
"H  c #543C1D",
"J  c #433523",
"K  c #4A3622",
"L  c #453925",
"P  c #4C3B24",
"I  c #453A2A",
"U  c #4B3D2A",
"Y  c #403729",
"T  c #523D24",
"R  c #533E27",
"E  c #433D32",
"W  c #643E23",
"Q  c #64451E",
"!  c #4D412C",
"~  c #4F4027",
"^  c #544125",
"/  c #5B4325",
"(  c #54432B",
")  c #5B452B",
"_  c #5D492D",
"`  c #5D4827",
"'  c #4D4232",
"]  c #4C4538",
"[  c #534632",
"{  c #5C4B33",
"}  c #564A35",
"|  c #5D523A",
" . c #634B2C",
".. c #6A4E2C",
"X. c #654825",
"o. c #734D27",
"O. c #6C512D",
"+. c #66502D",
"@. c #73542C",
"#. c #7B582C",
"$. c #634E31",
"%. c #684F32",
"&. c #655134",
"*. c #6C5433",
"=. c #63543B",
"-. c #6C5A3C",
";. c #6B5739",
":. c #735632",
">. c #745A35",
",. c #7B5C34",
"<. c #735C3B",
"1. c #7A5E39",
"2. c #755635",
"3. c #7C623B",
"4. c #7A6139",
"5. c #57411F",
"6. c #5D5445",
"7. c #695B43",
"8. c #705C44",
"9. c #7C6643",
"0. c #796647",
"q. c #756851",
"w. c #787165",
"e. c #86151A",
"r. c #91191A",
"t. c #9A1A1B",
"y. c #98151D",
"u. c #A4191D",
"i. c #AC191E",
"p. c #A6151E",
"a. c #B2191F",
"s. c #B61920",
"d. c #BC1821",
"f. c #B71721",
"g. c #AC1720",
"h. c #A62527",
"j. c #C31822",
"k. c #855D2C",
"l. c #865A33",
"z. c #89622D",
"x. c #95692D",
"c. c #836234",
"v. c #8B6534",
"b. c #83653C",
"n. c #85693D",
"m. c #8B6A3C",
"M. c #8A6739",
"N. c #926D3B",
"B. c #976C33",
"V. c #94713D",
"C. c #9C733C",
"Z. c #9D7236",
"A. c #8F703E",
"S. c #A37433",
"D. c #AC7A36",
"F. c #A2763B",
"G. c #AC7C3B",
"H. c #A6783A",
"J. c #B27E3B",
"K. c #B17C37",
"L. c #A76E31",
"P. c #A7563A",
"I. c #846B43",
"U. c #8B6D42",
"Y. c #846B46",
"T. c #926E42",
"R. c #8D7144",
"E. c #8B734B",
"W. c #937344",
"Q. c #9A7543",
"!. c #9D7945",
"~. c #93754A",
"^. c #9B7B4B",
"/. c #96794C",
"(. c #877452",
"). c #987D53",
"_. c #816F50",
"`. c #A37C44",
"'. c #AA7E42",
"]. c #A27D4A",
"[. c #A07642",
"{. c #A57E4D",
"}. c #B4823D",
"|. c #BA853D",
" X c #B9873D",
".X c #AE813D",
"XX c #9C8156",
"oX c #AD8244",
"OX c #A4814C",
"+X c #AB844B",
"@X c #AD884C",
"#X c #B48442",
"$X c #B98642",
"%X c #B68945",
"&X c #BC8B44",
"*X c #B48A4C",
"=X c #BB8C4A",
"-X c #B3874A",
";X c #BD914C",
":X c #A38352",
">X c #AA8955",
",X c #B38D52",
"<X c #B88E53",
"1X c #BB9254",
"2X c #B9935A",
"3X c #AE905A",
"4X c #978666",
"5X c #B89965",
"6X c #A89269",
"7X c #BBA071",
"8X c #C18D44",
"9X c #C18E49",
"0X c #C49146",
"qX c #C4934B",
"wX c #C9954B",
"eX c #CC984C",
"rX c #C39552",
"tX c #CC9B53",
"yX c #C49B5B",
"uX c #CA9D5B",
"iX c #C59855",
"pX c #D19E54",
"aX c #D09D4F",
"sX c #CDA25D",
"dX c #D3A156",
"fX c #D4A45B",
"gX c #DAA85D",
"hX c #C49D62",
"jX c #CCA363",
"kX c #C8A569",
"lX c #D5A964",
"zX c #DBAB63",
"xX c #D6AA67",
"cX c #DBB26C",
"vX c #C9AA75",
"bX c #D9B476",
"nX c #D6AD73",
"mX c #E4B46B",
"MX c #E5BB77",
"NX c #E0AF65",
"BX c #E8C17C",
"VX c #C18A3F",
"CX c #D5B987",
"ZX c #D9BC8B",
"AX c #EAC585",
"SX c #EDCC8F",
"DX c #D1C4AC",
"FX c #AB9E88",
"GX c None",
/* pixels */
"GXGXGXGXGXGXGXGXGXGXGXGXGXGXGXGXGXGXGXGXGXGXGXGXGXGXGXGXGXGXGXGXGXGXGXGXGXGXGXGXGXGXGXGXGXGXGXGXGXGXGXGXGXGXGXGXGXGXGXGXGXGXGXGXGXGXGXGXGXGXGXGXGXGXGXGXGXGXGXGXGXGXGXGXGXGXGXGXGXGXGXGXGXGXGXGXGXGXGXGXGXGXGXGXGXGXGXGXGXGXGXGXGXGXGXGXGXGXGXGXGXGXGXGXGXGXGXGXGXGXGXGXGXGXGXGXGXGXGXGXGXGXGXGXGXGXGXGXGXGXGXGXGXGXGXGXGXGXGXGXGXGXGXGXGXGXGXGXGXGXGXGXGXGXGXGXGXGXGXGXGXGXGXGXGXGXGXGXGXGXGXGXGXGXGXGXGXGXGXGXGXGXGXGXGXGXGXGXGXGXGXGXGXGXGXGXGXGXGXGXGXGXGXGXGXGXGXGXGXGXGXGXGXGXGXGXGXGXGXGXGXGXGXGXGXGXGXGXGXGXGXGXGXGXGXGX",
"GXGXGXGXGXGXGXGXGXGXGXGXGXGXGXGXGXGXGXGXGXGXGXGXGXGXGXGXGXGXGXGXGXGXGXGXGXGXGXGXGXGXGXGXGXGXGXGXGXGXGXGXGXGXGXGXGXGXGXGXGXGXGXGXGXGXGXGXGXGXGXGXGXGXGXGXGXGXGXGXGXGXGXGXGXGXGXGXGXGXGXGXGXGXGXGXGXGXGXGXGXGXGXGXGXGXGXGXGXGXGXGXGXGXGXGXGXGXGXGXGXGXGXGXGXGXGXGXGXGXGXGXGXGXGXGXGXGXGXGXGXGXGXGXGXGXGXGXGXGXGXGXGXGXGXGXGXGXGXGXGXGXGXGXGXGXGXGXGXGXGXGXGXGXGXGXGXGXGXGXGXGXGXGXGXGXGXGXGXGXGXGXGXGXGXGXGXGXGXGXGXGXGXGXGXGXGXGXGXGXGXGXGXGXGXGXGXGXGXGXGXGXGXGXGXGXGXGXGXGXGXGXGXGXGXGXGXGXGXGXGXGXGXGXGXGXGXGXGXGXGXGXGXGXGXGX",
"GXGXGXGXGXGXGXGXGXGXGXGXGXGXGXGXGXGXGXGXGXGXGXGXGXGXGXGXGXGXGXGXGXGXGXGXGXGXGXGXGXGXGXGXGXGXGXGXGXGXGXGXGXGXGXGXGXGXGXGXGXGXGXGXGXGXGXGXGXGXGXGXGXGXGXGXGXGXGXGXGXGXGXGXGXGXGXGXGXGXGXGXGXGXGXGXGXGXGXGXGXGXGXGXGXGXGXGXGXGXGXGXGXGXGXGXGXGXGXGXGXGXGXGXGXGXGXGXGXGXGXGXGXGXGXGXGXGXGXGXGXGXGXGXGXGXGXGXGXGXGXGXGXGXGXGXGXGXGXGXGXGXGXGXGXGXGXGXGXGXGXGXGXGXGXGXGXGXGXGXGXGXGXGXGXGXGXGXGXGXGXGXGXGXGXGXGXGXGXGXGXGXGXGXGXGXGXGXGXGXGXGXGXGXGXGXGXGXGXGXGXGXGXGXGXGXGXGXGXGXGXGXGXGXGXGXGXGXGXGXGXGXGXGXGXGXGXGXGXGXGXGXGXGXGXGX",
"GXGXGXGXGXGXGXGXGXGXGXGXGXGXGXGXGXGXGXGXGXGXGXGXGXGXGXGXGXGXGXGXGXGXGXGXGXGXGXGXGXGXGXGXGXGXGXGXGXGXGXGXGXGXGXGXGXGXGXGXGXGXGXGXGXGXGXGXGXGXGXGXGXGXGXGXGXGXGXGXGXGXGXGXGXGXGXGXGXGXGXGXGXGXGXGXGXGXGXGXGXGXGXGXGXGXGXGXGXGXGXGXGXGXGXGXe e w 8 6 8 = * * * * - = * * * * = = 8 6 w e e GXGXGXGXGXGXGXGXGXGXGXGXGXGXGXGXGXGXGXGXGXGXGXGXGXGXGXGXGXGXGXGXGXGXGXGXGXGXGXGXGXGXGXGXGXGXGXGXGXGXGXGXGXGXGXGXGXGXGXGXGXGXGXGXGXGXGXGXGXGXGXGXGXGXGXGXGXGXGXGXGXGXGXGXGXGXGXGXGXGXGXGXGXGXGXGXGXGXGXGXGXGXGXGXGXGXGXGXGXGXGXGXGXGXGXGX",
"GXGXGXGXGXGXGXGXGXGXGXGXGXGXGXGXGXGXGXGXGXGXGXGXGXGXGXGXGXGXGXGXGXGXGXGXGXGXGXGXGXGXGXGXGXGXGXGXGXGXGXGXGXGXGXGXGXGXGXGXGXGXGXGXGXGXGXGXGXGXGXGXGXGXGXGXGXGXGXGXGXGXGXGXGXGXGXGXGXGXGXGXGXGXGXGXGXGXGXGXGXGXGXGXGXGXGXGXe e 8 = & % % O . . . . X . . % % . . . % . . . . . . . . . . . . % % & = 8 8 e GXGXGXGXGXGXGXGXGXGXGXGXGXGXGXGXGXGXGXGXGXGXGXGXGXGXGXGXGXGXGXGXGXGXGXGXGXGXGXGXGXGXGXGXGXGXGXGXGXGXGXGXGXGXGXGXGXGXGXGXGXGXGXGXGXGXGXGXGXGXGXGXGXGXGXGXGXGXGXGXGXGXGXGXGXGXGXGXGXGXGXGXGXGXGXGXGXGXGXGXGXGXGXGXGXGXGXGX",
"GXGXGXGXGXGXGXGXGXGXGXGXGXGXGXGXGXGXGXGXGXGXGXGXGXGXGXGXGXGXGXGXGXGXGXGXGXGXGXGXGXGXGXGXGXGXGXGXGXGXGXGXGXGXGXGXGXGXGXGXGXGXGXGXGXGXGXGXGXGXGXGXGXGXGXGXGXGXGXGXGXGXGXGXGXGXGXGXGXGXGXGXGXGXGXGXGXGXGXGXGXGXGXe 6 * & % . . X X . . . . . . . . . d - g - % % . c d . X . . . . . . . . . . . . X X X . O & * = e GXGXGXGXGXGXGXGXGXGXGXGXGXGXGXGXGXGXGXGXGXGXGXGXGXGXGXGXGXGXGXGXGXGXGXGXGXGXGXGXGXGXGXGXGXGXGXGXGXGXGXGXGXGXGXGXGXGXGXGXGXGXGXGXGXGXGXGXGXGXGXGXGXGXGXGXGXGXGXGXGXGXGXGXGXGXGXGXGXGXGXGXGXGXGXGXGXGXGXGXGXGXGX",
"GXGXGXGXGXGXGXGXGXGXGXGXGXGXGXGXGXGXGXGXGXGXGXGXGXGXGXGXGXGXGXGXGXGXGXGXGXGXGXGXGXGXGXGXGXGXGXGXGXGXGXGXGXGXGXGXGXGXGXGXGXGXGXGXGXGXGXGXGXGXGXGXGXGXGXGXGXGXGXGXGXGXGXGXGXGXGXGXGXGXGXGXGXGXGXGXGXGXGX8 6 & O . . . X . . . . . . . . . . . . . . f - f & d f . % ; f d % . . . . . . . . . . . X . . . X . . . X . & = 8 e GXGXGXGXGXGXGXGXGXGXGXGXGXGXGXGXGXGXGXGXGXGXGXGXGXGXGXGXGXGXGXGXGXGXGXGXGXGXGXGXGXGXGXGXGXGXGXGXGXGXGXGXGXGXGXGXGXGXGXGXGXGXGXGXGXGXGXGXGXGXGXGXGXGXGXGXGXGXGXGXGXGXGXGXGXGXGXGXGXGXGXGXGXGXGXGXGXGX",
"GXGXGXGXGXGXGXGXGXGXGXGXGXGXGXGXGXGXGXGXGXGXGXGXGXGXGXGXGXGXGXGXGXGXGXGXGXGXGXGXGXGXGXGXGXGXGXGXGXGXGXGXGXGXGXGXGXGXGXGXGXGXGXGXGXGXGXGXGXGXGXGXGXGXGXGXGXGXGXGXGXGXGXGXGXGXGXGXGXGXGXGXGXGXGX8 = & . . . . . . . . . . . . . . . . . . . . . . . f - d g d d d . - - . & - % . . . . . . . . . . . . . . . . . . . . . . . % * 8 GXGXGXGXGXGXGXGXGXGXGXGXGXGXGXGXGXGXGXGXGXGXGXGXGXGXGXGXGXGXGXGXGXGXGXGXGXGXGXGXGXGXGXGXGXGXGXGXGXGXGXGXGXGXGXGXGXGXGXGXGXGXGXGXGXGXGXGXGXGXGXGXGXGXGXGXGXGXGXGXGXGXGXGXGXGXGXGXGXGXGXGXGXGXGX",
"GXGXGXGXGXGXGXGXGXGXGXGXGXGXGXGXGXGXGXGXGXGXGXGXGXGXGXGXGXGXGXGXGXGXGXGXGXGXGXGXGXGXGXGXGXGXGXGXGXGXGXGXGXGXGXGXGXGXGXGXGXGXGXGXGXGXGXGXGXGXGXGXGXGXGXGXGXGXGXGXGXGXGXGXGXGXGXGXGXGXGXe = @ . . . . . . . . . . . . . . . . X . . . . . . . . . . d & d . % % d ; c g d - % . . . . . . . . . . . . . . . . . . . . . . . . . . . . % = e GXGXGXGXGXGXGXGXGXGXGXGXGXGXGXGXGXGXGXGXGXGXGXGXGXGXGXGXGXGXGXGXGXGXGXGXGXGXGXGXGXGXGXGXGXGXGXGXGXGXGXGXGXGXGXGXGXGXGXGXGXGXGXGXGXGXGXGXGXGXGXGXGXGXGXGXGXGXGXGXGXGXGXGXGXGXGXGXGXGXGX",
"GXGXGXGXGXGXGXGXGXGXGXGXGXGXGXGXGXGXGXGXGXGXGXGXGXGXGXGXGXGXGXGXGXGXGXGXGXGXGXGXGXGXGXGXGXGXGXGXGXGXGXGXGXGXGXGXGXGXGXGXGXGXGXGXGXGXGXGXGXGXGXGXGXGXGXGXGXGXGXGXGXGXGXGXGXGXGXGXe = & . . . . . . . . . . . . . . . . . . . . . . . . . . . . . . d - d . % x g f d % . . . . . . . . . . . . . . . . . . . . . . . . . . . . . . . . . . . * e GXGXGXGXGXGXGXGXGXGXGXGXGXGXGXGXGXGXGXGXGXGXGXGXGXGXGXGXGXGXGXGXGXGXGXGXGXGXGXGXGXGXGXGXGXGXGXGXGXGXGXGXGXGXGXGXGXGXGXGXGXGXGXGXGXGXGXGXGXGXGXGXGXGXGXGXGXGXGXGXGXGXGXGXGXGXGXGX",
"GXGXGXGXGXGXGXGXGXGXGXGXGXGXGXGXGXGXGXGXGXGXGXGXGXGXGXGXGXGXGXGXGXGXGXGXGXGXGXGXGXGXGXGXGXGXGXGXGXGXGXGXGXGXGXGXGXGXGXGXGXGXGXGXGXGXGXGXGXGXGXGXGXGXGXGXGXGXGXGXGXGXGXGXGXw = & . . . . . . . . . . . . . . . . . . . . . . . . . . . . . . . . . . . % . . O . . % . . . . . . . . . . . . . . . . . . . . . . . . . . . . . . . . . . . . . . O = 6 GXGXGXGXGXGXGXGXGXGXGXGXGXGXGXGXGXGXGXGXGXGXGXGXGXGXGXGXGXGXGXGXGXGXGXGXGXGXGXGXGXGXGXGXGXGXGXGXGXGXGXGXGXGXGXGXGXGXGXGXGXGXGXGXGXGXGXGXGXGXGXGXGXGXGXGXGXGXGXGXGXGXGXGXGX",
"GXGXGXGXGXGXGXGXGXGXGXGXGXGXGXGXGXGXGXGXGXGXGXGXGXGXGXGXGXGXGXGXGXGXGXGXGXGXGXGXGXGXGXGXGXGXGXGXGXGXGXGXGXGXGXGXGXGXGXGXGXGXGXGXGXGXGXGXGXGXGXGXGXGXGXGXGXGXGXGXGXGXGX8 * . . . . . . . . . . . . . . . . . . . . . X . . . . . . . . . . . . . . . . . . . . . . . . . . . . . . . . . . . . . . . . . . . . . . . . . . X . . . . . . . . . . X X . & = GXGXGXGXGXGXGXGXGXGXGXGXGXGXGXGXGXGXGXGXGXGXGXGXGXGXGXGXGXGXGXGXGXGXGXGXGXGXGXGXGXGXGXGXGXGXGXGXGXGXGXGXGXGXGXGXGXGXGXGXGXGXGXGXGXGXGXGXGXGXGXGXGXGXGXGXGXGXGXGXGXGXGX",
"GXGXGXGXGXGXGXGXGXGXGXGXGXGXGXGXGXGXGXGXGXGXGXGXGXGXGXGXGXGXGXGXGXGXGXGXGXGXGXGXGXGXGXGXGXGXGXGXGXGXGXGXGXGXGXGXGXGXGXGXGXGXGXGXGXGXGXGXGXGXGXGXGXGXGXGXGXGXGXGXe * . . . . . . X . X . . . . . . . . . . . . . . . X . . . . X . . . . . . . . . . . . . . . . . . . . . . . . . . . . . . . . . . . . . . . . . X . . . X . . X . . . . X . . . . . . . . % 8 GXGXGXGXGXGXGXGXGXGXGXGXGXGXGXGXGXGXGXGXGXGXGXGXGXGXGXGXGXGXGXGXGXGXGXGXGXGXGXGXGXGXGXGXGXGXGXGXGXGXGXGXGXGXGXGXGXGXGXGXGXGXGXGXGXGXGXGXGXGXGXGXGXGXGXGXGXGXGXGX",
"GXGXGXGXGXGXGXGXGXGXGXGXGXGXGXGXGXGXGXGXGXGXGXGXGXGXGXGXGXGXGXGXGXGXGXGXGXGXGXGXGXGXGXGXGXGXGXGXGXGXGXGXGXGXGXGXGXGXGXGXGXGXGXGXGXGXGXGXGXGXGXGXGXGXGXGXGXGXw & . . . . . . . . . . . . . . X . . . . . . . . . . . . . . . . . . . . . . . . . . . . . . . . > > . . . . . . . . . . . . . . . . . . . . . . . . . . . . . . . . . . . . . . . . . . . . . X X @ = GXGXGXGXGXGXGXGXGXGXGXGXGXGXGXGXGXGXGXGXGXGXGXGXGXGXGXGXGXGXGXGXGXGXGXGXGXGXGXGXGXGXGXGXGXGXGXGXGXGXGXGXGXGXGXGXGXGXGXGXGXGXGXGXGXGXGXGXGXGXGXGXGXGXGXGXGXGX",
"GXGXGXGXGXGXGXGXGXGXGXGXGXGXGXGXGXGXGXGXGXGXGXGXGXGXGXGXGXGXGXGXGXGXGXGXGXGXGXGXGXGXGXGXGXGXGXGXGXGXGXGXGXGXGXGXGXGXGXGXGXGXGXGXGXGXGXGXGXGXGXGXGXGXGXGX= % . . . . . . . . . . . X . . . . . . . . . . . . . . . . . . . . . . . . . . . . . . . . . . . . . b A . . . . . . . . . . . . . . . . . . . . . . . . . X . . . . . . . . . . . . . . . X . . . . . . . . 6 e GXGXGXGXGXGXGXGXGXGXGXGXGXGXGXGXGXGXGXGXGXGXGXGXGXGXGXGXGXGXGXGXGXGXGXGXGXGXGXGXGXGXGXGXGXGXGXGXGXGXGXGXGXGXGXGXGXGXGXGXGXGXGXGXGXGXGXGXGXGXGXGXGXGXGX",
"GXGXGXGXGXGXGXGXGXGXGXGXGXGXGXGXGXGXGXGXGXGXGXGXGXGXGXGXGXGXGXGXGXGXGXGXGXGXGXGXGXGXGXGXGXGXGXGXGXGXGXGXGXGXGXGXGXGXGXGXGXGXGXGXGXGXGXGXGXGXGXGXGXGX= . . . . . . . . . . . . . . . . . . X . . . . . . . . . . . . . . . . . . . . . . . . . . . . . . . . . Z y.. . . . . . . . . . . . . . . . . . . . . . . . . . . . . X . . . . . . . . . . . . . . . . . . . . . . * e GXGXGXGXGXGXGXGXGXGXGXGXGXGXGXGXGXGXGXGXGXGXGXGXGXGXGXGXGXGXGXGXGXGXGXGXGXGXGXGXGXGXGXGXGXGXGXGXGXGXGXGXGXGXGXGXGXGXGXGXGXGXGXGXGXGXGXGXGXGXGXGXGX",
"GXGXGXGXGXGXGXGXGXGXGXGXGXGXGXGXGXGXGXGXGXGXGXGXGXGXGXGXGXGXGXGXGXGXGXGXGXGXGXGXGXGXGXGXGXGXGXGXGXGXGXGXGXGXGXGXGXGXGXGXGXGXGXGXGXGXGXGXGXGXGXe 6 . . . . . X . . . . . . . . . X . . . . . . . . . . . . . . . . . . . . . . . . . . . . . . . . . . . . . . p.d.. . X . . . . . . . . . . . . . . . . . X . . . . . . . . . . . . . . . . . . . . . . . . . X . . . . . . . * e GXGXGXGXGXGXGXGXGXGXGXGXGXGXGXGXGXGXGXGXGXGXGXGXGXGXGXGXGXGXGXGXGXGXGXGXGXGXGXGXGXGXGXGXGXGXGXGXGXGXGXGXGXGXGXGXGXGXGXGXGXGXGXGXGXGXGXGXGXGXGX",
"GXGXGXGXGXGXGXGXGXGXGXGXGXGXGXGXGXGXGXGXGXGXGXGXGXGXGXGXGXGXGXGXGXGXGXGXGXGXGXGXGXGXGXGXGXGXGXGXGXGXGXGXGXGXGXGXGXGXGXGXGXGXGXGXGXGXGXGXGXGX8 . . . . . . . . . . . . . . . . . . . . . . X . . . . . . . . . . . . . . . . . . . . . . . . . . . . . . . . + j.j.5 . . . . . . . . . . . . . . . . . . . . . . . . . X . . . . X . . . . . . . . . . . . . . . . . . . . . . . . * e GXGXGXGXGXGXGXGXGXGXGXGXGXGXGXGXGXGXGXGXGXGXGXGXGXGXGXGXGXGXGXGXGXGXGXGXGXGXGXGXGXGXGXGXGXGXGXGXGXGXGXGXGXGXGXGXGXGXGXGXGXGXGXGXGXGXGXGXGX",
"GXGXGXGXGXGXGXGXGXGXGXGXGXGXGXGXGXGXGXGXGXGXGXGXGXGXGXGXGXGXGXGXGXGXGXGXGXGXGXGXGXGXGXGXGXGXGXGXGXGXGXGXGXGXGXGXGXGXGXGXGXGXGXGXGXGXGXGX= . . . . . . . . . . . . . . . . X . . . . . . . . . . . . . . . . . . X . . . . X . . . . X . . . . . . . . . . . 5 j.j.N . . . . . X . . . . . . . . . . . . . . . . . . . . . X . . . . . . . . . . . . . . . . . . . X . . . . . . X . . = e GXGXGXGXGXGXGXGXGXGXGXGXGXGXGXGXGXGXGXGXGXGXGXGXGXGXGXGXGXGXGXGXGXGXGXGXGXGXGXGXGXGXGXGXGXGXGXGXGXGXGXGXGXGXGXGXGXGXGXGXGXGXGXGXGXGXGX",
"GXGXGXGXGXGXGXGXGXGXGXGXGXGXGXGXGXGXGXGXGXGXGXGXGXGXGXGXGXGXGXGXGXGXGXGXGXGXGXGXGXGXGXGXGXGXGXGXGXGXGXGXGXGXGXGXGXGXGXGXGXGXGXGXGXGX8 % . . . . . . . . . . . . X . . . . . . . . . . . . . . . . . . . . . . . . . . . . . . . . . . . . . . X . . . . . . A j.j.y.. . . . . . . . . X . . . . . . . . . . . . . . . . . . . . . . . . . . . X . . X . . . . . . . . . . . . . . . . . . = GXGXGXGXGXGXGXGXGXGXGXGXGXGXGXGXGXGXGXGXGXGXGXGXGXGXGXGXGXGXGXGXGXGXGXGXGXGXGXGXGXGXGXGXGXGXGXGXGXGXGXGXGXGXGXGXGXGXGXGXGXGXGXGXGXGX",
"GXGXGXGXGXGXGXGXGXGXGXGXGXGXGXGXGXGXGXGXGXGXGXGXGXGXGXGXGXGXGXGXGXGXGXGXGXGXGXGXGXGXGXGXGXGXGXGXGXGXGXGXGXGXGXGXGXGXGXGXGXGXGXGX8 & . . . . . . . . . . . . . . . . . . . . X . . . . . . . . . X . . . . . . . . . . . . . . . . . . . . . . . . . . . . . y.j.j.j.+ . . . . . . . . . . . . . . . . . . . . . . . . . . . . . . . . . . . X . . . . . . . . . . . . . . . . . . . . . . . % 8 GXGXGXGXGXGXGXGXGXGXGXGXGXGXGXGXGXGXGXGXGXGXGXGXGXGXGXGXGXGXGXGXGXGXGXGXGXGXGXGXGXGXGXGXGXGXGXGXGXGXGXGXGXGXGXGXGXGXGXGXGXGXGXGX",
"GXGXGXGXGXGXGXGXGXGXGXGXGXGXGXGXGXGXGXGXGXGXGXGXGXGXGXGXGXGXGXGXGXGXGXGXGXGXGXGXGXGXGXGXGXGXGXGXGXGXGXGXGXGXGXGXGXGXGXGXGXGXGX* . . . . . . . . . . . . . . . . . . . . . . . . . . . . . . . . . . . . . . . . . . . . . . . . . . . . . . . . . . . . . . f.j.j.j.5 . . . . . X . . . . . . X . . . . . . . . . . . . . . . . . . . . . . . . . . . X . . X . . . . . . . . . . X . . . . . . & e GXGXGXGXGXGXGXGXGXGXGXGXGXGXGXGXGXGXGXGXGXGXGXGXGXGXGXGXGXGXGXGXGXGXGXGXGXGXGXGXGXGXGXGXGXGXGXGXGXGXGXGXGXGXGXGXGXGXGXGXGXGX",
"GXGXGXGXGXGXGXGXGXGXGXGXGXGXGXGXGXGXGXGXGXGXGXGXGXGXGXGXGXGXGXGXGXGXGXGXGXGXGXGXGXGXGXGXGXGXGXGXGXGXGXGXGXGXGXGXGXGXGXGXGX6 f . . . . . . . . . . . . . . . . . . . . . . . . . . . . . . X . . . . . . . . . . . . . . . . . X X . . . . . . . . . . . . > j.j.j.j.N . . . X . . . . . . . . . . . . . . . . . . . . . . . . . . X . . . . . . . . . . . . . . X . . . . . . . . . . X . . . . . . = GXGXGXGXGXGXGXGXGXGXGXGXGXGXGXGXGXGXGXGXGXGXGXGXGXGXGXGXGXGXGXGXGXGXGXGXGXGXGXGXGXGXGXGXGXGXGXGXGXGXGXGXGXGXGXGXGXGXGXGXGX",
"GXGXGXGXGXGXGXGXGXGXGXGXGXGXGXGXGXGXGXGXGXGXGXGXGXGXGXGXGXGXGXGXGXGXGXGXGXGXGXGXGXGXGXGXGXGXGXGXGXGXGXGXGXGXGXGXGXGXGXw * . - ; . . . . . . . . . . . . . . . . . . . . . . . . . . X . . . . . . . . . . . . . X . . . . . . . . . . . . . X . . . . . . b j.j.j.j.y.. . . . . . . . . . . . . . . . . . . . . . . . . X . . . . . . . . . . . . . . . . . . . . . . . . . X . . . . . . . . d ; - X & w GXGXGXGXGXGXGXGXGXGXGXGXGXGXGXGXGXGXGXGXGXGXGXGXGXGXGXGXGXGXGXGXGXGXGXGXGXGXGXGXGXGXGXGXGXGXGXGXGXGXGXGXGXGXGXGXGXGXGX",
"GXGXGXGXGXGXGXGXGXGXGXGXGXGXGXGXGXGXGXGXGXGXGXGXGXGXGXGXGXGXGXGXGXGXGXGXGXGXGXGXGXGXGXGXGXGXGXGXGXGXGXGXGXGXGXGXGXGX6 . . . - . - % . . . . . . . . . . . . X . X . . . . . . . . . . . . . . . . . . . . . . X . . . . . . . . . . . . . . . . . . . . . Z j.j.j.j.d.. . . . . . . X . . . . . . . . . . . X . X . . . . . . . . . . . . . . . . . . . . . . . . . . . . . . . . . . . . . . f x ; X X . * GXGXGXGXGXGXGXGXGXGXGXGXGXGXGXGXGXGXGXGXGXGXGXGXGXGXGXGXGXGXGXGXGXGXGXGXGXGXGXGXGXGXGXGXGXGXGXGXGXGXGXGXGXGXGXGXGXGX",
"GXGXGXGXGXGXGXGXGXGXGXGXGXGXGXGXGXGXGXGXGXGXGXGXGXGXGXGXGXGXGXGXGXGXGXGXGXGXGXGXGXGXGXGXGXGXGXGXGXGXGXGXGXGXGXGXGX* . . . . - . . - % . . . . . . . X . . . . . . . . . X . . . . . . . . . . . . . . . . . . . . . . . . . . . . . . . . . . . X . . . . p.j.j.j.j.j.5 . . . . . . . . . . X . . . X . . . . . . . . . X . . . . . . . . . . . . . . . . . . . . . . . . . . . X . . . . . % - c & . X . . % w GXGXGXGXGXGXGXGXGXGXGXGXGXGXGXGXGXGXGXGXGXGXGXGXGXGXGXGXGXGXGXGXGXGXGXGXGXGXGXGXGXGXGXGXGXGXGXGXGXGXGXGXGXGXGXGX",
"GXGXGXGXGXGXGXGXGXGXGXGXGXGXGXGXGXGXGXGXGXGXGXGXGXGXGXGXGXGXGXGXGXGXGXGXGXGXGXGXGXGXGXGXGXGXGXGXGXGXGXGXGXGXGX8 . X X . . . % % . - . . . . . . . . . . . . . . . . . . . . . . . . . . . . . . . . . . . . . . . . . . . . X . . X . . . . . . . . . . + d.j.j.j.j.j.A . . . . . . . . . . . . . . . . . . . . . . . . . . . . . . . . . . . . . . . . . . . . . . . . . . . . . . . . . . . . & . . . . . . % = GXGXGXGXGXGXGXGXGXGXGXGXGXGXGXGXGXGXGXGXGXGXGXGXGXGXGXGXGXGXGXGXGXGXGXGXGXGXGXGXGXGXGXGXGXGXGXGXGXGXGXGXGXGXGX",
"GXGXGXGXGXGXGXGXGXGXGXGXGXGXGXGXGXGXGXGXGXGXGXGXGXGXGXGXGXGXGXGXGXGXGXGXGXGXGXGXGXGXGXGXGXGXGXGXGXGXGXGXGXGX= d - - . . . . . f - . . . . . . . . . . . . . . . . . . . . . . . X . . . . X . . . . X . . . . . . . . . . . . . . . . . . . . X . . . . 5 j.j.j.j.j.j.e.. . . . . . . . . . . . . . . . . . . . . . . . . . . . . X . . X . . . . . . . . . . . . . . . . . . . . . . . . . . X . . . . . . . . . & GXGXGXGXGXGXGXGXGXGXGXGXGXGXGXGXGXGXGXGXGXGXGXGXGXGXGXGXGXGXGXGXGXGXGXGXGXGXGXGXGXGXGXGXGXGXGXGXGXGXGXGXGXGX",
"GXGXGXGXGXGXGXGXGXGXGXGXGXGXGXGXGXGXGXGXGXGXGXGXGXGXGXGXGXGXGXGXGXGXGXGXGXGXGXGXGXGXGXGXGXGXGXGXGXGXGXGXw & % ; % . - X . . . . . X . . X . . . . . . . . . . . . . . . . . . . . . . . . . . . . . . . . . . . X . . . . X . . . . X . . . . . . . . . b j.j.j.j.j.j.f.. . . . . X . . X . . . . . . . . . . . . . . . . . . . . . . . . . . . . . . . . . . . . . . . . . . . . . . . . . . . . . . . . . & % - . % 8 GXGXGXGXGXGXGXGXGXGXGXGXGXGXGXGXGXGXGXGXGXGXGXGXGXGXGXGXGXGXGXGXGXGXGXGXGXGXGXGXGXGXGXGXGXGXGXGXGXGXGXGX",
"GXGXGXGXGXGXGXGXGXGXGXGXGXGXGXGXGXGXGXGXGXGXGXGXGXGXGXGXGXGXGXGXGXGXGXGXGXGXGXGXGXGXGXGXGXGXGXGXGXGXGX8 % . - X ; . - . . . . . . . . . . . . . . . . . . . . . . . . . . X . . . . . . . . . . . . . X . . X . . . . . . . . . . . . . . . . . . X . . e.j.j.j.j.j.j.j.> . . . . . . . . . . . . . . . . . . . . . . . . X . . . . . . . . . . . . . . . . . . . . . . . . . . . X . . . . X . . . . . . . % x c . . . = GXGXGXGXGXGXGXGXGXGXGXGXGXGXGXGXGXGXGXGXGXGXGXGXGXGXGXGXGXGXGXGXGXGXGXGXGXGXGXGXGXGXGXGXGXGXGXGXGXGXGX",
"GXGXGXGXGXGXGXGXGXGXGXGXGXGXGXGXGXGXGXGXGXGXGXGXGXGXGXGXGXGXGXGXGXGXGXGXGXGXGXGXGXGXGXGXGXGXGXGXGXGX= . . . % % . ; - . . . . . . . . . . . . . . . X . . . . . . . . X . . . . . . . . . . X . . . . . . . . . . . . . . . . . . . . . . . . . . . . . g.j.j.j.j.j.j.j.v . . . . . . . . . . . . . X . . . . . . . . X . . . . . . X . . . . . . . . . . . . . . . . . . . . . . . . . . . . . . . . . . . d c f & . . . & GXGXGXGXGXGXGXGXGXGXGXGXGXGXGXGXGXGXGXGXGXGXGXGXGXGXGXGXGXGXGXGXGXGXGXGXGXGXGXGXGXGXGXGXGXGXGXGXGXGX",
"GXGXGXGXGXGXGXGXGXGXGXGXGXGXGXGXGXGXGXGXGXGXGXGXGXGXGXGXGXGXGXGXGXGXGXGXGXGXGXGXGXGXGXGXGXGXGXGXGX& . . . . . & & ; - . . . . . . . . . . . . . . . . . X . . . . . . . . . . . . X . . . . . . . . . . . . . . . . . . . . . . . . . . . . . . . . .   j.j.j.j.j.j.j.j.Z . . . . . . . . . . . . . . . X . . . . . . . . . . . . . . . . . X . . . . . . . . . . . . . . . . . . . . . . . . . . . . . . . . - . . . . . . O w GXGXGXGXGXGXGXGXGXGXGXGXGXGXGXGXGXGXGXGXGXGXGXGXGXGXGXGXGXGXGXGXGXGXGXGXGXGXGXGXGXGXGXGXGXGXGXGX",
"GXGXGXGXGXGXGXGXGXGXGXGXGXGXGXGXGXGXGXGXGXGXGXGXGXGXGXGXGXGXGXGXGXGXGXGXGXGXGXGXGXGXGXGXGXGXGXe . . ; - % . . . . . . . . . . . . . X . . . . . . . . . . . . . . . . . . X . . . . . . . . . . . . . . . . . . . . . . . . . . . . . . . . . . . . . 4 j.j.j.j.j.j.j.j.y.. . . . . . . . . . . . . . . . . . . . . . . . . . . . . . . . . . . . . . . . . . . . . . . . X . . . . . . . . . . . . . . . . . . . . . . . . . % 8 GXGXGXGXGXGXGXGXGXGXGXGXGXGXGXGXGXGXGXGXGXGXGXGXGXGXGXGXGXGXGXGXGXGXGXGXGXGXGXGXGXGXGXGXGXGXGX",
"GXGXGXGXGXGXGXGXGXGXGXGXGXGXGXGXGXGXGXGXGXGXGXGXGXGXGXGXGXGXGXGXGXGXGXGXGXGXGXGXGXGXGXGXGXGX8   . ; . X - . . . . . . . . . . . . . . . . . X . . . . . . . . . . X . . . . . . . . . . . . . . . . . . . . . . . . . . . . . . . . . . X . . . . . . N j.j.j.j.j.j.j.j.j.. . . . . . . . . . . . . . . . . . . . . . . . . . . . . . . . . . . . . . . . . . . . . . . . . . . . X . . . . . . . . . . . . . . . . . . . . . . . = GXGXGXGXGXGXGXGXGXGXGXGXGXGXGXGXGXGXGXGXGXGXGXGXGXGXGXGXGXGXGXGXGXGXGXGXGXGXGXGXGXGXGXGXGXGX",
"GXGXGXGXGXGXGXGXGXGXGXGXGXGXGXGXGXGXGXGXGXGXGXGXGXGXGXGXGXGXGXGXGXGXGXGXGXGXGXGXGXGXGXGXGX8 . - - ; & . - . . . . . . . . . . . . . . . . . . . X . . . . . . X . . . . . . . . . . . . . . . . . . . . . . . . . . . . . . . . . . X . . . . X . . . e.j.j.j.j.j.j.j.j.j.5 . . . . . . . . . . . . . . . . . . . . . . . . . . . . . . . . . . . . . . . . . . . . . . . . . . . . . . X . . . . . . . . . . . . . . . . . f - & X = GXGXGXGXGXGXGXGXGXGXGXGXGXGXGXGXGXGXGXGXGXGXGXGXGXGXGXGXGXGXGXGXGXGXGXGXGXGXGXGXGXGXGXGXGX",
"GXGXGXGXGXGXGXGXGXGXGXGXGXGXGXGXGXGXGXGXGXGXGXGXGXGXGXGXGXGXGXGXGXGXGXGXGXGXGXGXGXGXGXGX= X . - X % - - . . . . . . . . . . . . . . . . . . . . . . . . . . . . . . . . . . . . . . . . . X . . . . . . . . . . . . X . . . . X . . . . . . . . . . . s.j.j.j.j.j.j.j.j.j.b . . . . . . . . . . . . . . . . . . . . . . . . . . . . . . . . . . . . . . X . . . . . . . . . . . . . . . . . . . . . . . . . . . . . . . . - x x % X . & GXGXGXGXGXGXGXGXGXGXGXGXGXGXGXGXGXGXGXGXGXGXGXGXGXGXGXGXGXGXGXGXGXGXGXGXGXGXGXGXGXGXGXGX",
"GXGXGXGXGXGXGXGXGXGXGXGXGXGXGXGXGXGXGXGXGXGXGXGXGXGXGXGXGXGXGXGXGXGXGXGXGXGXGXGXGXGXGX6 . . . - . & % . . . . X . . . . . . . . . X . . X . . . . . . . X . . . . . X . . . . X . . . . . . . . . . . . . . . . . . . . . . . . X . . . . . . . . . + j.j.j.j.j.j.j.j.j.j.C . . . . . . . . . . . . . . . . X X . . . . . . . . . . . . . . . . . . . . . . . . . . . . . . . . . . . . . . . . . . X . . . . . . . . . . % d d - . . . - GXGXGXGXGXGXGXGXGXGXGXGXGXGXGXGXGXGXGXGXGXGXGXGXGXGXGXGXGXGXGXGXGXGXGXGXGXGXGXGXGXGXGX",
"GXGXGXGXGXGXGXGXGXGXGXGXGXGXGXGXGXGXGXGXGXGXGXGXGXGXGXGXGXGXGXGXGXGXGXGXGXGXGXGXGXGX8 . . . . % - % . . . . . . . . . . . . . . . . . . . . . . . . . . . . . . . . . . . . . . . . . . . . . . . . . . . . . . . X . . . . . . . . . . . . . . . . v j.j.j.j.j.p.y.y.y.y.C . . . . . . . . . . . . . . . . . X . . . . . . . . . . . . . . . . . . . . . . . . . . . . . . . . X . . . . . . . . . . . . . . . . . . . . . . % . X . . . * GXGXGXGXGXGXGXGXGXGXGXGXGXGXGXGXGXGXGXGXGXGXGXGXGXGXGXGXGXGXGXGXGXGXGXGXGXGXGXGXGXGX",
"GXGXGXGXGXGXGXGXGXGXGXGXGXGXGXGXGXGXGXGXGXGXGXGXGXGXGXGXGXGXGXGXGXGXGXGXGXGXGXGXGXf % - % & . . . . . . . . . . . . . . . . . . . . . . . . . . . . . . . . . . . . . . . . . . . . . . . . . . . . . . . . . . . . . . . . . X . . . % . 6 * * = @ > 5 5 5 4 9 7 6.).6X).6.. . . . . . . . . . . . . . . . X X . . . . . . . . . . . . . . . . . . . . . . . . . . . . . . . . . . . . X . . . . . . . . . . . . . . . . . . . . . . . . . . GXGXGXGXGXGXGXGXGXGXGXGXGXGXGXGXGXGXGXGXGXGXGXGXGXGXGXGXGXGXGXGXGXGXGXGXGXGXGXGXGX",
"GXGXGXGXGXGXGXGXGXGXGXGXGXGXGXGXGXGXGXGXGXGXGXGXGXGXGXGXGXGXGXGXGXGXGXGXGXGXGXGX% - . - - . - . . . . . . . . . . . . . . . . . . . . . . . . . . . . . . . . . . . . . . . . . . . . . . . . . . . . . . X . . . . . . . . . X .   g 4XZXMXMXAXAXAXAXCXvX7XkXbXbXjXiX$XL.b.k 6.6.E + . . . . . . . . . . . X X . . . . . . . . . . . . . . . . . . . X . . . . . . . . . . . . . . . . . . . . . . . . . . . . . . . . . . . . . . . X . . . O GXGXGXGXGXGXGXGXGXGXGXGXGXGXGXGXGXGXGXGXGXGXGXGXGXGXGXGXGXGXGXGXGXGXGXGXGXGXGXGX",
"GXGXGXGXGXGXGXGXGXGXGXGXGXGXGXGXGXGXGXGXGXGXGXGXGXGXGXGXGXGXGXGXGXGXGXGXGXGXGX& . & ; f - . - . . . . . . . . . . . . . . . . . . . . . . . . . . . . . . . . . . . . . . X . . . . . . . . . . . . . . . . . . . . . . . . X $ [ 4XAXzXdXwX0X0XqXqX0X0XqX0X$X&X8XVX X|.}.oXkXlXnXbXSXbX6Xq.' & X : X X % X X X . . . . . . . . . X . . . . . . . . . . . X . . . . . . . . . . . . . . . . . . . . . . . . . . . . . . . . . . . X . . . - % % @ GXGXGXGXGXGXGXGXGXGXGXGXGXGXGXGXGXGXGXGXGXGXGXGXGXGXGXGXGXGXGXGXGXGXGXGXGXGXGX",
"GXGXGXGXGXGXGXGXGXGXGXGXGXGXGXGXGXGXGXGXGXGXGXGXGXGXGXGXGXGXGXGXGXGXGXGXGXGX& . . % & % - - % . . . . . . . . . . . . . . . . . . . . . . . . . . . . . . . . . . . X . . . . . . . . . . . . . . . . . . . . . . . X . % ! 7.! U.*XOX!.m.,.#.OXfXxXbXMXMXCXAXbXcXxXdXsXtX;X X}.|.}.}. X;XsXcXAXCX5XXXq.| ] ! ' g . . . . . . . . . . . . X . . . X . . . . . . . . . . . . . . . . . . . . . . . . . . . . . X . . . . . . . . . . . . & x c X . . GXGXGXGXGXGXGXGXGXGXGXGXGXGXGXGXGXGXGXGXGXGXGXGXGXGXGXGXGXGXGXGXGXGXGXGXGXGX",
"GXGXGXGXGXGXGXGXGXGXGXGXGXGXGXGXGXGXGXGXGXGXGXGXGXGXGXGXGXGXGXGXGXGXGXGXGX= . . . % % . - X . . . . . . . . . . . . . . . . . . . X . . . . X . . . . . . . . . . . . . . . . . . . . . . . . . . . . . . . . . . . . X % q.5XkXD = [ L l (.nXBXnX(.E ; # 4 @ 8 k ! *./.sXcXqX}.}.}.}.}. X X X0X0XqXsXsXsXjX2X&.  . . . . . . . . . . . . . . . . . . . . . . . . . . . . . . . . X . . X . . . . . . . . . . . . . . . . . . . . . X . d c f & . . & GXGXGXGXGXGXGXGXGXGXGXGXGXGXGXGXGXGXGXGXGXGXGXGXGXGXGXGXGXGXGXGXGXGXGXGXGX",
"GXGXGXGXGXGXGXGXGXGXGXGXGXGXGXGXGXGXGXGXGXGXGXGXGXGXGXGXGXGXGXGXGXGXGXGX= . . X . . & - % . . . . . . . . . . . . . . . . . . . . . . . . . . . . . . . . . . . . . . . . . . . . X . . . . . . . . . . . . . . . . . X X X   bX#.nXsXdX>.^ M.O.O 4 . FX6.j.B w.I v Z m 3 u >.S.}..X.X}.&X&X X X X}.}.}..XO.2 X . . . . . . . . . . . . . . . . . . . . . . . . . . . . . . . . . . . . . . . . X . . . . . . . . . . . . . . . . . . . . d . . . . . & GXGXGXGXGXGXGXGXGXGXGXGXGXGXGXGXGXGXGXGXGXGXGXGXGXGXGXGXGXGXGXGXGXGXGXGX",
"GXGXGXGXGXGXGXGXGXGXGXGXGXGXGXGXGXGXGXGXGXGXGXGXGXGXGXGXGXGXGXGXGXGXGX= . ; - X . . . . . . . . . . . . . . . . . . . . . . . . . . . . . . . . . . . . . . . . . . . . . . . . . . . . . . X . . . . . . . . . $ r r h ! ( z mX<.D kX;XZ.G p O.U +   ZXq.y < FXq.B g.Z n o   o p +.m..X.X X X X&X.Xc.5.$ : X X . X X X . . . . . . . . . . . . . . . X . . X . . . . . . . . . . . . . . X . . . X . . . . . . . . . . . . . . . . . . . . . . . . . . & GXGXGXGXGXGXGXGXGXGXGXGXGXGXGXGXGXGXGXGXGXGXGXGXGXGXGXGXGXGXGXGXGXGXGX",
"GXGXGXGXGXGXGXGXGXGXGXGXGXGXGXGXGXGXGXGXGXGXGXGXGXGXGXGXGXGXGXGXGXGXw % - ; & . . . . . . . . X . . . . . . . . . . . . . . . . . . . . . . . . . . . . . . . . . . . . . . . . . . . . . . X X . . .   8 8.6XnXkXcX,XF.#.2 7XlX  -.zXS.v.H. XVXqX{.e 6.DX(.FXDX; 9 = 7.6XkXsXfXdXtX0X;X XC.A.9.;.&.| | | &.| | I X . X X X . . . . . . . . . . . . . . . . . . . . . . . . . . . . . . . . . . . . . . . . . . . . . . . . . . . . . . . . . . X . . . . * GXGXGXGXGXGXGXGXGXGXGXGXGXGXGXGXGXGXGXGXGXGXGXGXGXGXGXGXGXGXGXGXGXGX",
"GXGXGXGXGXGXGXGXGXGXGXGXGXGXGXGXGXGXGXGXGXGXGXGXGXGXGXGXGXGXGXGXGX6 . - - . . . . . . X . . . . . . . . . . . . . . . . . . . . X . . . . . . . . . . . . . . . . . X . . . . . . . . . . . X X : z _.vXBX5X~.N.I.Q x...  | BXmX3XBX0XwXaXdXfXaXwXwXuX(.6.q.8.z 7.3XMXxXdXdXdXaXdXtXeXeX0X X&X&X0X X&X0X0X&X$XM.= % . . X X X   . . . . X . . . . . . . . . . . . . . . . . . . . . . . . . . . . . . . . . X . . . . . . . . . . . . . . . . . . . . . . . * GXGXGXGXGXGXGXGXGXGXGXGXGXGXGXGXGXGXGXGXGXGXGXGXGXGXGXGXGXGXGXGXGX",
"GXGXGXGXGXGXGXGXGXGXGXGXGXGXGXGXGXGXGXGXGXGXGXGXGXGXGXGXGXGXGXGXe . . - % X . . . . . . . . . . . . X . . . . . . . . . . . . . . . . . . . . . . . . . . . . . . . . . . . X . . . . . . . g _.nXBXcXOXD 2 F.x.G.4.D X . kXmXBXmXmXNXgXNXzXgXgXpXwX8X'.,XhXlXlXtXeXdXgXdXdXdXdXdXdXeXeXeXeXwXwX0X0XwXeXqXH.H   # _ ~.yXcX2X9.z . . . X . . . . . . . . . . . . . . . . . . . . . . . . . . . . . . . . . . . . . . . . . . . . . . . . . . . . . . . d - & . 8 GXGXGXGXGXGXGXGXGXGXGXGXGXGXGXGXGXGXGXGXGXGXGXGXGXGXGXGXGXGXGXGX",
"GXGXGXGXGXGXGXGXGXGXGXGXGXGXGXGXGXGXGXGXGXGXGXGXGXGXGXGXGXGXGXGXX X . . . . . . . . . . . . . . . . . . . . . X . . . . . . . . . . . . . . . . . . . . . . . . . . . . . . . X X X X : =.7XAXmXsX-X .2 l -.B.@.H = @ X r AXMXdXN.,.v.m.V.!.W.m.#.Q H G D S S F ^ O.m.;X0X0X0X0X0X X X&X0X0X0X0X0X0X X XO.# X ( iXgX:X1XaXaXtXfXnX/.[ * . . X . . . . . . . X . . . . X . . . . . . . . . . . . . . . . . . . . . . . X . . . . . . . . . . X . . . - c x % . % w GXGXGXGXGXGXGXGXGXGXGXGXGXGXGXGXGXGXGXGXGXGXGXGXGXGXGXGXGXGXGX",
"GXGXGXGXGXGXGXGXGXGXGXGXGXGXGXGXGXGXGXGXGXGXGXGXGXGXGXGXGXGXGX& . . . . . X . . . . . X . . . . . . . . . . . . . . . . X . . . . . . . . . . . . . . . . . . . . . X . . . . . X = _.bXcXmXXXO.D.v.v.+.~ s $ P = $   X h AXsXa q H a X       . X r P _ ,.M.W.W.4.+.F $ O.%X8X X+.a ` #.Z..XK.K.K.D.X.$ X X u c.N.C.+XJ ^.NXNXmXzXfXzXcXE.l . . X . . . . . . . . . . . . . . . . X . . . . . . . . . . . . . X . . . . . . . . . . X . . . . . . . . d d - . . O GXGXGXGXGXGXGXGXGXGXGXGXGXGXGXGXGXGXGXGXGXGXGXGXGXGXGXGXGXGXGX",
"GXGXGXGXGXGXGXGXGXGXGXGXGXGXGXGXGXGXGXGXGXGXGXGXGXGXGXGXGXGXg - % . . . . . . . . . . . . . . X . . . . . . . . . . . . . . . . . . . . . . . . . . . . . . . . . . . . . . . = q.nXOXR.sX1X$ r v.D 2 $ { /.>XD n.Z.+.$ # AXc.X -.#.2 o   X X X X X     + 1   6 D o.F.C.` G S.D.Z.+.O.4.n...z.x.X.p ` I : u P P D y $ o o ! 2XmXmXmXmXgXfXzX5X&.@ X . . . . . . . . . . . . . . . . . . . . . . . . . . . . . . . . . . . . . . . . . . . . . . . . . - . . . . X & GXGXGXGXGXGXGXGXGXGXGXGXGXGXGXGXGXGXGXGXGXGXGXGXGXGXGXGXGXGX",
"GXGXGXGXGXGXGXGXGXGXGXGXGXGXGXGXGXGXGXGXGXGXGXGXGXGXGXGXGXk . . & . . . . . . . . . . . . . . . . X . . . . . . . . . . . . . . . . . . . . . . . . . . . . . . X . X X : 8 6.3.D $ ~ sX;X+.X : $ a R.@XX.Q  .o Q.B.#...O OXL   l :.c.!..X.Xb.@ X X @ l.l.2 X B y.< O Z. X.XS.Z.Z.B.O.G G v.x.S..XC.F X _ oX#X%XoX`.oX2XyX!.} t 9.jXmXmXmXcXzXzXkX<.$ X . X . . . . . . . . . . . . . . . . . X . . . X . . . . . . . . . . . . . . . . . . . . . . . . . . . . . . * GXGXGXGXGXGXGXGXGXGXGXGXGXGXGXGXGXGXGXGXGXGXGXGXGXGXGXGXGX",
"GXGXGXGXGXGXGXGXGXGXGXGXGXGXGXGXGXGXGXGXGXGXGXGXGXGXGXGXe ; . . d - - . . . . . . . . X . . . . . . . . . . X . . . . . . . . . . . . . . . . . . . . . . . . . . . . - q.BX@XG $ P 1X%X.Xa : z | R.K H G #.* e s s 2 J w P _   X . @ P [   . . X 6 !.#.$ .   n m @ 9.sXS.Z.Z.z.K + i v.G.G.}.$X,.6   ) >.( 2   X X   # [.B.@.&.p @ ( W.jXmXmXMXzXzXlX9.= : . X . . . . X . . . . . . . . . . . . . . . . . . . . . . . X . . . . . . . . . . . . . . . . . . . . . . 8 GXGXGXGXGXGXGXGXGXGXGXGXGXGXGXGXGXGXGXGXGXGXGXGXGXGXGXGX",
"GXGXGXGXGXGXGXGXGXGXGXGXGXGXGXGXGXGXGXGXGXGXGXGXGXGXGXGX& X - & - . % % . . . . . . . . . . . . . . X . . . . . . . . . . X . . . . . . . X . . . . . . . . . . . % | bXmXdXiX;XA.OX4.i $ z u $   O o   6 p .   a | ( * X X z X X I XX( . . . . u OXX.O @ 6 6 # -.hX}.S.S.#.p + ) N.G.D.G.H.v.p   . e #.z.v.`.oX*.} # O 7 ,.9 1 ` } & &   6 ( 3.>XjXcXcXnX9.$ X . . . . . . . . . . . . . . . . . . . . . . . X . . . . . . . . . . . . . . . . . . . . . . . . . . .   GXGXGXGXGXGXGXGXGXGXGXGXGXGXGXGXGXGXGXGXGXGXGXGXGXGXGXGX",
"GXGXGXGXGXGXGXGXGXGXGXGXGXGXGXGXGXGXGXGXGXGXGXGXGXGXGX* X X . . & . % % . X . . . . . . . . X . . . . . . . . . . . . X . . . . . . . . . . . . . . . . . . . % k 5XcXY.u F ;X0X%X` o ( XXY.!.N.U S 2 :   r ;.>.p X . . . . . l ).<.# . .   . u *XP   * e 2 | 5X*XZ.S...s ( 3.oXL.G.B.,.X.t . . . . . X . . 2 G #.S.rXW.{ D F t s S =.6 t +.OX[.R.>.>. .*.m.5X*.@ . . . . . . . . . . . . . . . . . . X . . . . . . . . . . . . . . . . . . . . . . . . . . . . . ; . . & GXGXGXGXGXGXGXGXGXGXGXGXGXGXGXGXGXGXGXGXGXGXGXGXGXGXGX",
"GXGXGXGXGXGXGXGXGXGXGXGXGXGXGXGXGXGXGXGXGXGXGXGXGXGX8 . X . . . % - - . . . . . . . . . . . . . . . . . . . . . . . . . . . . . X . . . . . X . . . . . . . % (.MXfXgXjX$ : .Xm.2 r XX&X5.;.$ 7 S 2 @ ! E.;.# . . X . . . r XXE.= % X . . & 6 Q.a O = 6 } 5X%XS.L.#.{ -.b.5.G t $ O   . . . . . . . . . . X X X . X 7 ..M.*XI.y q q O 3.D H ,.qXdXaXdXdXtXsX`.:X2X( . . . . . . . . . . . . . . . . . . . . . . . . X . . . . . . . . . . . . . . . . . . . . . ; c x % . = GXGXGXGXGXGXGXGXGXGXGXGXGXGXGXGXGXGXGXGXGXGXGXGXGXGX",
"GXGXGXGXGXGXGXGXGXGXGXGXGXGXGXGXGXGXGXGXGXGXGXGXGXGX. . . . . . . . . . . . . . . . . . . X . . . . . . X . . . . . . . . . . . . X . . . . . . . X X . . ! vXcXdXgXgXjX@ : i   0.sX}.C.q ! q q O R ~. .@ . . . . . . - q.E.w X . . 7.% . (.>.q . & E 5XrXH.H.L.o.I O 5 b Z y.y.j.b . . . . . . . . . . . . . . . . . X . i c.1Xn.= : D ../ H z.T.sXgXgXgXeXdXfX<XyX>Xi . . . . . . . . . . . . X . . . . X . . . . . . . . X . . . . . . . . . . X . . . . . . & x g % . . ; GXGXGXGXGXGXGXGXGXGXGXGXGXGXGXGXGXGXGXGXGXGXGXGXGX",
"GXGXGXGXGXGXGXGXGXGXGXGXGXGXGXGXGXGXGXGXGXGXGXGXGX& . . . . . . . . . . . . . . . . . . . . . . . . . . . . . . . . . . . . . X . . . . . X . . . X : : (.mXgXdXgXzXgXI.  X i @X&X}.}.) | #   L E.P O . . . . . . . } 0.w X X X . . q.E.L >.R . U 5XiXG.G.l.T + v e.f.j.j.j.j.j.j.e.. . . . . . X . . . . . . . . . . . . . . p c.*X*.$ @.O.7 H B.*.+XgXgXgXdXdXfXpXdXzXn.* % X . . . . . . . . . . . . . . . . X . . . . . . . . . . . . . . . . . . . . X . . . ; . . . . % GXGXGXGXGXGXGXGXGXGXGXGXGXGXGXGXGXGXGXGXGXGXGXGXGX",
"GXGXGXGXGXGXGXGXGXGXGXGXGXGXGXGXGXGXGXGXGXGXGXGX8 & - - . . . . . . . . . . . . . . . . . . . . X . . . . . . . X . . . . . . . . . . . . . . . . . e 5XcXfXgXsXfXfXlX~ : 7.~.>...X./ @ $ l ~.+.+ . . . . . . . g } = % . . . . . . 6 5XU.R 7.5XuXG.G.@.7 > Z f.j.j.j.j.j.j.j.j.j.p.. . . . . . . . . X . . . . . . . . . . . . . y v.].R X.* @ ) x.X.;.fXgXNXdXtXeXwXwXdX2Xl : . . . . . . . . . . . . . . . . . . . . . . . . . . . . . . . . . . . . . . . . X . . . . . . * GXGXGXGXGXGXGXGXGXGXGXGXGXGXGXGXGXGXGXGXGXGXGXGX",
"GXGXGXGXGXGXGXGXGXGXGXGXGXGXGXGXGXGXGXGXGXGXGXe . % & . % % . . . . . . . . . . . . . . . . . . . . . . . . . . . . . . . . . . . . . . . . . X . . h r $ o $ @ o $ o : r o : X X   . 6 R.>.$ X . . . . . . . . = . % . . . . X . . . S rXqX'.D.H. .$ 0 y.j.j.j.j.j.j.j.j.j.j.j.j.j.. . . . . . . . . . . . . . . . . . . . . . . .   P oXI.$ . O l.Z.` F tXfX@XQ.W.W.`.*XeXsX9.: . . . . . . . . . . . . . . . . . . . . . . . . . . . . . . . . . . . . . . . . . . . . . . . w GXGXGXGXGXGXGXGXGXGXGXGXGXGXGXGXGXGXGXGXGXGXGX",
"GXGXGXGXGXGXGXGXGXGXGXGXGXGXGXGXGXGXGXGXGXGXGX* . . - . . . . . . . . . . . . . . . . X . . . . . . . . . . . . . . . . . . . . . . . . X . X : w { 9.E.^.XXXXXXXX-.: 0.3.+._ { ( u *.Q.y . . X . . . . . . . . . . . . . . . . . . . . 6 X.W P o b p.j.j.j.j.j.j.j.j.j.j.j.j.j.j.j.> . . . . . X . . X . . X . . . . . . . . . . . . . = c.].y X 7 F.G.J e o y y r $ o X o a *.0.r X X X . . . . . . . . . . . . . X . . . . X . . . . . . . . . . . . . . . . . . . . . . X . . GXGXGXGXGXGXGXGXGXGXGXGXGXGXGXGXGXGXGXGXGXGXGX",
"GXGXGXGXGXGXGXGXGXGXGXGXGXGXGXGXGXGXGXGXGXGX8 . . . % - . . . . . . . . . . . . . . . . . . . . . . . . X . . . . X . . . . X . . . . . . . . z MXBXmXmXmXlX1XOXW.r E.cX;X;X.XD t W. .O . . . . . . . . . . . X . . X . X . . . . . . .   . A e.f.j.j.j.j.j.j.j.j.j.j.j.j.j.j.j.j.j.v . . . . . . . . . . . . . . . . . . . . . . . . . .   X.+X^ : ( }.F.r a c.~.uXgXgXsX,XR._ @ % X X . . . . . . . . . . . . . . . . . . . . . . . . . . . . . . . . . . . . . . . . . . % . . * GXGXGXGXGXGXGXGXGXGXGXGXGXGXGXGXGXGXGXGXGXGX",
"GXGXGXGXGXGXGXGXGXGXGXGXGXGXGXGXGXGXGXGXGXGX. . . . X % . . . . . . . . . . . . . . . . . . . . . X . . . . . . . . . . . . . . . . . . . . : a 3XlXyXa $   o *   0.xX&X.XX.@ F W.i . . . . . . X . . . . . . . . . . . . . . X . . . . . O j.j.j.j.j.j.j.j.j.j.j.j.j.j.j.j.j.j.j.j.A . . . . . . X . . . . . . . . . . . . . . . . . . . . . S !.( . U.K.N.  @.$X .:.n.n.4.;XeXfXn.6 X . . . . . . . . . X . . . . . . . . . . . . . . . . . . . . . . . X . . . . . . . . d ; - . w GXGXGXGXGXGXGXGXGXGXGXGXGXGXGXGXGXGXGXGXGX",
"GXGXGXGXGXGXGXGXGXGXGXGXGXGXGXGXGXGXGXGXGX* . . . . X X . . . . . . . . . . . . . . . . . X . . . . . . . . . . . . . . . . . . . . . . w :XBXBXsX/ w >.:XrX2X6 } xXG..XN.G ` A.9 . . . . . . . . . . . . . . . X . . X . . . . . . . . . , j.j.j.j.j.j.j.j.j.j.j.j.j.j.j.j.j.j.j.j.e.. . . . . . . . . . . . . . . . . . . . . . . . . . . .   7 #.R 7 qXZ. .7 #X=Xp 6.r o a *X.XOX>X;.. . . . . . X . . . . . . . . . . . . . . . . . . . . . . . . . . . . . . . . . . d x x % X @ GXGXGXGXGXGXGXGXGXGXGXGXGXGXGXGXGXGXGXGXGX",
"GXGXGXGXGXGXGXGXGXGXGXGXGXGXGXGXGXGXGXGX8 . . X . . . . . . . . . . . . . . X . . . . . . . . . . . . . . . X . . X . . . . . . . . . u hXBXBXdX` q 5XfX0X;Xw u bXoX/ P S.z.V.# . X . . . X . . . . . . . . . . X . . . . . . . . . . . . v j.j.j.j.j.j.j.j.j.j.j.j.j.j.j.j.j.j.j.j.p.. . . . . . . . . . . . . . . . . . . . . . . . . . . . . . 6 :.q I.wX-X@ @.8X+Xo >X-.$ y '.&X!.Y.~.# . X . . . . . . . . . X . . . . . . . . . . . . . . . . . X . . . . . . . . . . d - & . . 8 GXGXGXGXGXGXGXGXGXGXGXGXGXGXGXGXGXGXGXGX",
"GXGXGXGXGXGXGXGXGXGXGXGXGXGXGXGXGXGXGXGX- & - - . . . . . . . . . . X . . . . . . . . . . . . . X . . . . . . . . . . . . X . . . . l jXAXMXiXF u kXzXtX,Xy % kXiXq e N.D.m.* X . . . X . . . . . . . X . . . . . . . . . . . . . . . . . M j.j.j.j.j.j.j.j.j.j.j.j.j.j.j.j.j.j.j.j.j.. . . . . . . . . . . . . . . . . . . . . . . . . . . . . X % 1 >.2 nX$X) 9 &XwX;.6 jX3Xq 8 >X8X4.b.>Xw % . . . . . . . . . . . . . . . . . . . . . . . . . . . . X . . . . . . . . . . . . . . . GXGXGXGXGXGXGXGXGXGXGXGXGXGXGXGXGXGXGXGX",
"GXGXGXGXGXGXGXGXGXGXGXGXGXGXGXGXGXGXGX8 % - . . - . . . . . . . . . . . . . . . . . . . . . . X . . . . . . . . . . . . . . . . % l jXAXBX1Xe J nXNXyX&.u [ XXmX .O W.H.%Xq . . X . . . . . . . . . . . . . . . . . . . . . . . X . . . . y.j.j.j.j.j.j.j.j.j.j.j.j.j.j.j.j.j.j.j.j.j.> . . . . . . . . . X . . . . . . . . . . . . . . . . . . X . . u e 5XrXW.X V.8XrXe @ ( 0.y r OX&XU M.1Xi . . . . . . . . . . . . . . . . . . . . X . . . . . . . . . . . . . . . . . . . . . . . * GXGXGXGXGXGXGXGXGXGXGXGXGXGXGXGXGXGXGX",
"GXGXGXGXGXGXGXGXGXGXGXGXGXGXGXGXGXGXGX& . & . . - . . X . . X . . . . . . . . . X . . . . . . . . . . . . . . . . . X . . . X . J nXAXMX<Xq ! cXgXiXOX1XiX;XoXA.@ ! .X|. .. . . . . . . . . . . . . . . . . . . . . . . . . X . . . . . . g.j.j.j.j.j.j.j.j.j.j.j.j.j.j.j.j.j.j.j.j.j.v . . . . . X . . . . . . . . . . . . . . . . . . . . . . . . . . . 8.fX9X$  .&X X=Xn.' $ = O 6 +X;X2 [.uXj . . . . . . . . . . . . . . . . . X . . . . . . . . . . . . . . . . X . . . . . . X . . e GXGXGXGXGXGXGXGXGXGXGXGXGXGXGXGXGXGX",
"GXGXGXGXGXGXGXGXGXGXGXGXGXGXGXGXGXGX8 X . % - & - . . . . . . . . X . . X . . . . . . . X . . . . . X . . . . X . . X . . . . J bXAXBX,X2 &.cXgXdX@Xn._ p @ X X . ^.|.@X  . . . . . . . . . . X . . . . . . . . . X . . . . . . . . . .   j.j.j.j.j.j.j.j.j.j.j.j.j.j.j.j.j.j.j.j.j.j.M . . . . . . . . . . X . . . . . . . . . . . . . . . . . . . . . . l MX8X[ 7  .V.;XqXtXsX~.I   q -XR.3 ,XlXY . . . . . . . . . . . . . . . . . . . . . . . . . . . . . . . . . . . . . . . . X . . * GXGXGXGXGXGXGXGXGXGXGXGXGXGXGXGXGXGX",
"GXGXGXGXGXGXGXGXGXGXGXGXGXGXGXGXGXGX. . . . . . . . . . . . . . . . . . . . . . . . . . . . . . . . . . . . . . . . . . . . u nXSXBX,X= 8.kXR.[ =   r _ >.<.= X e %X&X-.. . . . . . . . . . . . . . X . . . . . . . . . . X . . . . . . 5 j.j.j.j.j.j.j.j.j.j.j.j.j.j.j.j.j.j.j.j.j.j.e.. . . . . . . . . . . . . . . . . . . . . . . . . . . . . . . . . & MX9X;.: J = $ ( Y.iXwXeX2X;.= 9.! t -XzXP . . . . . . . . . . . . . . . . . . . . . . . . . . . . . . . . . . . . . . . . . . . w GXGXGXGXGXGXGXGXGXGXGXGXGXGXGXGXGX",
"GXGXGXGXGXGXGXGXGXGXGXGXGXGXGXGXGX6 . . . . . . . . . . . . . . . . . . . . . . . . . . . . . . . . . . . . . . . . . . . g nXSXAX2X= k z X w { R.2XrX*X4.K * X ;.|.tXh . . . . . . . . . . . . . . . . X . . . . . . . . . . . . . . . v j.j.j.j.j.j.j.j.j.j.j.j.j.j.j.j.j.j.j.j.j.j.p.. . . . . . . . . . . . . . . . . . . . . . . . . . . . . . . . . . AXeXY.X I.iX@X9.k % ( ^.tXdXhX| u <.c.+XzXY . . . . . . . . . . . . . . X . . . . . . . . . . . X . . . . . . . . . . . . . . X & GXGXGXGXGXGXGXGXGXGXGXGXGXGXGXGXGX",
"GXGXGXGXGXGXGXGXGXGXGXGXGXGXGXGXe . . . . . . X . . . . . X . . . . . . . . . . . . . . . . . . . . . . . . . . . . . . w nXSXAX2X= X : 8.@XsXqXqX3.L w | U.9.. ~. XzX. . . . . . . . . . . . . . . . . . . . . . . . . . . . . . . . . Z j.j.j.j.j.j.j.j.j.j.j.j.j.j.j.j.j.j.j.j.j.j.j.. . . . X . . . . . . . . . . . . . . . . . . . . . . . . . . . . X AXaX^.X : J n.1X&X,X4.e 8 -.,XiX>X@ R [.eXfXh . . . . . . . . . . . . . . . . . . X . X . . . . . . . . . . . . . . X . . . . . . 8 GXGXGXGXGXGXGXGXGXGXGXGXGXGXGXGX",
"GXGXGXGXGXGXGXGXGXGXGXGXGXGXGXGX= % - - % . . . . . . . . . . . . . . . . . . . . . . . . . . . . . . . X . . . . . . & hXAXAX5X* : X 5XdXrX!.' * ' OX1X%XM.a . <X&XmX. . . . . . . . . . . . . . . . . . . . . . . . . . . . . . . . . e.j.j.j.j.j.j.j.j.j.j.j.j.j.j.j.j.j.j.j.j.j.j.j.> . . . . . . . X . . . . . . . . . . . . . . . . . . . . . . . . . AXaX^.. ) W.! = -.}.}.;X~.I X h 1.g . . ..aXuXe . . . . . . . . . . . . . X . . . . X . . . . X . . . . . . . . . . . . . . X . . . GXGXGXGXGXGXGXGXGXGXGXGXGXGXGXGX",
"GXGXGXGXGXGXGXGXGXGXGXGXGXGXGXGX. - . - % . . . . . . . . . . . . X . . . . . . . . . . . . . . . . . . . . . . . .   8.&.@XkX8 l } # 3X3.e = 4.2X&X%X>.w ] I . uX&XMX. X . . X . . . . . . . . X . . . . . . . . . . . . . X . . . . . p.j.j.j.j.j.j.j.j.j.j.j.j.j.j.j.j.j.j.j.j.j.j.j.v . . . . . . . . . . . . . . . . . . . . . . . . . . . . . . . X f AXdX^.6 e c..XOX' * >.*X|.$X^.h . . 8 ) e e +XyX= . . . . . . . . . . . . . . . . . . . . . . . . . . . . . . . . . . . . . . . . . w GXGXGXGXGXGXGXGXGXGXGXGXGXGXGX",
"GXGXGXGXGXGXGXGXGXGXGXGXGXGXGX= % & - % - . . . . . . . . . . . . . . . . . . . . . . X . . X . . . X . . . . . . X 9.mXcXrXe I =X$.X X = 9.rX$X%X>.= | @X}.) X tX8XbXh . . . . . . . . . . . . . . . . . . . X . . . . . . . . . . . . d.j.j.j.j.j.j.j.j.j.j.j.j.j.j.j.j.j.j.j.j.j.j.j.b . . . . . . . . . . . . . . . . . . . . . . . . . . . X . . . X ] AXdX~.h w = +.}.}.OX' = b.$X}.%XI . _ 9XqXg . 9.>X. . . . . . . . . . . . . . . . . . . . . . . . . . . . . . . . . . . . . . . . . & GXGXGXGXGXGXGXGXGXGXGXGXGXGXGX",
"GXGXGXGXGXGXGXGXGXGXGXGXGXGXGX. X - - . - . . . . . . . . . . . . . . . . . X . . . . . . . . . . . . . . . . . . =.mXMXtXz h qX0X3.X ' sX&X%X;.= | @X.XC.z : X 1X8XjX7.. . . . . . . . . . . . . . . . . . . . . . . . . X . . . . . > j.j.j.j.j.j.j.j.j.j.j.j.j.j.j.j.j.j.j.j.j.j.j.j.C . . . . . . . . . . . . . . . . . . . . . . . . . . . . . . . X (.cXdXm.e P +X| e N.}.$X~.h h m.#X!.. ( 9XwX1X8 O l (.. . . . . . . . . . . . . . . . . . . . . . . . . . . . . . . . . . . . . . . . . w GXGXGXGXGXGXGXGXGXGXGXGXGXGX",
"GXGXGXGXGXGXGXGXGXGXGXGXGXGX6 . . & - - . . . . . . . . . . . . . . . . . . . X . . X . . . . . . . . . . . . . Y bXMXlX{ w 1X0X@X# X Y.qXb.= I >X%X.X_ 6 3.9.X [.&XtX7X. . . . . . . . . . . . . . . . . . . . . . . . . . . . . . . v j.j.j.j.j.j.j.j.j.j.j.j.j.j.j.j.j.j.j.j.j.j.j.j.y.. . . . . . . . . . . . . . . . . . . . . . . . X . . . . . . X CXfXgXZ.w u G.}.^.e _ -X|.%X-.% 8 e . ) 8XwXwX].= } * k . . . . . . . . . . . . . . . . . . . . . . . . . . . . . . . . . . . . . . . . * GXGXGXGXGXGXGXGXGXGXGXGXGXGX",
"GXGXGXGXGXGXGXGXGXGXGXGXGXGXO . . . . . . . . . . . . . . . . . . . . . . . . . . . . . . . . . . . . . . . X ; vXMXzXI.& ,XqX*Xe | X & = = ~.;X Xn.w &.*X.X_ X *.&XqXbXx . X . . . . . . . . . . . . . . . . . . . . . . . . . . . . A j.j.j.j.j.j.j.j.j.j.j.j.j.j.j.j.j.j.j.j.j.j.j.j.f.. . X . . . . . X . . . . . . . X . . . . . X . . . . . . . . ] BXdXqXF.. g i `.}.<X| e !.}.}.{.e . X U.wXwXwXwXU.e T.8 . . . . . . . . . . X . . . . . . . . . X . . . . . . . . . . . . . . . . . . . . GXGXGXGXGXGXGXGXGXGXGXGXGXGX",
"GXGXGXGXGXGXGXGXGXGXGXGXGX8 . . . . . . . . . . . . . . . . . . X . . . . . . . . . . . . . . . . . . . . . . :XMXmX^.. XX0X0XI ' iXe . ' 2X$X+XU r XX.XC.u ! u = $X9XwXvX% . . . . . . . . . . . . . . . . . . . . . . . . . . . . . e.j.j.j.j.j.j.j.j.j.j.j.j.j.j.j.j.j.j.j.j.j.j.j.j.d.+ . . . . . X . . . . . . . . . . . . . . . . . . . . . . X : vXsXdX&X:.X >XI.w A.}.%XE.= >.}. X,X% e #XeXaXeXwX9X} R *Xg X X . . . . . . . . . X . . . . . . . . . . . . . . . . . . . . . . . . . . . . * GXGXGXGXGXGXGXGXGXGXGXGXGX",
"GXGXGXGXGXGXGXGXGXGXGXGXGX& % . . . . . . . . . . . . . . . . . . . . . . . . . . . . . . . . X . . X . . . =.MXMX1X= 0.8X=X( z 1X8X;.. 5X&Xb.* | %X.X,.6 E.#.( X ;.G.$XuX(.. . . . . . . . . . . . . . . . . . . . . . . . . . . . + y.j.j.j.j.j.j.j.j.j.j.j.j.j.j.j.j.j.j.j.j.j.j.j.j.j.v . . . . . . . . . . . . . . . . . . . . . . . . . . X . . q.cXwXqXH.q = C.}.XXe *.}.J.>Xh I '.<X& .  .wXpXeXwXqX=Xe U.9X8 . . . . . . . . . . . . . . . X . . . . . . . . . . . . . . . . . . . X . . . . GXGXGXGXGXGXGXGXGXGXGXGXGX",
"GXGXGXGXGXGXGXGXGXGXGXGX8 . % ; - % . . . . . . . . . . . . . . . . . . . . . . . . . . . . . . . . . . X h bXBXsXl [ tX&X4.= *X$XQ.% . I e - ^. X.X( u ,XS.>.w k . N.}.}.yX4X: X X . . . . . . . X . . . . . . . . . . . . . + n e.t.j.j.j.j.j.j.j.j.j.j.j.j.j.j.j.j.j.j.j.j.j.j.j.j.j.j.p.e.b > X . X X X . . . . . . . . X . . . . X . . . . . . } bX0X8X}.O.. 7.6 v.}.@Xl ( oX.X*X! . . . } O V.eXpXtX8X9X+X= 1X<X= . . . . . . . . . . . . . . . . . . . . . . X . . . . X . . . . . . . . . . . 6 GXGXGXGXGXGXGXGXGXGXGXGX",
"GXGXGXGXGXGXGXGXGXGXGXGX= & - . . % . . . . . . . . . . . . . . . . . . . . . . . . . . . . . . . . . X & 5XAXxX&.r sX0X!.& OX XG.6 7.  . e *XJ.oXa } *X.X+.u @X`.- & M.D.}.;XXX. . . . . . . . . . . . . . X . . . . . O 4 C t.t.t.t.j.j.j.j.j.j.j.j.j.j.j.j.j.j.j.j.j.j.j.j.j.j.j.j.j.j.f.t.u.t.e.m + X X . . . . . . . . . . . . . . X . . . . ] bX$X&X$XM.@ l }.).= N.K.*X! J oX}.%XI . * #X7.7 $XpXlX9XQ.qX9.l pX^.. . . . . . . . . . . . . . . X . . . . . . . . . . . . . . . . . . . . . . . & GXGXGXGXGXGXGXGXGXGXGXGX",
"GXGXGXGXGXGXGXGXGXGXGXGX% . . - - % . . . . . . . . . . . . . . . . . . . . . X . X . . . . . . . . X X 0.AXMX^.: 3X0X;Xw I.&X%XY U =Xu . /.|.C.= 0.%X.X^ I oXZ.J z w & *.G.x.& X . . . . . . . . . . . . . . . . . + b r.t.t.t.t.t.u.j.j.j.j.j.j.j.j.j.j.j.j.j.j.j.j.j.j.j.j.j.j.j.j.j.j.a.t.t.t.t.t.t.M , . . . . . . . . . . . . . . . . . . . Y.G.|. XF.w e r m.D.OX= V.J.=X[ e `.}.m.. R G.=Xz ) &XfXjXc.W.qXI I.tX| . . . . . . . . . . . X . . . . X . . . . . . . . . . . . . . . . . . . X . . w GXGXGXGXGXGXGXGXGXGXGX",
"GXGXGXGXGXGXGXGXGXGXGX8 . - - % . . . . . . . . . . . . . . . . . . . . . . . . . . . . . . . . . . X k BXBXyX= E.qX0X! ' ;X X4.g *X}.>.. { ) = XX X.XL ' %X.Xa [ .Xb.X X l O . . . . . . . . . . . . . . . . . + M t.t.t.t.t.t.t.t.a.j.j.j.j.j.j.j.j.j.j.j.j.j.j.j.j.j.j.j.j.j.j.j.j.j.j.a.t.t.t.t.t.t.t.t.V , . . . . X . . . . . . . . . . . . . @.J.C.6 = V.`.e N.D.^.8 m.D.$X' * $.f . e #X$X{.O m.0XmXtXj -X*X8 1XuX8 . . . . . . . . . . . . . . . . . . . . . . . . . . . . . . . . . . . . . . * GXGXGXGXGXGXGXGXGXGXGX",
"GXGXGXGXGXGXGXGXGXGXGX& . . . & % . . . . . . . . . . . . . . . . . . . . . . . . . X . . . . X X . % 7XAXcXL ' sX0X3.w 1X XOX& >X&XoX6 . . . XX.X.Xl } ;X.X~ } %XZ.6 E.a X . . . . . . . . . . X . . . X X   m r.t.t.t.t.t.t.t.t.t.i.j.j.j.j.j.j.j.j.j.j.j.j.j.j.j.j.j.j.j.j.j.j.j.j.j.j.j.u.u.t.t.t.t.t.t.t.t.M + X X X X . . . . . . . . . . . . X ^ & g w M.D.).w C.D./.* N.J.$XI . . } w *.&X&XI.8 %XfXcX~.U tXU.U uX{.. . . . . . . . . . . . . . . . . . . . . . . . . . . . . . . . . . . . . . . GXGXGXGXGXGXGXGXGXGXGX",
"GXGXGXGXGXGXGXGXGXGXe . . . X . . . . . . . . . . . . . . . . . . . . . . . . . . . . . . . . . . . 0.AXBXI.= yXwX@X: OX X%Xr 0. X8XP l [ . k  X.Xa ' %X.X_ ! .XH.r I.z.: X . . . X . . X . . . . . . . X 0 e.t.t.t.t.t.t.t.t.t.t.t.a.j.j.j.j.j.j.j.j.j.j.j.j.j.j.j.j.j.j.j.j.j.j.j.j.j.j.j.u.t.t.t.t.t.t.t.t.t.t.r.m . . X X . . . . . . . . . . . . . = C./.8 F.G.9.i G.S.U.= `.|.W.. = '.^.. [.$X=XY R 8XzXlXl T.tXR ^.zX[ . . . . . X . . . . . . . . . . . . . X . . . . . . . . . . . . . . . . X . 6 GXGXGXGXGXGXGXGXGXGX",
"GXGXGXGXGXGXGXGXGXGX= . . . . . . . . . . . . . . . . . . . . . . . . . . . . . . . . . . . . . . w BXAXyX& XXqX;Xl -.0X X_ I ;X&Xb.= -X%X= = 3.q L @X.X*.! %XG.a 0.x.@ X X X . . . . . . . X . . . X O N t.t.t.t.t.t.t.t.t.t.t.t.t.a.j.j.j.j.j.j.j.j.j.j.j.j.j.j.j.j.j.j.j.j.j.j.j.j.j.j.j.u.t.t.t.t.t.t.t.t.t.t.t.t.C > X . . . . . . . X . . . X . . X ..Z.Y.h G.}.} R J.K.0.$  .u . _ G.J.-.j =X$X>X@ N.eXzX3Xe rX=XR xXhX@ . . . . . . . . . . . . . . . . . . . . . . . . . . . . . . . . X . . . . * GXGXGXGXGXGXGXGXGXGX",
"GXGXGXGXGXGXGXGXGXGX& . . . . . . . . . . . . . . . . . . . . . . . . . . . . . . . . . . . . . . >XSXbXz { eXqX4.h rX&XOX- *X X@X* /. X;Xw X X 6 @X.XO.e *X}.) } C.: X X X X . . . . . . . . . . . , r.t.t.t.t.t.t.t.t.t.t.t.t.t.t.j.j.j.j.j.j.j.j.j.j.j.j.j.j.j.j.j.j.j.j.j.j.j.j.j.j.j.j.i.t.t.t.t.t.t.t.t.t.t.t.t.t.t.v . . . X . . . . . . . . . . X . X.S.[ $.G.-Xz *.D.Z.I X . f u #X}.=Xg 3.&X&X9.8 -XpXzX=.>.qXQ.U.zX-.. . . . . . . . . . . . . . . . . . . . . X . . . . . . . . . . . . . . . . GXGXGXGXGXGXGXGXGXGX",
"GXGXGXGXGXGXGXGXGXe X . . X . . . . . . . . . . . . . . . . . . . . . . . . . . . . . . . . . . ' AXAXR.= yX0X*X& :X0X&Xe /.&X&XK =.&X X3.= ' . I .Xc.= >XJ.4.l `.9 . . . . . . . . . . . . . . . m t.t.t.t.t.t.t.t.t.t.t.t.t.t.t.t.j.j.j.j.j.j.j.j.j.j.j.j.j.j.j.j.j.j.j.j.j.j.j.j.j.j.j.j.a.t.t.t.t.t.t.t.t.t.t.t.t.t.t.t.N o . . . . . . . . . . . X . . O k.'.g M.J.>X6 ,.S.^ . h ].= U.&X&X^.* +X8XrXk ) &XlXhXe =X8XY tXlX6 . . . . . . . . . . . . . . . . . . . . . . . . . . . . . . . . . . . . . = GXGXGXGXGXGXGXGXGX",
"GXGXGXGXGXGXGXGXGX= X . . . . X . . . . . . . . . . . . . . . . . . . . . . . . . . . . . . . . vXAXkX* ).8XqXL 7.0X&X;.' qX XI.w *X X%X* /.-Xe . L . R.}.C.w oXt . . . . . . . . . . . . . . O V t.t.t.t.t.t.t.t.t.t.t.t.t.t.t.t.t.j.j.j.j.j.j.j.j.j.j.j.j.j.j.j.j.j.j.j.j.j.j.j.j.j.j.j.j.a.t.t.t.t.t.t.t.t.t.t.t.t.t.t.t.t.e.> . . . . . . . . . . . . . X X S.!.6 `.|.W.. h . & M.D.I.e =X8X&X} ) 9X9X{.% !.wXlXE. .Q.. m.zXU.. . . . . . . . . . . . . . . . . . . . . . . . . . . . . . . . . . . . . & GXGXGXGXGXGXGXGXGX",
"GXGXGXGXGXGXGXGXGX& . . . . . . . . X . . . . . . . . . . . . . . . . . . . . . . . . . . . . [ b._ h I qX8Xm.w iX0X+X= 3X X%X= OX&X X! | |.}.>.. . z }.D.e /.5.. . . . . . . . . . . . . . O C t.t.t.t.t.t.t.t.t.t.t.t.t.t.t.t.t.u.j.j.j.j.j.j.j.j.j.j.j.j.j.j.j.j.j.j.j.j.j.j.j.j.j.j.j.j.j.t.t.t.t.t.t.t.t.t.t.t.t.t.t.t.t.t.r.> . . . . . . . . . . . . X X t D.<.i }.#X8 X O u G.J.#Xl 1.9X&X<X= !.&X&X$.h &XpXpXh ,.H T 9XzXe . . . . . . . . . . . . . . . . X . . . . . . . . . . . . . . . . . . . . GXGXGXGXGXGXGXGXGX",
"GXGXGXGXGXGXGXGXe . . . . . . . . . . . . . . . . . . . . . . . . . . . . . . . . . . . . . . . . . X g ,X*X= ).0X0Xl 9. X}._ [ &X%XW.= 1X X$X6 7.  @ *.i { z.X . . . . . . . . . . X . X > r.y.t.t.t.t.t.t.t.t.t.t.t.t.t.t.t.t.t.i.j.j.j.j.j.j.j.j.j.j.j.j.j.j.j.j.j.j.j.j.j.j.j.j.j.j.j.j.j.t.t.t.t.t.t.t.t.t.t.t.t.t.t.t.t.t.t.y.4 . . . . . . . . . . . . X . / F.h j J X e n.8 N.}.$X^.= *X&X&X<.h &X&X*X- b.8XeXU.L c.B.N.9XU.. . . . . . . . . . . . . . . . . . . . . X . . . . . . . . . . . . . . X 8 GXGXGXGXGXGXGXGX",
"GXGXGXGXGXGXGXGX* . . X . . . X . X . . . . . . . . . . . . . . . . . . . . . . . . . . . . U >XW.8 h . . = l tX8Xm.k ;X}.!.& <X&X%Xe E.8X|.X.! G.>.X . . W.O . . . . . . . . . . . . . > r.t.t.t.t.t.t.t.t.t.t.t.t.t.t.t.t.t.t.t.i.j.j.j.j.j.j.j.j.j.j.j.j.j.j.j.j.j.j.j.j.j.j.j.j.j.j.j.j.j.u.t.t.t.t.t.t.t.t.t.t.t.t.t.t.t.t.t.t.t.4 X X X . . X . . . . . . . . k.( . . * *.F.b.e =X$X9XU *.&X&X=Xe b.8X8X4.= $X8XU.. % h ,.$X=Xe . . . . . . . X . . . . . . . . . . . . . . . . . . X . . . . . . . . . * GXGXGXGXGXGXGXGX",
"GXGXGXGXGXGXGXGX% . . . . . . . . . . . . . . . . . . . . . . . . . . . . . . . . . . . . . 5X0XT.% 1X~.* . w *XrXw !. X%Xi 9.0X&X>.z 0XVX@X= *X#.z.U . . * . . X . . . . . . X . . . > r.y.t.t.t.t.t.t.t.t.t.t.t.t.t.t.t.t.t.t.t.a.j.j.j.j.j.j.j.j.j.j.j.j.j.j.j.j.j.j.j.j.j.j.j.j.j.j.j.j.j.u.t.t.t.t.t.t.t.t.t.t.t.t.t.t.t.t.t.t.t.t.n X X . . . . . . . X . . . & . . k * F.J.$Xk m.9X=X,X= *X&X8XR.8 qX9XrX= [ :.. . j X.8 J <Xb.. . . . . . . . . . . . . . . . . . . . . . . . . . . . . . . . . . . .   GXGXGXGXGXGXGXGX",
"GXGXGXGXGXGXGXGXX . . . . . . . . . . . . . . . . . . . . . . . . . . . . . . . . . X . . I cXqXh 7.8X X} O . . = z  X}.n.u qX&X%X@ @X0XVX! 0.D.}.C.& U.e X . . . . X . X . . . . .   r.t.t.t.t.t.t.t.t.t.t.t.t.t.t.t.t.t.t.t.t.t.a.j.j.j.j.j.j.j.j.j.j.j.j.j.j.j.j.j.j.j.j.j.j.j.j.j.j.j.j.j.i.t.t.t.t.t.t.t.t.t.t.t.t.t.t.t.t.t.t.t.t.t., . . . . . . . . . . . . . . 4.V.w c.|.$XR.e 9X8X9X{ *.&X8X=Xh 1.&XqXU . O P U.O M.x.J 8 >X8 . . . . . . . . . . . . X . . . . . . . . . . X . . X . . . . . . . . . w GXGXGXGXGXGXGX",
"GXGXGXGXGXGXGXw . . . . . . . . . . . . . . . . . . . . . . . . . . . . . . . . X . . . . :XdXT.% iX8X-XO R.;.. X e oX%Xw ~. X8X_ | &X0X`.= ;X}.$Xj 1.B.O X . X . . . . . . . X X O e.t.t.t.t.t.t.t.t.t.t.t.t.t.t.t.t.t.t.t.t.t.t.j.j.j.j.j.j.j.j.j.j.j.j.j.j.j.j.j.j.j.j.j.j.j.j.j.j.j.j.j.j.a.t.t.t.t.t.t.t.t.t.t.t.t.t.t.t.t.t.t.t.t.y.r.> . . . . . . . . . . . . X k.D.m.e %X&X$Xj I.=X&X@X= *X&X8XW.& U.l . . ) B.B.j  .S.F.- O I . . . . . . . . . . . . . . . . . . X . . . . . . . . . . . X . . . . . = GXGXGXGXGXGXGX",
"GXGXGXGXGXGXGX* . . . . . . . . . . . . . . X . . . . . . . . . . X . . . . . . . . . . 8 MX0Xl -.;X&X_ z ;X}.<.. X X & g 0X$X`.* <X&X&Xz R.|. Xn.e oXD . . . . . . . . . . . X . V t.t.t.t.t.t.t.t.t.t.t.t.t.t.t.t.t.t.t.t.t.t.t.j.j.j.j.j.j.j.j.j.j.j.j.j.j.j.j.j.j.j.j.j.j.j.j.j.j.j.j.j.j.a.u.t.t.t.t.t.t.t.t.t.t.t.t.t.t.t.t.t.t.t.t.t.r.  X X X . . . . . . X . . * J.$Xk U.&X&XT.e =X&X&X$.*.&X$X+X. . . J R u D.D.I.* #XF.&.. . . . . . . . . . . . . . . . . . . . . . . . . . . . X . . . . . . . . . . GXGXGXGXGXGXGX",
"GXGXGXGXGXGXGX& . . . . . X . . . . X . . . . . . . . . . . . . . . . . . . . . . . . . _.lX`.& sX0X;X: /. X$Xu } $.. . O W.%Xh -. X%Xm.u ;X X%Xe ~.z.. . . . . . . . . . . X X b y.t.t.t.t.t.t.t.t.t.t.t.t.t.t.t.t.t.t.t.t.t.t.t.j.j.j.j.j.j.j.j.j.j.j.j.j.j.j.j.j.j.j.j.j.j.j.j.j.j.j.j.j.j.j.t.t.t.t.t.t.t.t.t.t.t.t.t.t.t.t.t.t.t.t.t.t.t.V X X . . . . . . . . . . . / |.~.j 9X X&Xj I.8X8X,X% ].2.& . . U c.T.. W.K.$X= 3.Z.'.& U . . . . . . . . . . . . . . X . . . . . . . X . . . . . . . . . . . . . . GXGXGXGXGXGXGX",
"GXGXGXGXGXGXGX. . . . . . . . X . . . . . . . . . . . . . . X . . . . . . X . . . . X . nXqXI ;.wXqX*.h tX0X[.O *X|.I.. . . & . *X|.=Xq R. X X>.! #Xq X . . . . . . . . . . . , t.t.t.t.t.t.t.t.t.t.t.t.t.t.t.t.t.t.t.t.t.t.t.t.t.j.j.j.j.j.j.j.j.j.j.j.j.j.j.j.j.j.j.j.j.j.j.j.j.j.j.j.j.j.j.j.t.t.t.t.t.t.t.t.t.t.t.t.t.t.t.t.t.t.t.t.t.t.t.t.m . . . . . . . . . . . X @ G.%Xj Q.VX$XT.g 9X9X=Xw X X . J 8 P H.G.z R J.J.*.h '.$XJ $.j . . . . . . . . . . . . . . . . . . . . . . . . . . . . . . . . . X . . 8 GXGXGXGXGXGX",
"GXGXGXGXGXGXw . . . . . . . . . . . . . . . . . . . . . . . . . . . . . . . . . . . . [ xX+X. hXeX1X* I.0XqX! } &X X .k 8.O . . Y Q.>.h *X}.%X= >Xz.X X . . . . X . . . . .   y.t.t.t.t.t.t.t.t.t.t.t.t.t.t.t.t.t.t.t.t.t.t.t.t.u.j.j.j.j.j.j.j.j.j.j.j.j.j.j.j.j.j.j.j.j.j.j.j.j.j.j.j.j.j.j.j.u.t.t.t.t.t.t.t.t.t.t.t.t.t.t.t.t.t.t.t.t.t.t.t.t., . X . . . . . . . . X X X.$XU.Y 8X8X&Xh &.>.8 . X X >.F. .* J.J.b.% #XJ.].X [.}.b.e Q.. . . . . . . . . . . . . . . X . . . . . . . . . . . . . . . . . . . . * GXGXGXGXGXGX",
"GXGXGXGXGXGX= . . . . . . . . . . . X . . . . . X . . . . X . . . . . . . . . . X . . 6XdX_ } tXwX3.= yX0X*XX >X8X$X= n.K.`.. . X . X [ J.K.*.[ }.# . . . . . . . . . . X X N t.t.t.t.t.t.t.t.t.t.t.t.t.t.t.t.t.t.t.t.t.t.t.t.t.u.j.j.j.j.j.j.j.j.j.j.j.j.j.j.j.j.j.j.j.j.j.j.j.j.j.j.j.j.j.j.j.u.t.t.t.t.t.t.t.t.t.t.t.t.t.t.t.t.t.t.t.t.t.t.t.t.e.O . . . . . . . . . X . X F.&Xe ^.8XoXh . . . 6 k . M.H.'.. b.'.9X@ 1.#X#Xj $.#X%X= ].8 . . . . . . . . . . . . . . . . . . . . X . . . . . X . . . . X . . . * GXGXGXGXGXGX",
"GXGXGXGXGXGX& X . . . . X . . . . . . . X . . . . . . . . . . . . . . . . . . . . . e cX1X. 3XqXiXr 3.qX0X&.z 0X&Xb.= =XJ.,.@ I.l . . . ) 4.& `.#.. . X . . . . . . X . . < t.t.t.t.t.t.t.t.t.t.t.t.t.t.t.t.t.t.t.t.t.t.t.t.t.t.i.j.j.j.j.j.j.j.j.j.j.j.j.j.j.j.j.j.j.j.j.j.j.j.j.j.j.j.j.j.j.j.i.t.t.t.t.t.t.t.t.t.t.t.t.t.t.t.t.t.t.t.t.t.t.t.t.t.m X . . . . . . . . X . . T |.>.= U O . X . Y B.N.. ( G.G.U J '.'.} l $XJ.9.6 %XJ.{ $.... . . . . . . . . . . . . . . . . . . . . . X . . . . . . . . . . . . . GXGXGXGXGXGX",
"GXGXGXGXGXGXO . . . . . . . X . . . . . . . . . . . . . . . . . X . . . . . . . . . 0.fX4.I dX0X~.: 1XqXwX= ~.&X&XY -.J.}.l $.x.L.l 6 . . . . W.t . . . . . . . X . X X O e.t.t.t.t.t.t.t.t.t.t.t.t.t.t.t.t.t.t.t.t.t.t.t.t.t.t.i.j.j.j.j.j.j.j.j.j.j.j.j.j.j.j.j.j.j.j.j.j.j.j.j.j.j.j.j.j.j.j.a.t.t.t.t.t.t.t.t.t.t.t.t.t.t.t.t.t.t.t.t.t.t.t.t.t.t.> . . . . . . . . . . . O m.h . . . j $.. J H.G.L * $XJ.U.O '.|.[.. +X$X*X% Q.&X].* >X. . . . . . . . . . . . . . . . . . . . . . . . . . . . . . . . . . . . w GXGXGXGXGX",
"GXGXGXGXGXe X . . . . . . . . . . . . . . . . . . . . . . . . . . . . . . X . . . . 5XsX= /.eXwXI { eX0XR.; qX8X'.. *X}.Q.. ].D.C.X !.4.= . . * . . . . . . X . . . X X m t.t.t.t.t.t.t.t.t.t.t.t.t.t.t.t.t.t.t.t.t.t.t.t.t.t.t.s.j.j.j.j.j.j.j.j.j.j.j.j.j.j.j.j.j.j.j.j.j.j.j.j.j.j.j.j.j.j.j.a.t.t.t.t.t.t.t.t.t.t.t.t.t.t.t.t.t.t.t.t.t.t.t.t.t.t.V . . . . . . . . . . . . . . @ = h S.'..   '.J.c.. b.J.-X= 1.'.=Xw >.$X$XU { $X&Xe T.j . . . . . . . . . . . . X . . . . . . . . . . . . . . . . . . . . . . 6 GXGXGXGXGX",
"GXGXGXGXGX8 . . . . . . . . . . . . . . . . . . . . . . . . . . . . . . . . . . . e lXT.= uX0X<X. OX0XqXl ;.&X X) ! |.}._ z }.K._ U S.Z.O 3.) . . . . . . . . . . . . + t.t.t.t.t.t.t.t.t.t.t.t.t.t.t.t.t.t.t.t.t.t.t.t.t.t.t.t.s.j.j.j.j.j.j.j.j.j.j.j.j.j.j.j.j.j.j.j.j.j.j.j.j.j.j.j.j.j.j.j.a.t.t.t.t.t.t.t.t.t.t.t.t.t.t.t.t.t.t.t.t.t.t.t.t.t.t.t.< . . . . . . . . . . . . e R X.O F.S.( . c.'.&X% ( #XJ.&.k |. X<.h $X Xb.8 =X$X*._ 1.X . . . . . . . . . . . . . . . . . . . . X . . . . . . . . . . X . . = GXGXGXGXGX",
"GXGXGXGXGX= . . . . . . . . . . . X . . . . . . . . . . . . . . . . . . . . . . . 7.tXl -.wX9X;.g wX&X+XX *X X*X& R.}.$X= n.K.#X8 m.D...l #.) . . X . . X . . . . . . M t.t.t.t.t.t.t.t.t.t.t.t.t.t.t.t.t.t.t.t.t.t.t.t.t.t.t.t.d.j.j.j.j.j.j.j.j.j.j.j.j.j.j.j.j.j.j.j.j.j.j.j.j.j.j.j.j.j.j.j.j.t.t.t.t.t.t.t.t.t.t.t.t.t.t.t.t.t.t.t.t.t.t.t.t.t.t.t.e.. . . . . . . . . . . . O ,.l.= >.D.U.. U $XJ.( & %X$X[.. oX%XOXX @X$XrX. !.$XOX* 1X. . . . . . . X . X . . . . . . . . . . X . . . . X . . X . . . . . . & GXGXGXGXGX",
"GXGXGXGXGX& . . . . . . . . . . . . . . . . . . . . . X . . X . . . . . . . . . . {.<X. 1X8XqX= 9.$X&X&.I &X X3.g &X}.c.& =XJ.N.= =XK.u 1.5.p X . . . . . . X . . . + t.t.t.t.t.t.t.t.t.t.t.t.r.t.t.t.t.t.t.t.t.t.t.t.t.t.t.t.t.j.j.j.j.j.j.j.j.j.j.j.j.j.j.j.j.j.j.j.j.j.j.j.j.j.j.j.j.j.j.j.j.j.i.t.t.t.t.t.t.t.t.t.t.t.t.t.t.t.t.t.t.t.t.t.t.t.t.t.t.t.n . . . . . . . . . . X X ,.L.( I J.*XO * $X$XI.. T.$X=Xw 1.$X;Xw 4.$X$XI ;.|.=Xh T.h . . . . . . . . . . . . . . . . . . . . . . . . . . . . . X . . . . . GXGXGXGXGX",
"GXGXGXGXGXO . . . . . . . . . . . . . . . . X . . . . . . . . . . . . . . . . . . jX;.E qX0XW.. <X&X9X= Y.&X&Xl -.|.}.I } }.J.R ;..X`.. %XF.. . . . X . . . . . X X b t.t.t.t.t.t.t.t.t.t.t.t.t.t.t.t.t.t.t.t.t.t.t.t.t.t.t.t.u.j.j.j.j.j.j.j.j.j.j.j.j.j.j.j.j.j.j.j.j.j.j.j.j.j.j.j.j.j.j.j.j.j.a.t.t.t.t.t.t.t.t.t.t.t.t.t.t.t.t.t.t.t.t.t.t.t.t.t.t.t.C X . . . . . . . . . X X ^ D.N.. -XJ.[ . W.$X&X. ) $X}.;.z =X$X=.I &X$X1.u -X#X*.( $.. . . . . . . . . . . . X . . . . . . . . . . . . . . . . . . . . . . GXGXGXGXGX",
"GXGXGXGXe . . . . . . . . . . . . . . . . . X . . . . X . . . . . . . . X . . . z uX= R.0X8X( ' 0X&XW.& rX&XoX. @X X%X. U.J.#X& !.}.*.' D.>.. . . . . X . . X . X O r.t.t.t.t.t.t.t.t.t.t.t.t.t.t.t.t.t.t.t.t.t.t.t.t.t.t.t.t.s.j.j.j.j.j.j.j.j.j.j.j.j.j.j.j.j.j.j.j.j.j.j.j.j.j.j.j.j.j.j.j.j.j.j.u.t.t.t.t.t.t.t.t.t.t.t.t.t.t.t.t.t.t.t.t.t.t.t.t.t.t.t., . X . X . . . . . . . 6 '.$X* M. XU..  .|.'.L 6 &X$XQ.. *X$X^.. =X$X-X. +X$XOXO ~.. . . . . . . . . . . . . . . . . . . . . . . . . . . . . . . . . . . = GXGXGXGX",
"GXGXGXGX8 . . . . . . . . . . . . . . . . . . . . . . . . . . . . . . . . . . . ;.R.= iX8XrXO R.0X&X[ { 8X&X;.I &X$X3.* -XJ.b.8 &X|.u m.K.J . . . . . . . . . . X 4 t.t.t.t.t.t.t.t.t.t.t.t.t.t.t.t.t.t.t.t.t.t.t.t.t.t.t.t.t.d.j.j.j.j.j.j.j.j.j.j.j.j.j.j.j.j.j.j.j.j.j.j.j.j.j.j.j.j.j.j.j.j.j.j.i.t.t.t.t.t.t.t.t.t.t.t.t.t.t.t.t.t.t.t.t.t.t.t.t.t.t.t.M . . . . . . . . . . . . N.G.! ( }.=X% 7 '.J.>.. Q.$X9X- b.$XqX* n.$X8Xg 3.#X&Xw b.. . . . . . . . . X . . X . . . . . . . . . . . . . . . . . . X . . . 6 GXGXGXGX",
"GXGXGXGX6 . . . . . X . . . . . . X . . . . . . . . . . . . . X . . . . . . . X I.U { qX0Xn.* rX0XqX. !.0XqXw I.&X&XL [ G.J.J =.}.`.: *XJ.% . . . . . . . . . . X C t.t.t.t.t.t.t.t.t.t.t.t.t.t.t.t.t.t.t.t.t.t.t.t.t.t.t.t.s.j.j.j.j.j.j.j.j.j.j.j.j.j.j.j.j.j.j.j.j.j.j.j.j.j.j.j.j.j.j.j.j.j.j.j.d.t.t.t.t.t.t.t.t.t.t.t.t.t.t.t.t.t.t.t.t.t.t.t.t.t.t.t.t.  . X . . . . . . . . .  .G.,.* }.D.Y . [.K.m.. $.#XJ.) U =X X' ( #X|._ I #X}.$.I g . . . . . . . . . . . . . . . . X . . . . X . . . . . . . . . . . . * GXGXGXGX",
"GXGXGXGX& . X . . . . . . . . . . . . . . . . . . . . . . . . . . . . . . . . X ).X OXqXqXU } &X8XI.= rX0X].O =X&X=X. &.J.#X. ].}.+.~ }.1.. . . . . . . . . . . + t.t.t.t.t.t.t.t.t.t.t.t.t.t.t.t.t.t.t.t.t.t.t.t.t.t.t.t.t.j.j.j.j.j.j.j.j.j.j.j.j.j.j.j.j.j.j.j.j.a.a.a.a.a.a.j.j.j.j.j.j.j.j.j.j.j.a.t.t.t.t.t.t.t.t.t.t.t.t.t.t.t.t.t.t.t.t.t.t.t.t.t.t.t.4 . . . . . . . . . . X u G.'.. M.D.( X 8 R & . J #X$X3.& 9X|.1.8 $X}.m.& %X}.W.. R . . . . . . . . . . . . . . . . . . . . . . . . . . . . . . . . . . & GXGXGXGX",
"GXGXGXGX= . X . . . . . . . . . . . . . . . . . . . . . X . . . . . . . . . . . -.e qX0XiX. W.8X0XU { &X8X&.I $X|.>.. . U J . oXK.e *.K.P . . . . . . . X . . . v t.t.t.t.t.t.t.t.t.t.t.t.t.t.t.t.t.t.t.t.t.t.t.t.t.t.t.t.s.j.j.j.j.j.j.j.j.j.j.j.j.j.j.j.j.d.i.t.t.t.t.t.t.t.t.t.i.a.j.j.j.j.j.j.j.j.j.i.t.t.t.t.t.t.t.t.t.t.t.t.t.t.t.t.t.t.t.t.t.t.t.t.t.t.N . . . . . . . . . . . . G.K.g L x.%.. . . . . % -XJ.oXX V.}.`.. `.$X=XX W.}.*X& h . . . . . . . . . . . . . . . . . . . . . . . . . . . . . . . . . . . GXGXGXGX",
"GXGXGXGX& X . . . . . . . . . . . . . . . . . . . . . . . . . . . . . . . . . . = -.qXqXU.* iX9XrX% Q.8XqXw 4.|.Q.@ . . . . . j ^ . :.G.* . . . . . . . . . . X e.t.t.t.t.t.t.t.t.t.t.t.t.t.t.t.t.t.t.t.t.t.t.t.t.t.t.t.i.j.j.j.j.j.j.j.j.j.j.j.j.j.j.j.d.u.t.t.t.t.t.t.t.t.t.t.t.t.t.u.a.j.j.j.j.j.j.j.a.u.t.t.t.t.t.t.t.t.t.t.t.t.t.t.t.t.t.t.t.t.t.t.t.t.t.t.. . . . . . . . . . . . 1.K.R . 8 . . . . . 8 . 1.J.|.h *.}.&X8 >.$X%Xl *.#X$XP X X . X . . . . . . . . . . . . . X . . . . X . . . . . . . . . . . . X GXGXGXGX",
"GXGXGXGXO . . . . . . . . . . . . . . . . . . . . . . . . . . . . . . . . . . . X <X0X0X} { 0XqXI.* rX8XoX. +X'.8 . I . . . . . . . l P . . . . . . . . . . . + t.t.t.t.t.t.t.t.t.t.t.t.t.t.t.t.t.t.t.t.t.t.t.t.t.t.t.t.j.j.j.j.j.j.j.j.j.j.j.j.j.j.d.u.t.t.t.t.t.t.t.t.t.t.t.t.t.t.t.t.u.a.j.j.j.j.j.j.j.j.t.t.t.t.t.t.t.t.t.t.t.t.t.t.t.t.t.t.t.t.t.t.t.t.t.t.v . . . . . . . . . . . @ $.% . . . . . . . I.. O T.J._ l |.}.( U  X$X .J }.}.>.. . . . . . . . . X . . X . . . . . . . . . . . . . . . . . . . . . . . GXGXGXGX",
"GXGXGXGX. . X . . . . . . . . . . . . . . . . . . . . . . . . . . . . . . . . . e dX0XiX* U.0X0X( } 0X8X;.k %Xu . * U . . . . . . . . . . . . . . . . . . . . 4 t.t.t.t.t.t.t.t.t.t.t.t.t.t.t.t.t.t.t.t.t.t.t.t.t.t.t.d.j.j.j.j.j.j.j.j.j.j.j.j.d.i.t.t.t.t.t.t.t.t.t.t.t.t.t.t.t.t.t.t.t.t.u.j.j.j.j.j.j.j.a.t.t.t.t.t.t.t.t.t.t.t.t.t.t.t.t.t.t.t.t.t.t.t.t.t.b . . . . . . . . . . . . . . . . . . . X X ,.& . & F.M.O =X|.1.6 =X|.M.& =X}.`.. . . . . . . . . . . . . . . . . . . . . . . . . . . . . . . . . . . . e GXGXGX",
"GXGXGXe . . . . . . . . . . . . . . . . . . . . . . . . . . . . . . . . . . . . &.eX8XQ.. 1X8XrX* n.8X9Xy &.Y = k U 8 . . . . . . . . X . . . . . . . X . . X M t.t.t.t.t.t.t.t.t.t.t.t.t.t.t.t.t.t.t.t.t.t.t.t.t.t.d.j.j.j.j.j.j.j.j.j.j.j.j.s.t.t.t.t.t.t.t.t.t.t.t.t.t.t.t.t.t.t.t.t.t.t.t.i.j.j.j.j.j.j.j.a.t.t.t.t.t.t.t.t.t.t.t.t.t.t.t.t.t.t.t.t.t.t.t.t.e.X . . . . . . . . . . . . . . . . . . . . _ j ] % e oXX C.}.`.. %X}.*X. `.}.=X= . . . . . . . . . . . . X . . . . . . . . . . . . . . . . . . X . . . = GXGXGX",
"GXGXGXe . . . . . . . . . . . . . . . . X . . . . . . X . . . . . . . . . . . . ].qX&X&.h 0X8X!.. 1X&X+XX I % /.+ 1.. . . . . . . . . . . . . X . . . . . X X e.t.t.t.t.t.t.t.t.t.t.t.t.t.t.t.t.t.t.t.t.t.t.t.t.t.s.j.j.j.j.j.j.j.j.j.j.j.j.i.t.t.t.t.t.t.t.t.t.t.t.t.t.t.t.t.t.t.t.t.t.t.t.t.t.i.j.j.j.j.j.j.j.i.t.t.t.t.t.t.t.t.t.t.t.t.t.t.t.t.t.t.t.t.t.t.t.t.+ . . . . . . . . . . . . . . . . . . . . J R ( R.X ! . 1. X=X& n.}.*Xw 3.J.%XK . X . . . . X . . . . . . . . . . . . . . . . . . . . . . . . . . . . 8 GXGXGX",
"GXGXGXw . . . . . . . . . . . . . . X . . . . . . . . . . X . . . . . . . . . X tX&X8Xg -.&X8X*.h &X&X,.X . 7.c.. 2.. . . . . . X . . . . X . . . . . . . X O t.t.t.t.t.t.t.t.t.t.t.t.t.t.t.t.t.t.t.t.t.t.t.t.t.s.j.j.j.j.j.j.j.j.j.j.j.d.u.t.t.t.t.t.t.t.t.t.t.t.t.t.t.t.t.t.t.t.t.t.t.t.t.t.t.t.i.j.j.j.j.j.j.j.t.t.t.t.t.t.t.t.t.t.t.t.t.t.t.t.t.t.t.t.t.t.t.t.< . . . . . . . . . . . . . . . . . . . . e :.h ^.&.. . } $X$XY $.}.J.( _ G.#X*.. . . X . . . X . . . . . . . . . . X X . . . . . . . . . . . . . . . = GXGXGX",
"GXGXGX8 . . . . . . . . . . . . . . . . . . . . . . . . . . . . . . . . . . . h tX&X=XX !.8X9Xz ;.&X&XL . =.k.2.. b.. . . . . . . . . . . . . . . . . . . . , t.t.t.t.t.t.t.t.t.t.t.t.t.t.t.t.t.t.t.t.t.t.t.t.s.j.j.j.j.j.j.j.j.j.j.j.d.t.t.t.t.t.t.t.t.t.t.t.t.t.t.t.t.t.t.t.t.t.t.t.t.t.t.t.t.t.t.a.j.j.j.j.j.j.a.t.t.t.t.t.t.t.t.t.t.t.t.t.t.t.t.t.t.t.t.t.t.t.b . X . . . . . . . . . . . . . . . . X . % b.6 ( ~.z . 8 &X X*.J '.#X>.l .XG.Q.. . . . . . . . . . . . . . . . . . . . . . . . . . . . . . . . . . . * GXGXGX",
"GXGXGX8 . X . . . . . . . . . . . X . . . . . . . . . . . . X . . . . . . . . _ tX8XW.. iX&XqXO /.8XrXO h [.z.P e ... . . . . . . X . . . . . . . . . . . . n t.t.t.t.t.t.t.t.t.t.t.t.t.t.t.t.t.t.t.t.t.t.t.a.j.j.j.j.j.j.j.j.j.j.j.s.t.t.t.t.t.t.t.t.t.t.t.t.t.t.t.t.t.t.t.t.t.t.t.t.t.t.t.t.t.t.t.t.a.j.j.j.j.j.j.a.t.t.t.t.t.t.t.t.t.t.t.t.t.t.t.t.t.t.t.t.t.t.N . . . . . . . . . . . . . . . . . . . . . T.# %.% XX* . R.$XU.* %X}.U.= }.J.#X. X . . . . . . . . X . . . . . . . . . . . . . . . . . . . . . X . . * GXGXGX",
"GXGXGX6 . . . . . . . . . . . . . . . . . . . . . . . . . . . . . . . . . . . m.8X8X;.z qX0X!.. iX8XW.. <.Q z.D L ^ . . . . . . . . . . . . . . . . . . . . m t.t.t.t.t.t.t.t.t.t.t.t.t.t.t.t.t.t.t.t.t.t.i.j.j.j.j.j.j.j.j.j.j.j.i.t.t.t.t.t.t.t.t.t.t.t.t.t.t.t.t.t.t.t.t.t.t.t.t.t.t.t.t.t.t.t.t.t.t.a.j.j.j.j.j.j.i.t.t.t.t.t.t.t.t.t.t.t.t.t.t.t.t.t.t.t.t.t.V . . . . . X . . . . . . . . . . . . . . . !.. *.. w _.. l $XoX. %X#X-X. @XJ.#X* . . . . . X . . . . . . . . . . . . . . . . . . . . . . . . . . X . * GXGXGX",
"GXGXGX= . . . . . . . . . . . . . . . . . X . . . . X . . . . . . . . . . . . +X8XqXl &.8X8X>.k qX8X[ ! E.G o.k ) J . . . . . . . . . . . . . . . . . . X . V t.t.t.t.t.t.t.t.t.t.t.t.t.t.t.t.t.t.t.t.t.u.j.j.j.j.j.j.j.j.j.j.j.i.t.t.t.t.t.t.t.t.t.t.t.t.t.t.t.t.t.t.t.t.t.t.t.t.t.t.t.t.t.t.t.t.t.t.t.u.j.j.j.j.j.j.j.t.t.t.t.t.t.t.t.t.t.t.t.t.t.t.t.t.t.t.t.t.t.X . . . . . . . . . . . . . . . . . . . . W.. %.. 8 1Xk . V.=X@ m.|.=XO T..X'.j . . . . . . . . . . . . . . . . . . X . . . . . . . . . . . . . . . & GXGXGX",
"GXGXGX* . . . . . X . . . . . . . . . . . . . . . . . . . . . . . . . . . . . rXwXrX& U.qX9X( &.&X=XO ;.=X_ F e *.h . . . . . . . . . . . . . . . . . . X X V t.t.t.t.t.t.t.t.t.t.t.t.t.t.t.t.t.t.t.t.u.j.j.j.j.j.j.j.j.j.j.j.u.t.t.t.t.t.t.t.t.t.t.t.t.t.t.t.t.t.t.t.t.t.t.t.t.t.t.t.t.t.t.t.t.t.t.t.t.t.u.j.j.j.j.j.j.a.t.t.t.t.t.t.t.t.t.t.t.t.t.t.t.t.t.t.t.t.t.X . . . . . . . . . . . . . . . . . . . . U.. $.. {.#X! k u 0Xe <.}.#Xh >..X#X^ . . . . . . . . . . . . . . . . . . . . . . . . . . . . . . . . . . & GXGXGX",
"GXGXGX* . . . . . . X . . . . . . . . . . . . . . . . . . . . . . . . . . . & tX0X-XX ,X9XqXe I.8X>.. 8.$X&Xh O m.8 . . . . . . X . . . . . . . . . . . . . e.t.t.t.t.t.t.t.t.t.t.t.t.t.t.t.t.t.t.t.u.j.j.j.j.j.j.j.j.j.j.j.u.t.t.t.t.t.t.t.t.t.t.t.t.t.t.t.t.t.t.t.t.t.t.t.t.t.t.t.t.t.t.t.t.t.t.t.t.t.t.t.i.j.j.j.j.j.j.a.t.t.t.t.t.t.t.t.t.t.t.t.t.t.t.t.t.t.t.t.+ . . . . . . . . . . . . . . . . . . . . T.# ( &.oX6 ' 0.. b.~ ) }.}.) { .X}.X.. . . . . . . . . . . . . . . . . . . . . . . . . . . . . . . . . . O GXGXGX",
"GXGXGX* . . . . . . . . . . . . . . . . . . . . . . . . . . . . . . . . . . e eXqXT.* tX0XrX. ].&Xe . U.'.$XU.. W.@ . . . . . . . . . . . . . . . . . . . . t.t.t.t.t.t.t.t.t.t.t.t.t.t.t.t.t.t.t.t.d.j.j.j.j.j.j.j.j.j.d.u.t.t.t.t.t.t.t.t.t.t.t.t.t.t.t.t.t.t.t.t.t.t.t.t.t.t.t.t.t.t.t.t.t.t.t.t.t.t.t.t.t.i.j.j.j.j.j.j.i.t.t.t.t.t.t.t.t.t.t.t.t.t.t.t.t.t.t.y., . . . . . . . . . . . . . . . . . . . . E.6 =.rXD X ) >.I e $.k }.}.+.I H.G.>.. . . . . . . . . . X . . . . . . . . . . . . . . . . . . . . . . X & GXGXGX",
"GXGXGX* . . . . . . . . . . . . . . . . . . . . . . . . . . . X . . . . . . g 9XqX*.l 8X0X^.. 9Xm.. . ~.'.$XJ . ~.. . . . . . . . . . . . . . . . . . . . . y.t.t.t.t.t.t.t.t.t.t.t.t.t.t.t.t.t.t.d.j.j.j.j.j.j.j.j.j.d.u.t.t.t.t.t.t.t.t.t.t.t.t.t.t.t.t.t.t.t.t.t.t.t.t.t.t.t.t.t.t.t.t.t.t.t.t.t.t.t.t.t.t.t.a.j.j.j.j.j.a.u.t.t.t.t.t.t.t.t.t.t.t.t.t.t.t.t.t.t., . . . X . . . . . . . . . . . . . . . . ~.= N.9.U . &._ W.X ' *  XJ.b.e .XD.3.. . . . . . . . X . . . . . . . . . . . . . . . . . . . . . . . X X @ GXGXGX",
"GXGXGX= . . . . . . . . . . . . X . . . . X . . . . . X . . . . . . . . . . P 8X8XU { 8X0Xb.6 9Xh . . ].J.b.. . ~.. . . . . . . . . . . . . . . . . . . . . y.y.t.t.t.t.t.t.t.t.t.t.t.t.t.t.t.t.d.j.j.j.j.j.j.j.j.j.d.u.t.t.t.t.t.t.t.t.t.t.t.t.t.t.t.t.t.t.t.t.t.t.t.t.t.t.t.t.t.t.t.t.t.t.t.t.t.t.t.t.t.t.t.t.u.j.j.j.j.j.j.a.t.t.t.t.t.t.t.t.t.t.t.t.t.t.t.t.t.t., . . . . . . . . . . . . . . . . . . . . ~.= h . Y.u *.) S.P - . oX}.V.  oXG.b.. . . . X . . . . . . . . . . . . . . . . . . . . . . . . . . . X X & GXGXGX",
"GXGXGX* . X . . . . . X . . . . . . . . . . . . . . . . . . . . . . . . . . ) &XqXe ,.0X8X$.h m.. 6.. +X+X& g . W.. . . . . . . . . . . . . . . . . . . . . t.t.t.t.t.t.t.t.t.t.t.t.t.t.t.t.t.a.j.j.j.j.j.j.j.j.j.d.t.t.t.t.t.t.t.r.t.t.t.t.t.t.t.t.t.t.t.t.t.t.t.t.t.t.t.t.t.t.t.t.t.t.t.t.t.t.t.t.t.t.t.t.t.t.t.t.a.j.j.j.j.j.a.t.t.t.t.t.t.t.t.t.t.t.t.t.t.t.t.t., X . . . . . . . . . . . . . . . . . . . /.* . . O b. ._ L.m.X . C.J.#X. oXD.b.. . . . . . . . . . . . . . . . X . . . . . . . . . . . . . . . . . . GXGXGX",
"GXGXGX* . . . . . . . . . . . X . X . . . . X . . . . . . . . . . . . . . . ) 8XrXX ~.8X8XI ) j ; 2X. '.( w ~.. ^.. . . . . . . . . . . . . . X . . . . . . t.t.t.t.t.t.t.t.t.t.t.t.t.t.t.t.a.j.j.j.j.j.j.j.j.j.d.t.t.t.t.t.t.t.t.t.t.t.t.t.t.t.t.t.t.t.t.t.t.t.t.t.t.t.t.t.t.t.t.t.t.t.t.t.t.t.t.t.t.t.t.t.t.t.t.t.u.j.j.j.j.j.j.u.t.t.t.t.t.t.t.t.t.t.t.t.t.t.t.t., X . . . X . . . . . . . . . . . . . . . /.. 8 . g Z.$._ B.h = X 3.J.%XO C.D.c.. . . . . . . . . . . . . . . . . . . . X . . . . . . . . . . X . . . GXGXGX",
"GXGXGX* . . . . . . . . . . . . . . . . . . . . . . . X . . X . . . . . . . ) &X=XX @X8X9Xe U . 8.*X. Y.. :X^.. ^.# . . . . . . . . . . . . . . . . . . . . t.t.t.t.t.t.t.t.t.t.t.t.t.t.t.i.j.j.j.j.j.j.j.j.j.d.u.t.t.t.t.t.t.t.t.t.t.t.t.t.t.t.t.t.t.t.t.t.t.t.t.t.t.t.t.t.t.t.t.t.t.t.t.t.t.t.t.t.t.t.t.t.t.t.t.t.t.u.j.j.j.j.j.j.u.t.t.t.t.t.t.t.t.t.t.t.t.t.t.t., X . X . . . . . . . . . . . . . . . . . +X. 0.O *.L. ._ X.. . .  .}.#Xe b.D.3.. . . . X . . . . . . . . . . . . . . . . . X . . . . . . X . . . . & GXGXGX",
"GXGXGX% . . . . . . . . . . . . . . . . . . . . . . . . . . . . . . . . . . ( &XW.. rX8XqX. . . :X=X. * 7.,X} . ~.9 . . . . . . . . . . . . . . . . . . . . r.t.t.t.t.t.t.t.t.t.t.t.t.t.u.j.j.j.j.j.j.j.j.j.d.t.t.t.t.t.t.t.t.t.t.t.t.t.t.t.t.t.t.t.t.t.t.t.t.t.t.t.t.t.t.t.t.t.t.t.t.t.t.t.t.t.t.t.t.t.t.t.t.t.t.t.t.t.a.j.j.j.j.j.a.t.t.t.t.t.t.t.t.t.t.t.t.t.t.t.> X . . . . . . . . . . . X . X . . . . . ,X. kX= J x.` ) i . . . U J.}.k >.G.,.. . . . . . . . . . . . . . . . . . . . . . . . . . . . . . . . . . % GXGXGX",
"GXGXGX* . . . . . . . . . . . . . . . . . . . . . . X . . . . . . . . . . . z 9XU.6 qX8XoXX X z '.rX+ 8 hXR [   E.8 % . . . . . . . . . . . . . X . . . . . V t.t.t.t.t.t.t.t.t.t.t.t.u.d.j.j.j.j.j.j.j.j.d.u.t.t.t.t.t.t.t.t.t.t.t.t.t.t.t.t.t.t.t.t.t.t.t.t.t.t.t.t.t.t.t.t.t.t.t.t.t.t.t.t.t.t.t.t.t.t.t.t.t.t.t.t.t.t.a.j.j.j.j.j.a.t.t.t.t.t.t.t.t.t.t.t.t.t.t.. . . . . X . . . . . . . . . . . . . . X >XO lXT.. O.^ ( t . k . k #XJ.( ..G.... . . . . . . . . . . . . . . X . . . X . . . . . . X . . . . . . . @ GXGXGX",
"GXGXGX= . X . . . . . X . . . . . . . . . . . . . . . . . . . . . X . . X . h 0X-.h 0X8XW.. X Y.pXtX= ).>X. { e c.j . . . . . . . . . . . . X . . . X . . . V t.t.t.t.t.t.t.t.t.t.t.u.d.j.j.j.j.j.j.j.j.a.t.t.t.t.t.t.t.t.t.t.t.t.t.t.t.t.t.t.t.t.t.t.t.t.t.t.t.t.t.t.t.t.t.t.t.t.t.t.t.t.t.t.t.t.t.t.t.t.t.t.t.t.t.t.t.t.t.a.j.j.j.j.j.u.t.t.t.t.t.t.t.t.t.t.t.t.y.. . . . . . . . . . . . . . . . X . . . * ).w *.1X( * P z X = <.. * %X}.{ _ D._ . . . . . . X . . . . . . . . . . . . . . . . . . . . . . . . . . . & GXGXGX",
"GXGXGX6 . . . . . . . . . . . . . . . X . . . . . . . . . . . . . . . . . . r qX&.! &X0X>.. . } gXtXg 0.' . _ k %.R . . . . . . . . . . X . . . X . . . . . b t.t.t.t.t.t.t.t.t.t.t.d.j.j.j.j.j.j.j.j.d.t.t.t.t.t.t.t.t.t.t.t.t.t.t.t.t.t.t.t.t.t.t.t.t.t.t.t.t.t.t.t.t.t.t.t.t.t.t.t.t.t.t.t.t.t.t.t.t.t.t.t.t.t.t.t.t.t.t.u.j.j.j.j.j.j.t.t.t.t.t.t.t.t.t.t.t.t.C . X . . . . . . . . . . . . . . . . . . 8 U.k ) X.#Xh . . O 9.J . . -XJ.$.R S.( X . . . . . . . . . . . . . . . . . . . . . . . . . . . . . X . . . * GXGXGX",
"GXGXGX= . . . . . . . . . . X . . . . . X . . . . . . . . . . X . . . . . . @ wX) { 8X&X&.. . . /.fXz % O . :.)  .$.. . . . . . . . . . . . . . . . . . . . m t.t.t.t.t.t.t.t.t.t.s.j.j.j.j.j.j.j.j.d.t.t.t.t.t.t.t.t.t.t.t.t.t.t.t.t.t.t.t.t.t.t.t.t.t.t.t.t.t.t.t.t.t.t.t.t.t.t.t.t.t.t.t.t.t.t.t.t.t.t.t.t.t.t.t.t.t.t.t.t.u.j.j.j.j.j.a.t.t.t.t.t.t.t.t.t.t.t.V . . . X . . . . . . . . . . . . . . . . z *.' ` -XI.. . . | H X.. . `.J.1.J G.l . . . . . X . . . . . . . . . . . . . . . . . . . . . . . . . . . . * GXGXGX",
"GXGXGX8 X . . . . . . . . . . . . . . . . . . . . . . X . . . . . . . . . . X =XJ &.8X&X( X . % 8 uX( . . . N.$.Y b.. . . . . . . . . . . . . . . . . . . . , t.t.t.t.t.t.t.t.t.a.j.j.j.j.j.j.j.j.a.t.t.t.t.t.t.t.t.t.t.t.t.t.t.t.t.t.t.t.t.t.t.t.t.t.t.t.t.t.t.t.t.t.t.t.t.t.t.t.t.t.t.t.t.t.t.t.t.t.t.t.t.t.t.t.t.t.t.t.t.t.t.i.j.j.j.j.j.i.t.t.t.t.t.t.t.t.t.t.m . . . . . . . . . . . . . . . . . . . . { ) *.8X].. k g u F.Q ... . m.J.I.h G.6 . . X . . . . . . . . . . . . . . X . . . . . . . . . . . . . . . . * GXGXGX",
"GXGXGXw . . . . . . . . . X . . . . . . . . . . . . . . . . . . X . . . . . X ].k 1.8X&Xl . k ' = 9.%.6.& . U.,.6 ].. . . . . . . . . . . . . . . . . . . . + t.t.t.t.t.t.t.t.i.j.j.j.j.j.j.j.j.a.u.t.t.t.t.t.t.t.t.t.t.t.t.t.t.t.t.t.t.t.t.t.t.t.t.t.t.t.t.t.t.t.t.t.t.t.t.t.t.t.t.t.t.t.t.t.t.t.t.t.t.t.t.t.t.t.t.t.t.t.t.t.t.t.i.j.j.j.j.j.u.t.t.t.t.t.t.t.t.t.4 . . X . . . . . . . . . . . . . . . . . >.Y 3.-X8 . >X. W.Z.Z._ . . 1.J.U.e '.. . . . . . . . X . . . . . . . . . . . X . . . . . . . . . . X . . . * GXGXGX",
"GXGXGXe . . . . . . . . . . . . . . . . . . . . . . . . . . . . . . . . . . X U.e b.&X9Xe . ' g ).& 8.&.3Xw O 8.. rX. . . . . . . . . . . . . . . . . . . . . r.t.t.t.t.t.t.i.j.j.j.j.j.j.j.j.d.u.t.t.t.t.t.t.t.t.t.t.t.t.t.t.t.t.t.t.t.t.t.t.t.t.t.t.t.t.t.t.t.t.t.t.t.t.t.t.t.t.t.t.t.t.t.t.t.t.t.t.t.t.t.t.t.t.t.t.t.t.t.t.t.t.t.a.j.j.j.j.j.u.t.t.t.t.t.t.t.t.> . . . . X . . . . . . . . . . . . . . X :X8 U.l X 9.*X& %XS.L.O.. . $.J.m.6 C.. X . . . . X . . . . . . . . . . . . . . . . . . . X . . X . . . . . 6 GXGXGX",
"GXGXGXe . . X . . . . X . . . . . . . X . . X . . . . . . . . . . . . . . . . %.8 M.=X0XO . &.& iX| E Y $XjXl X . /.= . . . . . . . . . . . . . . . . . . . . N t.t.t.t.t.u.j.j.j.j.j.j.j.j.d.t.t.t.t.t.t.t.t.t.t.t.t.t.t.t.t.t.t.t.t.t.t.t.t.t.t.t.t.t.t.t.t.t.t.t.t.t.t.t.t.t.t.t.t.t.t.t.t.t.t.t.t.t.t.t.t.t.t.t.t.t.t.t.t.t.t.t.u.a.j.j.j.j.a.t.t.t.t.t.t.t.r.. . X . . . . . . . . . . . . X . . . . . 2X. 7.. U fX/.e 8XL.H._ = . { J.m.O b.. . . . . . . . . . X . . X . . . . . . . . . . . . . . . . . . . . X = GXGXGX",
"GXGXGXGX. X . . . . . . . . . . . . . . . . . . . . . . . . . . . . . . . . . ' 8 I.$X=X. . *.& <X2Xe & 1XtXlXP . m.J . . . . . . . . . . . . . . . . . . . . n t.t.t.t.t.j.j.j.j.j.j.j.j.s.t.t.t.t.t.t.t.t.t.t.t.t.t.t.t.t.t.t.t.t.t.t.t.t.t.t.t.t.t.t.t.t.t.t.t.t.t.t.t.t.t.t.t.t.t.t.t.t.t.t.t.t.t.t.t.t.t.t.t.t.t.t.t.t.t.t.t.t.t.t.a.j.j.j.j.a.t.t.t.t.t.t.N X . . . . . . . . . . . . . . . . . . . * :X  . e 2XeXn.z eXS.S.R l 8 I G.m.. %.. . . . . X . . X . . . . . . . . . . . . . . . . . . . X . . . . . . w GXGXGX",
"GXGXGXGX& X . . . . . . . . . . . . . . . . . . . . . X . . . . . . . . . . . g w U. X'.. . ( j Q.8X).. +X%XfX~.  *.... . . . . . . . . X . . . . . . . . . . > t.t.t.t.d.j.j.j.j.j.j.j.s.t.t.t.t.t.t.t.t.t.t.t.t.t.t.t.t.t.t.t.t.t.t.t.t.t.t.t.t.t.t.t.t.t.t.t.t.t.t.t.t.t.t.t.t.t.t.t.t.t.t.t.t.t.t.t.t.t.t.t.t.t.t.t.t.t.t.t.t.t.t.t.i.j.j.j.j.j.i.t.t.t.t.t.n . . X X . . . . . . . . . . . . . . . . U 3.. * :XdX$X*.- ! b.`.h ^ 6 j J.M.. [ . . . . . . . . . . . . X . . . . . . . . . . . . . . . . . . . . . . GXGXGXGX",
"GXGXGXGX% X . . . . . . . . . . . . . . . X . . . . . . . X . . . . . . . . . . 8 n.|.C.. . J ) 1.&XwXl T.G.zXj . L Q.% . . . . . . X . . . . . . . . . . . . . e.t.t.d.j.j.j.j.j.j.j.d.t.t.t.t.t.t.t.t.t.t.t.t.t.t.t.t.t.t.t.t.t.t.t.t.t.t.t.t.t.t.t.t.t.t.t.t.t.t.t.t.t.t.t.t.t.t.t.t.t.t.t.t.t.t.t.t.t.t.t.t.t.t.t.t.t.t.t.t.t.t.t.t.t.i.j.j.j.j.d.u.t.t.t.t.+ . . . . . . . . . . . . . . . . . . . . <.{ . ~.fX&XoX( . . . @ & X.O e '.m.. 8 . . . . . . . . . X . . . . . . . . . . X . . . . . . . . . . . . X . GXGXGXGX",
"GXGXGXGX= . . . . . . . X . . . . X . . . . . . . . . . . . . . . . . . . . .   . 3.$XM.. . e 1...J.+XO ;.H.].+ (.+ yX. . . . . . . . . . . . . . . . . . . .   m t.s.j.j.j.j.j.j.j.s.t.t.t.t.t.t.t.t.t.t.t.t.t.t.t.t.t.t.t.t.t.t.t.t.t.t.t.t.t.t.t.t.t.t.t.t.t.t.t.t.t.t.t.t.t.y.t.t.t.t.t.t.t.t.t.t.t.t.t.t.t.t.t.t.t.t.t.t.t.t.t.t.t.t.t.a.j.j.j.j.a.t.t.t.C X . . . . . . X . . . . . . . . . . . . . !.i 3.lXrX,.-Xw k @ . . % :.  # $Xb.. . . . . . . . . . . . . . . . . . X . . . . . . . . . . . X . . . . X & GXGXGXGX",
"GXGXGXGX= . . . . . . . . . . . . . . . . . . . . . . . . . X . . . . . . . . . . 1.$X,.. . @ /.D &X^ O u $XT I rX7 Q.q . . . . . X . . . . . . . . . . . . . . > i.j.j.j.j.j.j.j.s.t.t.t.t.t.t.t.t.t.t.t.t.t.t.t.t.t.t.t.t.t.t.t.t.t.t.t.t.t.t.t.t.t.t.t.t.t.t.t.t.t.t.t.t.t.t.t.t.t.t.t.t.t.t.t.t.t.t.t.t.t.t.t.t.t.t.t.t.t.t.t.t.t.t.t.t.t.a.j.j.j.j.i.t.t.v . . . . . . . . . . . . . . . . X . . . % 5Xt <X,Xz.@.OX  G /.$ . : ,.. O %Xc.. . . . . . . . . . . . . . . . . . . . . . . . . . . . . . . . . . . . % GXGXGXGX",
"GXGXGXGX= . . . . . . . . . . . . . . . . . . . . . . . . . . . . . . . . . . . . X.$XO.. . . ].# +XO [ o >XO /.X.) ..%.. . . . . . . . . . . . . . . . . . . . b j.j.j.j.j.j.j.s.t.t.t.t.t.t.t.t.t.t.t.t.t.t.t.t.t.t.t.t.t.t.t.t.t.t.t.t.t.t.t.t.t.t.t.t.t.t.t.t.t.r.t.t.t.t.t.t.t.t.t.t.t.t.t.t.t.t.t.t.t.t.t.t.t.t.t.t.t.t.t.t.t.t.t.t.t.t.t.a.j.j.j.j.i.t.+ . . . . . . . . . . . . . . . . . . . . l ~.* T.o.Q o.3.  i P ) e . >..   oX,.. . . . . . . . . . . . . . . . . . . . . . . . . . . . . . . . . . . X * GXGXGXGX",
"GXGXGXGXw X . . . . . . . . . . . . . . . X . . . . X . . . . . . . . . . . . . . _ '.X.. . . T.S _ G 3X= z e ,XX.b.K U.  . . . . . . . . X . . . . X . . . . 5 d.j.j.j.j.j.j.s.t.t.t.t.t.t.t.t.t.t.t.t.t.t.t.t.t.t.t.t.t.t.t.t.t.t.t.t.t.t.t.t.t.t.t.t.t.t.t.t.t.t.t.t.t.t.t.t.t.t.t.t.t.t.t.t.t.t.t.t.t.t.t.t.t.t.t.t.t.t.t.t.t.t.t.t.t.t.t.t.t.j.j.j.j.j.C . . . . X . . . . . . . . . . . . . . . . *.*.X :.c.H 5.9.. P S p P 2 ..    `.%.. . . . . . . . . . . . X . . X . . . . . . . . . . . . . . . . . . . . * GXGXGXGX",
"GXGXGXGXe . . . . . . X . X . . X . . . . . . . . . . . . . . . . . . . . . . . . Y |. .. . .  ...G >.}._ . $ *.rX*X# >X* . . . . . . . . . . . . . . . . . > f.j.j.j.j.j.j.s.t.t.t.t.t.t.t.t.t.t.t.t.t.t.t.t.t.t.t.t.t.t.t.t.t.t.t.t.t.t.t.t.t.t.t.t.t.t.t.t.t.t.t.t.t.t.t.t.t.t.t.t.t.t.t.t.t.t.t.t.t.t.t.t.t.t.t.t.t.t.t.t.t.t.t.t.t.t.t.t.t.t.i.j.j.j.j.y.  . . . . . . X . . . . . . . . . . . . . :X^ 7.l W.X.x.&.9 y G p 4.G P . . H.` . . . . . . . . . . . . . . . . . . . . . . X . . . . . . . . . . . . . * GXGXGXGX",
"GXGXGXGXGXO . . . . . . . . . . . . . . . . . . . . . . . . . . . . . . . . . . . 6 %X_ . . . U *.6 `.G.n.@ } # t Q.a 4.{ . . . . . . . . . . . . . . . . + g.j.j.j.j.j.j.a.t.t.t.t.t.t.t.t.t.t.t.t.t.t.t.t.t.t.t.t.t.t.t.t.t.t.t.t.t.t.t.t.t.t.t.t.t.t.t.t.t.t.t.t.t.t.t.t.t.t.t.t.t.t.t.t.t.t.t.t.t.t.t.t.t.t.t.t.t.t.t.t.t.t.t.t.t.t.t.t.t.t.t.t.i.j.j.j.j.Z . . . . . . . . . . . . . . . . . . . * <XG jX2 U.c.`.u ) i q H ,.) y . % C.K . . . . . . . . . . . X . . . . . X . . . . . . . . . . . . . . . . . . w GXGXGXGX",
"GXGXGXGXGX& . . . . . . . . . . . . . . . . . . . . . . . . . . . . . . . . . . . . '.( . . . t Q.. w v.=XO ~.4.7 # e [ ^.. . . . . . . . . . . . . . . . y.j.j.j.j.j.j.s.t.t.t.t.t.t.t.t.t.t.t.t.t.t.t.t.t.t.t.t.t.t.t.t.t.t.t.t.t.t.t.t.t.t.t.t.t.t.t.t.t.t.t.t.t.t.t.t.t.t.t.t.t.t.t.t.t.t.t.t.t.t.t.t.t.t.t.t.t.t.t.t.t.t.t.t.t.t.t.t.t.t.t.t.t.t.a.j.j.j.j.4 . . . . . . . . . . . . . . . . . . { m.;.b.;.) F.*X+ ;.O 9 c.H O.* . . Q.e . . . . . . . . . . . . . . . . . . . . . . . . . . . . . . . . . . . . GXGXGXGXGX",
"GXGXGXGXGX* . . . . . . . X . . . . . . . . . X . . . . . . . . . X . . . . . . . . b.T . . . + +X+ . O m.j -.#.m.) + $ jX6 . . X . . . . . . . . . . . e.j.j.j.j.j.j.i.t.t.t.t.t.t.t.t.t.t.t.t.t.t.t.t.t.t.t.t.t.t.t.t.t.t.t.t.t.t.t.t.t.t.t.t.t.t.t.t.t.t.t.t.t.t.t.t.t.t.t.t.t.t.t.t.t.t.t.t.t.t.t.t.t.t.t.t.t.t.t.t.t.t.t.t.t.t.t.t.t.t.t.t.t.t.t.t.a.j.j.j.f.> . . . . . . . . . . . . . . . . . /.^ ~.c.R.q cXU.+ =.o # 1.S #.. . . [..   . . . . . . . . . . . . . . . X . . . . . . . . . . . . . . . . . . & GXGXGXGXGX",
"GXGXGXGXGX6 . . . . . . . . . . . X . . . . . . . . X . . . . X . . . . . . . . . . $.T . . . @ <.T . . # =.i [.G.rX^.& U.*.. . . . . . . X . . . . . Z j.j.j.j.j.j.e., t.t.t.t.t.t.t.t.t.t.t.t.t.t.t.t.t.t.t.t.t.t.t.t.t.t.t.t.t.t.t.t.t.t.t.t.t.t.t.t.t.t.t.t.t.t.t.t.t.t.t.t.t.t.t.t.t.t.t.t.t.t.t.t.t.t.t.t.t.t.t.t.t.t.t.t.t.t.t.t.t.t.t.t.t.t.t.t.b t.j.j.j.y.. . . . . X . . . . . . . . . . # 5Xo jXQ a m.XX6 2 ~.# O  .t ... . . U.. . . . . . . . . . . . . . . . . . . . . . . . . . . . . . . . . . . . * GXGXGXGXGX",
"GXGXGXGXGXe . . . . . . . . . . . . . . . . . . . . . . . . . . . . . . . . . . . . e ) . . . . X.O.# 9 % U o ,X&X&X>.* J *XO . . . . . . . . . . . b j.j.j.j.j.j.C . . M y.t.t.t.t.t.t.t.t.t.t.t.t.t.t.t.t.t.t.t.t.t.t.t.t.t.t.t.t.t.t.t.t.t.t.t.t.t.t.t.t.t.t.t.t.t.t.t.t.t.t.t.t.t.t.t.t.t.t.t.t.t.t.t.t.t.t.t.t.t.t.t.t.t.t.t.t.t.t.t.t.t.t.t.t.y.e.. + f.j.j.j.Z . . . . . . . . . . . . . . % $.3.I >XS G O.& . ( k.P O e K P . . . =.. . . . . . . . . . . . . . . . . . . . . . . . . . . . . . . . . . . . 6 GXGXGXGXGX",
"GXGXGXGXGXGX. . . . . . . . . . . . . . . X . . . . . . . . . . . . . . . . . . . . . [ . . . . t Q.O 8.* u u 1.8X.XD 0.1 ,XJ . . . . . . . . . . 4 d.j.j.j.j.j.e.. . . + r.t.t.t.t.t.t.t.t.t.t.t.t.t.t.t.t.t.t.t.t.t.t.t.t.t.t.t.t.t.t.t.t.t.t.t.t.t.t.t.t.t.t.t.t.t.t.t.t.t.t.t.t.t.t.t.t.t.t.t.t.t.t.t.t.t.t.t.t.t.t.t.t.t.t.t.t.t.t.t.t.t.t.t.t.t.< . . , j.j.j.j.v . . . . . . . . . . . . . . >Xp b.k.G H   I X U.qXv.= O T t . . . U . . . . . . . . . . . . . . . . X . . . . . . . . . . . . . X . . . . . w GXGXGXGXGX",
"GXGXGXGXGXGX& . . . . . . . . . . . . X . . . . . . . . . . . . . . . . . . . . . . . - . . . . . ].# *.1.8 i e tX`.+ ~.J  .W.. . . . . . . . . > f.j.j.j.j.j.e.. . . . . m t.t.t.t.t.t.t.t.t.t.t.t.t.t.t.t.t.t.t.t.t.t.t.t.t.t.t.t.t.t.t.t.t.t.t.t.t.t.t.t.t.t.t.t.t.t.t.t.t.t.t.t.t.t.t.t.t.t.t.t.t.t.t.t.t.t.t.t.t.t.t.t.t.t.t.t.t.t.t.t.t.t.t.t.Z . . . . v j.j.j.f.> . . . . . . . . . . . X y U.6 {.R F * <.R.  <XD.G.6 . 2.O . . . - . . . . . . . . . . . . . . . . . . . . . . . . . . . . . . . . . . . . GXGXGXGXGXGX",
"GXGXGXGXGXGX= . . . . . . . . . . . . . . . . . . . . . . . . . . . . . . . . . . . . . . . . . .  .R T ) W.S O N...e :.~.7 ,Xu . . . . . . . + f.j.j.j.j.j.C . . . . . . . C t.t.t.t.t.t.t.t.t.t.t.t.t.t.t.t.t.t.t.t.t.t.t.t.t.t.t.t.t.t.t.t.r.t.t.t.t.t.t.t.t.t.t.t.t.t.t.t.t.t.t.t.t.t.t.t.t.t.t.t.t.t.t.t.t.t.t.t.t.t.t.t.t.t.t.t.t.t.t.t.t.t.r.+ . . . . . N j.j.j.p.  . . . . . . . . . . . <.R -.I.p t ^.fXJ j }.c.i % * O.. . . . . . . . . . . . . . . . X . . . . . . . . . . . . . . . . . . . . . . . & GXGXGXGXGXGX",
"GXGXGXGXGXGX8 . . . . . . . . . . . . . . . . . . . . . . . . . . . . . . . X . . . . . . . . . . S U.s ,.F T.h ( J  .D rXL :.U.. . . . . .   p.j.j.j.j.j.e.. . . . . . . . > t.t.t.t.t.t.t.t.t.t.t.t.t.t.t.t.t.t.t.t.t.t.t.t.t.t.t.t.t.t.t.t.t.t.t.t.t.t.t.t.t.t.t.t.t.t.t.t.t.t.t.t.t.t.t.t.t.t.t.t.t.t.t.t.t.t.t.t.t.t.t.t.t.t.t.t.t.t.t.t.t.t.n . . . . . . . e.j.j.j.C . . . . . . . . . . 6 {.7 /.# L R.uX+X@ -.) @ X . S S . . . . . . . . . . . . . . . . X . . . . . . . . . . . . . . . . . . X . . . X * GXGXGXGXGXGX",
"GXGXGXGXGXGXe . . . . . . . . . . . . . . . . . . . . . . . . . . . . . . . . . . . . . . . . . . O {.+ b.t G {.@ 6 U.K G.W.q uX6 . . . . . e.j.j.j.j.j.C . . . . . X . . . . n t.t.t.t.t.t.t.t.t.t.t.t.t.t.t.t.t.t.t.t.t.t.t.t.t.t.t.t.t.t.t.t.t.t.t.t.t.t.t.t.t.t.t.t.t.t.t.t.t.t.t.t.t.t.t.t.t.t.t.t.t.t.t.t.t.t.t.t.t.t.t.t.t.t.t.t.t.t.t.t.N . . . . . . . . . p.j.j.j.b . . . . . . . . % ;.&.7 e E.^.b.J 4.s = . X . .  .6 . . . . . . . . . . . . . . . . . . . . . . . . . . . . . . . . . . . . . . . X 6 GXGXGXGXGXGX",
"GXGXGXGXGXGXGX. . . . . . . . . . . . . . . . . . . . . . . . . . . . . . . . . . . . . . . . . . % O.U ) p S c.  k 7 ) c.v.w U.b.. . . . N j.j.j.j.j.C . . . . X . . . . . X X N t.t.t.t.t.t.t.t.t.t.t.t.t.t.t.t.t.t.t.t.t.t.t.t.t.t.t.t.t.t.t.t.t.t.t.t.t.t.t.t.t.t.t.t.t.t.t.t.t.t.t.t.t.t.t.t.t.t.t.t.t.t.t.t.t.t.t.t.t.t.t.t.t.t.t.t.t.t.e.O . . . . . . . . . + f.j.j.f.> . . . . . . . * 3Xy D /.hX$.O <.F o X X : X $ ,.. . . . . . . . . . . . . . . . . . . . . . X . . . . . . . . . . . . . . . X X . GXGXGXGXGXGXGX",
"GXGXGXGXGXGXGX% . . . . . . . . . . . . X . . . . . . . . . . . . . . . . . . . . . . . . . . . . . K *.>  .S >.  I E.7 $ T =.q hX6 . . b j.j.j.j.j.e.. . . . . . . . . . . X X   e.t.t.t.t.t.t.t.t.t.t.t.t.t.t.t.t.t.t.t.t.t.t.t.t.t.t.t.t.t.t.t.t.t.t.t.t.t.t.t.t.t.t.t.t.t.t.t.t.t.t.t.t.t.t.t.t.t.t.t.t.t.t.t.t.t.t.t.t.t.t.t.t.t.t.t.t.y.> . . . . . . . . . . . 5 j.j.j.p.O . . . . . . ;.W.e {.*.7 . . /.i w $ ! { : z F . . . . . . . . . . . . . . . . . . . . . . . . . . . . . . . . . . . . . . . X & GXGXGXGXGXGXGX",
"GXGXGXGXGXGXGX8 . . . . . . . . . . . . . . . . . . . . . . . . X . . . . . . . . . . . . . . . X . O T.7 T S  .e u ^.nX8.: @ : W.U.. v d.j.j.j.j.C . . . . . . . . . . . . . . . + r.t.t.t.t.t.t.t.t.t.t.t.t.t.t.t.t.t.t.t.t.t.t.t.t.t.t.t.t.t.t.t.t.t.t.t.t.t.t.t.t.t.t.t.t.t.t.t.t.t.t.t.t.t.t.t.t.t.t.t.t.t.t.t.t.t.t.t.t.t.t.t.t.t.t.t.4 . . . . . . . . . . . . . v j.j.j.C . . . . . & 2Xe ).@.@ X X [ +.F 4.>Xm.q % ,.6 . . . . . . . . . . . . . X . . . . . . . . . . . . . . . . . . . . . . . . . . = GXGXGXGXGXGXGX",
"GXGXGXGXGXGXGXGX. . . . . . . . . . . . . . . . . . . . . . . . . . . . . . . . . . . . . . . . . . .  .R i t ) D 1.P F.iXkX8.F R jXg e.j.j.j.j.C . . . . . . . . . . . . . . . . . > y.t.t.t.t.t.t.t.t.t.t.t.t.t.t.t.t.t.t.t.t.t.t.t.t.t.t.t.t.t.t.t.t.t.t.t.t.t.t.t.t.t.t.t.t.t.t.t.t.t.t.t.t.t.t.t.t.t.t.t.t.t.t.t.t.t.t.t.t.t.t.t.t.t.n . . . X . . X . . . . . . . X Z j.j.j.b . . X % -.Q.r nXF p X : _.F 2XQ.D  .O 8 ,.. . . . . . . . . X . . . . . . . . . . . . . . . . . . . . . . . . . . . . . . . 8 GXGXGXGXGXGXGX",
"GXGXGXGXGXGXGXGX& . . . . . . . . . . . . . . . . . . . . . . . . . . . . . . X . X . . . . . . . . . 7 c.# R e F oX2 !.D.G.9X2XF N.].O f.j.j.e.. . . . . . . . . . . . . . . . . . . 4 t.t.t.t.t.t.t.t.t.t.t.t.t.t.t.t.t.t.t.t.t.t.t.t.t.t.t.t.t.t.t.t.t.t.t.t.t.t.t.t.t.t.t.t.t.t.t.t.t.t.t.t.t.t.t.t.t.t.t.t.t.t.t.t.t.t.t.t.t.t.t.t.M X . . . . . . . . X . . . . . . . e.j.j.f.> . . = rXe 3.m._ D & ' J L N.r D _ % ) H . . . . . . . . . . . . . . . . . . . . X . . . . . . . . . . . . . . % d d . .   GXGXGXGXGXGXGXGX",
"GXGXGXGXGXGXGXGX* . . . . . . X . . X . . . . . . . . . . . . . . . . . . . . . . . . . . . . . . . . . %.u h O P Z.4.P $X&X&X^.S H yX( b j.C X . . . . . . . . . . . . . . . . . . . . v t.t.t.t.t.t.t.t.t.t.t.t.t.t.t.t.t.t.t.t.t.t.t.t.t.t.t.t.t.t.t.t.t.t.t.t.t.t.t.t.t.t.t.t.t.t.t.t.t.t.t.t.t.t.t.t.t.t.t.t.t.t.t.t.t.t.t.t.t.t.M . . . X . . . X . . . . . X . . . . + p.j.j.p.+ . 3.V.J +XW.) a @ I.: ( v.@ P e % c.& . . . . . . X . . . . . . . . . . . . . . . X . . . . . . . . . . . . % f f d . & GXGXGXGXGXGXGXGX",
"GXGXGXGXGXGXGXGXe X . . X . . . . . . . . . . . . . . . . . . . . . . . . . . . . . X . . . . X . . . . S  .% % ` D.#Xr OX$X&X3.g =.%.yX& b O . . . . . . . . . . . . . . . . . . . . . X 4 y.t.t.t.t.t.t.t.t.t.t.t.t.t.t.t.t.t.t.t.t.t.t.t.t.t.t.t.t.t.t.t.t.t.t.t.t.t.t.t.t.t.t.t.t.t.t.t.t.t.t.t.t.t.t.t.t.t.t.t.t.t.t.t.t.t.t.t.M . . . . . . . . . X . . . . . . . . . . > f.j.j.b h 1XG 3X/ Q...F | u = &.B.O *.. K T . . . . . . . . . . . . . . . . . . . . . . . . . . . . . . . . . . . % - f c - . 6 GXGXGXGXGXGXGXGX",
"GXGXGXGXGXGXGXGXGXO . . . . . . . . . X . . . . . . . . . . . . X . . . . X . . . . . . . . . . . . . . % 2.y y c.D..X3.F &X X4.P 3X+ [.I.. . . X . . . . X . . . . . . . . . . . . . . X . , r.t.t.t.t.t.t.t.t.t.t.t.t.t.t.t.t.t.t.t.t.t.t.t.t.t.t.t.t.t.t.t.t.t.t.t.t.t.t.t.t.t.t.t.t.t.t.t.t.t.t.t.t.t.t.t.t.t.t.t.t.t.t.t.t.t.n . . . X . . . . . . . . X . . . X . . . . . 5 d.g.+ ].1.,.].o m.:.F E.O 3.4.B.D U . *.7 . . . . . . . . X . . . . . . X . . . . . . . . . . . . . . . . . . . d d f d . . f GXGXGXGXGXGXGXGX",
"GXGXGXGXGXGXGXGXGX* . . . . . X . . . . . . . . . . . . . . . . . . . . . . . . . . . . . . . . . . . . . T $.6 M.H.G.&Xy V. X>.*.qX;.y uXJ % . . . . . . . . . . . . . . . . . . . . . . . X > r.t.t.t.t.t.t.t.t.t.t.t.t.t.t.t.t.t.t.t.t.t.t.t.t.t.t.t.t.t.t.t.t.t.t.t.t.t.t.t.t.t.t.t.t.t.t.t.t.t.t.t.t.t.t.t.t.t.t.t.t.t.t.t.4 X X . . . . . . . . . . . . . . . . . . . . . . b v $.^.G <XD O c.N./.q ) @.c.X.c.q i R . . . . . . . . . . . . . . . . . . . . . . . . X . . . . . . . . . . . f d d & . % GXGXGXGXGXGXGXGXGX",
"GXGXGXGXGXGXGXGXGX8 . . . . . . . . . . . . . . . . . . . . . . . . . . . . . . . . . . . . . . . . . . . O T.6 a W.G..X~.p &XO.>.'.uX8 %.2X& . . . . . . . . . . . . . . . . . . . . . X . . X O V t.t.t.t.t.t.t.t.t.t.t.t.t.t.t.t.t.t.t.t.t.t.t.t.t.t.t.t.t.t.t.t.t.t.t.t.t.t.t.t.t.t.t.t.t.t.t.t.t.t.t.t.t.t.t.t.t.t.t.t.e.> X X . . . . . . . . . . . . . . . . . . . . . . . . 8 hXt 9.c.q & +X&X;.3 /.q #.x. .$ _ e % . . X . . . . . . . . X . . . . . . . X . . . . . . . . . . . . . . % d - f . . - GXGXGXGXGXGXGXGXGX",
"GXGXGXGXGXGXGXGXGXGXO . . X . . . . . X . . . . . . . . . . . . . . . . . . . . . X . . . . . . . . . . . . R %.O % R +X&XK b._  .:.T.^.t @XR.. . . . . . . . . . . X . . . . . . X . . . . . . . . b y.t.t.t.t.t.t.t.t.t.t.t.t.t.t.t.t.t.t.t.t.t.t.t.t.t.t.t.t.t.t.t.t.t.t.t.t.t.t.t.t.t.t.t.t.t.t.t.t.t.t.t.t.t.t.t.t.y.M . . . . . . . . . . . . . . . . . . . X . . . . . . . % :X>.l :XO @ J rX,X# *. .% +.@.7 p X.. . . . . . . . X . . . . . . . . . . . . . . . . . . . . X . . . . . . . . . & . X e GXGXGXGXGXGXGXGXGX",
"GXGXGXGXGXGXGXGXGXGX= . . . . . . . . . . . . . . . . . . . . . . . . . . . . . . . . . . . . . . . . . . . + 3.t . O = b.3Xp z  .T 7 +X4.5.rX( . . . . . . . . . . . . . X . . . . . . . . . . . X X , e.t.t.t.t.t.t.t.t.t.t.t.t.t.t.t.t.t.t.t.t.t.t.t.t.t.t.t.t.t.t.t.t.t.t.t.t.t.t.t.t.t.t.t.t.t.t.t.t.t.t.t.t.t.t.r.v . . . . . . . . . . . . . . . . . . . . . . . . . . . % $.+X$ /.F { +XuX*Xp q ~.# . ) ^ . _ y . . . . . . . . . . . . . . . . . . . . . . . . . . . . . . . . . . . . . . . . . & GXGXGXGXGXGXGXGXGXGX",
"GXGXGXGXGXGXGXGXGXGXw X . . . . . . . . . . . X . . . . . . . . . . . . . . . . . . X . . . . . . . . . . . O P R # i 1 5 P 3.. P w 6 G n.) :.iXe . . . . . . . . . . . . . . . . . . . . . . . . . . X O b t.t.t.t.t.t.t.t.t.t.t.t.t.t.t.t.t.t.t.t.t.t.t.t.t.t.t.t.t.t.t.t.t.t.t.t.t.t.t.t.t.t.t.t.t.t.t.t.t.t.t.t.Z + X X . . . . X . . . . . . . . . . . . . . . . . . . . . u <Xq <.c.W.-X,X( . . * 2 #   q & i ) . . . . . . . . . . . . . X . . . . X . . . . . . . . X . . . . . . . . . . . . . . = GXGXGXGXGXGXGXGXGXGX",
"GXGXGXGXGXGXGXGXGXGXGX& . X . . . . . . . . . . . . . . . . . . X . . . . X . . . . . . . . . . . . . . . . . @ l.i j e f.3 &.q r =   : @ q i W.,X* . . . . . . . X . . X . . X . . . . . . . . . . . . . . > V t.t.t.t.t.t.t.t.t.t.t.t.t.t.t.t.t.t.t.t.t.t.t.t.t.t.t.t.t.t.t.t.t.t.t.t.t.t.t.t.t.t.t.t.t.t.t.t.e.< . . . . . . . . . . . . . X . . . . . . . . . X . . . . . & +X>.^ 1XM.3.P . = . e [ <.9.;.6 . >.t % . . . . . . . . . . . . . . . . . . . . X . . . . . . . . . . . . . . . . . . . . GXGXGXGXGXGXGXGXGXGXGX",
"GXGXGXGXGXGXGXGXGXGXGX= . . . . . . . . . . . . . . . . X . . . . . . . . . . . X . . . . . . . . . . . . . . . L 2.  @ y.N 6 K q sXW.3X~.;.z @ ].^.. . . . . . . . . X . . . . . . . . . . . . X . . . . . . . < e.t.t.t.t.t.t.t.t.t.t.t.t.t.t.t.t.t.t.t.t.t.t.t.t.t.t.t.t.t.t.t.t.t.t.t.t.t.t.t.t.t.t.t.y.r.b X . . . . . . . . X . . . . . . . . . . . . . . . . . . X X X R.Q.5.hXU.D 2 { >Xz a iXN./ q . . P R . . . . . . . . . . . . . . . . . . . . . . . . . . . X . . . . . . . . . . . . . . & GXGXGXGXGXGXGXGXGXGXGX",
"GXGXGXGXGXGXGXGXGXGXGXGX. . X . . . . X . . . . . . . . . . . . . . . . . . . . . . X . . . . . . . . . . . X . O P.J f U t p ^ = { z.H #.N.^.O = ,X9.  . . . . . . . . . . . . . . . . . . . . . . . . X . . X . . 4 e.t.t.t.t.t.t.t.t.t.t.t.t.t.t.t.t.t.t.t.t.t.t.t.t.t.t.t.t.t.t.t.t.t.t.t.t.t.t.t.t.e.m O . X . . . . X . . . . . . . . . . . . . . . . . . . . X . X : >.,XG -.i p ;.yXzXI.: } @ . . . . * ,.9 . . . . . . . . . . X . . . . . . . . . . . . . . . . . . . . . . . . % g - & . . X 8 GXGXGXGXGXGXGXGXGXGXGX",
"GXGXGXGXGXGXGXGXGXGXGXGX* . . . . . . . . . X . . . . . . . . . . . . . . . . X . . . . . . . . . . . . . . . 5 A K T.> b.3X3.H a   m.#.o.#.m.o 0.q iX-.% . . . . . . . . . . . . . . . . . . . . . X . . . . . . . X X , A y.y.t.t.t.t.t.t.t.t.t.t.t.t.t.t.t.t.t.t.t.t.t.t.t.t.t.t.t.t.t.t.t.t.t.t.V 4 X X . . . . . . . . . . . . . . . . . . . . . . . . . . . . . . . [ yXe p n.2XkXOXqXOX* 6 :.y.4 .   : ( P . . . . . . X . . X . . . . . . . . . . . . X . . . . . . . . X . . . . - . - - . . . GXGXGXGXGXGXGXGXGXGXGXGX",
"GXGXGXGXGXGXGXGXGXGXGXGXw X . . . . . . . . . . . . X . . . . . . X . . . . . . . . . . . . . . . . . . . . > f.f.+ o.R . 6 ..+XR.q = !.#.k.<X. <X;._ yX$.% . . . X . . . . . . . . . . . . . . . . . . . . . . . X . . X X o 5 N t.t.t.t.t.t.t.t.t.t.t.t.t.t.t.t.t.t.t.t.t.t.t.t.t.t.t.t.t.t.V n + X X X X . X . . . . . . . . . . . . . . . . X . . X . . . . . . . . h yXa &.nXlXdX;XG.oXe z a _ y.b Y & e $.. . . . . . . . . . . . . . . . X . . . . . . . . . . . . . . . . . . . - - . % % . . = GXGXGXGXGXGXGXGXGXGXGXGX",
"GXGXGXGXGXGXGXGXGXGXGXGXGX@ . . . . . . . . . . . . . . . . X . . . . . . . . X . . . . . . . . . . . . . . p.j.j.B 7 m.q . X # X.>X( i [.G.sX  .X%X4...hX( % . . . . . . . . . . . . . . . . . . . . . . . . . . . . . . . . . . . n M e.t.t.t.t.t.t.t.t.t.t.t.t.t.t.t.t.t.t.t.y.y.t.r.N n + . X . . . . . . X . . . . . . . . . . . . . . . X . . X . . . . . . . . q <X(  .xXR.F..X.XG._ u &.P P V O %..  .S . . . . . . . . . . . . . . . . . . . . . . . . . . . . . . . . . . . . . f - f ; . . GXGXGXGXGXGXGXGXGXGXGXGXGX",
"GXGXGXGXGXGXGXGXGXGXGXGXGX6 . . . . X . . . . . X . . . . . . . . . . . . . . . . . . . . . . . . . . . . y.j.d.y.O . L >.F <.q . @ U.h $.}.sX2 F.}. XO.>.hXU . . . . . . . . . . . . . . . . . . . . . . . . . . . . . . . . . . X X . X + < b N Z t.y.t.t.t.y.t.t.t.t.t.t.C V b 5 > X X X . . . . X . . . . . . . . . . . . . . . . . . . . . . . . . . . . X . . 6 @XO.L XX^ s oX}..Xb.@ OXt X.i . &.# l P . . . . . . . . . . . . . . . . . . . . . . . . . . . . . . . . . . . . . . . X . % X * GXGXGXGXGXGXGXGXGXGXGXGXGX",
"GXGXGXGXGXGXGXGXGXGXGXGXGXGX. . . . . . . . X . . . . . . . . . . . . . . X . . . . . . . . . . . . . . e.j.d.y.. . . O *.O./ ..G ! U.D _ ,.dX  !.|.}.=X .` yXU . . . . . . . . . . . . . . . . . . . . . . . . . . . . X . . . . . . . X . . . X X . . + , > , , , , > . . X X . . X . X . . . . . . . . . . . . . . . . X . . X . . . . . . . . . . . . . . . . 8 +Xn.q kX .S / %X}.F.$ ~.M.X @.7 u R 6 P.9 . . . . . . . . . . . . . . . . . . . . . . . X . . . . . . . . . . . . . . . . . . . 8 GXGXGXGXGXGXGXGXGXGXGXGXGX",
"GXGXGXGXGXGXGXGXGXGXGXGXGXGX= . . . . . . . . . . . . . . . . . . . . . . . . . . X . . . . . . . . . A j.j.y.+ . . . . 8 >.H %.[.H c.# &.J ^.= Q.}.}.|.=XJ ` jX[ . . X . . . . . . . . . . . . . . . . . . . . . . . . . . . . . . . . . X . . . . . . . . . . X X X X . . X X . . . . X X . . . . . . . . . . . . . . . . . . . . . . . . . . X . . . . . . . ; >Xm.G $ jX5.q :.}.oXe 1.%X_   M.$ ;.O o.K C > . . . . . . . . . . . . . . . . . . . . . . . . . . . . . . . . . . . . . . . . . & GXGXGXGXGXGXGXGXGXGXGXGXGXGX",
"GXGXGXGXGXGXGXGXGXGXGXGXGXGXe . . . . . . . . . . . . . . . . . . . . . . . . . . . X . . . . . . . v j.j.y.. . . . . . . P :.S  .9 ,.6 + 3.l * ` 3.v.v.C.+XJ ^ hX;.. . . . . . . . . . . . . . . . . . . . . . . . . . . . . . . . . . . X . . . . . . . . . . . . X . . . . X . . . . . . . . . . . . . . . . . . . . . . . . . . . . . . . . . . . . . . . r 3X4.~ &.2 jXa 2 ,.#Xl ( rXx. .. M._ 1 K R b j.y.O . . . . . . . . . . . . . . . . . . . . X . . . . . . . . . . . . . . . . . . . 6 GXGXGXGXGXGXGXGXGXGXGXGXGXGX",
"GXGXGXGXGXGXGXGXGXGXGXGXGXGXGX* . . . . . . . . . . X . . . . X . . . . . . . . . . . . . . . . . , f.j.y.. . . . . . . . % R R 6 @ @.y   $ E.6 X D G i S  .z = P hXb.O . . . . . . . . . . . . . . . . . . . . X . . . . . . . . . . . . . . . . . . . . . . . . . . . . . . . . . . . . . . . . . . . . . . . . . . . . . . . . X . . . . . X . . X . X . h 2X-.q 2X` u 2Xq @ `.R D rXH.S.I   c.t y :.* + p.j.N . . . . . . . . . . . . . . . . . . . . . . . . . . . . . . . . . . f . X . . & GXGXGXGXGXGXGXGXGXGXGXGXGXGXGX",
"GXGXGXGXGXGXGXGXGXGXGXGXGXGXGXe . . . . . . . . . . . . . . . . . . . . . . . . . . . . . . . . + f.j.y.  . . . . . . . . . + %.i . :.K ( i 2 A.$ _ m.G D T @ q.T D rX).& % . . . . . . . . . . . . . . . . . . . . . . X . . . . . . . . . . . . . . X . . . . . . . . . . . . . . . X . . . . . . . . . . . . . . . . . . . . . . . . . . . . . . . . % L yXO.a jXiX2 ! C.: J  .S iXB.S.%X= # U = ) y . . , f.j.v . . . X . . . . . . . . . . . . . . . . . . . . . . . . . . . . . f f d . . = GXGXGXGXGXGXGXGXGXGXGXGXGXGXGX",
"GXGXGXGXGXGXGXGXGXGXGXGXGXGXGXGX& . . . . . . . . . . . . . . . . . . . . . . . . . . . . . . . y.j.y.+ . . . . . . . . . X % t *.2 K b.@.@.q = R.$ X.R.t p O ..m.%.7 ,X3X8 % . . . . . . . . . . . . . . . . . . . . . . . . . . . . . . . . . . . . . . . . . . . . . . . . . . . . . . . . X . . . . . . . . . . . . . . . . . . . . . . . . . . . . _ ;XP P sXqXW.:  .>.@ L t Q.F.B.S.Q.p . O R F   . . . v d.f.+ . . . . . . . . . . . . . . . . . . . . . . . . . . . . . . - f - % . . O GXGXGXGXGXGXGXGXGXGXGXGXGXGXGXGX",
"GXGXGXGXGXGXGXGXGXGXGXGXGXGXGXGXe . . . . . . . . . . . . . . . . . . . . . . . . . . . . . . y.j.y.. . . . . . . . . . X . . . K :.%   . . . . 1 ~.$ #.~.#   J `.M.I.9 U.iXI . . . . . . . . . . . . . . . . . . X . . . . . . . . . . . . . X . . . . . . . . . . . . . . . . . . . X . . . . . . . . . X . . . . . . . . . . . . . . . . . . . % % I.<X^ { lX&X0X*.: 3.( * q b.c.F.S.S.( % . _ T . . . . . . A j.y.. . . . . . . . . . . . . . . . . . . . . . . . . . . . . . . f d d X X 8 GXGXGXGXGXGXGXGXGXGXGXGXGXGXGXGX",
"GXGXGXGXGXGXGXGXGXGXGXGXGXGXGXGXGX* . . . . . . . . . . . . . . . . . . . . . . . . . . . . Z j.y.+ . . . . . . . . . . . . . . . R %.. . . . . . 2 ).$ :.0.  2 1Xk.oX+X2 <.lX<.. . . . . . . . . . . . . . . . . . . . . . . . . . . . . . . . . . . . . . . . . . . . . . . . . . . . . . . . . . . . . . . . . . . . . . . . . . . . . . . . % = ].'.5.E.mXqX&X&X!   8.: q 3.#.&.# @.v.T . P O.+ . . . . . . . e.j.Z . . . . . . . . . . . . . . . . . . . . . . . . . . . . % % c % % . & GXGXGXGXGXGXGXGXGXGXGXGXGXGXGXGXGX",
"GXGXGXGXGXGXGXGXGXGXGXGXGXGXGXGXGXe . . . . . X . . X . . . . X . . . . . . . . . . . . . b j.y.+ . . . . . . . . . . . . . . . . O R J . 8 e = + o t :X# _ 8.+ m.X.X.o.W.a J 1X:X8 % . . . . . . . . . . . . . . . . . . . . . X . . . . . . . . . . . . . . . . . . . . . . . . . . . . . . X . . . . . . . . . . . . . . . . . . . X . . . . I yX9.D >XlXwX$X#X=X= X % e yXm.s -.. 7 & . y X.7 . . . . . . . . . y.j.v . . . . . . . . . . . . . . . . . . . . . . . . . . . % f f . . X = GXGXGXGXGXGXGXGXGXGXGXGXGXGXGXGXGX",
"GXGXGXGXGXGXGXGXGXGXGXGXGXGXGXGXGXGX* X . . . . . . . . . . . . . . . . . . . . . . . . 4 j.y.. . . . . . . . . . . . . . . . . . % + :.K 6 V.F.,.V.b.z.b.# K _ Q.H H X...9.e q U.yX) . . . . . . . . . . . . . . . X . . . . . . . . . . . . . . . . . . . . . . . . . . . . . . X . . . . . . . . . . . . X . . . . X . . . . . . . . . . & b.uXP . 6 G $ 2 D $ : % : u uXW.& P K . . . 9 _ y . . . . . . . . . . + f.f., . . . . . . . . . . . . . . . . . . . . . . . . . . - g d . . % GXGXGXGXGXGXGXGXGXGXGXGXGXGXGXGXGXGX",
"GXGXGXGXGXGXGXGXGXGXGXGXGXGXGXGXGXGXe . . . X . . . . . . . . . . . . . . . . . . . . > f.p.+ . . . . . . . . . . . . . . . . . . . . &  .D   7 F P X.o.#.,.r i ].R p o y ` U 1 t _ 3X^.8 % . . . . . . . . X . X . . . . . . . . . . . . . . . . . X . . . X . . . . . . . . . . . . . . . . . . . . . . . . . . . . . . . . . . . . . % y U.>X6 w 0./.XX)./.~.Y.=.@ J hXN.$ % *.r . . *  .F . . . . . . . . . . . . 5 d.p.. . . . . . . . . . . . . . . . . . . . . . . . . . & d . . . w GXGXGXGXGXGXGXGXGXGXGXGXGXGXGXGXGXGX",
"GXGXGXGXGXGXGXGXGXGXGXGXGXGXGXGXGXGXGX8 . . . . . . . . . . . . . . . . . . . . . . + g.p.. . . . . . . . . . . . . . . . . . . . . . . 6 &.i . . * # s G ..M.u y # O.Q.c.k.U.# _.) t W.hX8.% . . X . . . . . . . . X . . . . . . . . . . . . . . . . . . . . . . . . . . . . . . . . . . X . . . . X . . . . X . . . . . . . . . . O @ $.U.) O I I ! &.4.n.W.%X:.= ( iXc.O .   m.O . @ ) K . . . . . . . . . . . . . . v j.e.. . . . . . . . . . . . . . . . . . . . . . . . . . . X . * GXGXGXGXGXGXGXGXGXGXGXGXGXGXGXGXGXGXGX",
"GXGXGXGXGXGXGXGXGXGXGXGXGXGXGXGXGXGXGXGX. . . . X . . . . . . . . . . . . . . . . . y.p.+ . . . . . . . . . . . . . . . . . . . . . . . . 8 ) j . . . .   & p U._ $ R G 1 R iXe R uX/.6 ( iX2XU . % . . . X . . . . . . . . . . . . . . . . . . . . . . . X . . . . . . . . . . X . . X . . . . . . . . . . . . . . . X . . . . . % U Q.1.p 8 @ ).U . % K X.! J 6 1 ^./ O . . = c.O @ O.P . . . . . . . . . . . . . . . . N j.v . . . . . . . . . . . . . . . . . . . . . . . . . . . . w GXGXGXGXGXGXGXGXGXGXGXGXGXGXGXGXGXGXGX",
"GXGXGXGXGXGXGXGXGXGXGXGXGXGXGXGXGXGXGXGX* . . . . . . . . . X . . . . . . . . . . e.y.+ . . . . . . . . . . . . . . . . . . . . . . . . O . 7 ( a . @ # 6 7 q e ( 3.> / N.B.Z.&.9 -XN.R.%.& 1.+X/.y . . . . . . X . . . . . . . . . . . . . . . . X . . . . . . . . . . . . . . . . . . . . . X . . . . X . . . . . . . . . . . u /.<X) t (.k * xX,.( T #Xm.6 a } 3 :X  . . @ n.u @ _ K . . . . . . . . . . . . . . . . . . e.d.> . . . . . . . . . . . . . . . . . . . . % . . . . . * GXGXGXGXGXGXGXGXGXGXGXGXGXGXGXGXGXGXGXGX",
"GXGXGXGXGXGXGXGXGXGXGXGXGXGXGXGXGXGXGXGXGX& . . . . . . . . . . . . . . . . X . A p.  . . . . . . . . . . . . . . . . . . . . . . . . . . . . 6  .K + Y.+X^.U.2.8 2.I.i p N.k.b.$ c.#.M.rX>Xl t :.+XY.h % . X X . . . . . . . . . . . . . . . . . . . . . . . . . . . . . . . . . . . . . . . . . . . . . . . . . . . . % . u E.fX4.# ;.Q.n.% &.tX X}.oX` @ ( m.1 ) O.. O u U.F + ( S . . . . . . . . . . . . . . . . . . . . p.p.. . . . . . . . . . . . . . . . . . . ; ; . . . . . GXGXGXGXGXGXGXGXGXGXGXGXGXGXGXGXGXGXGXGXGX",
"GXGXGXGXGXGXGXGXGXGXGXGXGXGXGXGXGXGXGXGXGXe . . . . . . . . . . . . X . . . . v p.+ . . . . . . . . . . . . . . . . . . . . X . . . . . . . . . * ..R + S 2.S & % P K ,. .# :.rX6  .l.0XtXwXN.9.1 S 3.2X~.j . % . . . . . . . . . . . . . . . . . . . . . . . X X . . . . . . . . . . . . . . . . . . . . . . . . . . . u :.Q.b.i 3.5XoX*Xl : 3X&X$XH.i @ 9.O.T # b.,. .;...t 6 >.P . . . . . . . . . . . . . . . . . . . . . + f.e.. . . . . . . . . . . . . . . . . % d . ; - . . 6 GXGXGXGXGXGXGXGXGXGXGXGXGXGXGXGXGXGXGXGXGX",
"GXGXGXGXGXGXGXGXGXGXGXGXGXGXGXGXGXGXGXGXGXGX= X . . . . . . . . . . . . . . 5 p.+ . . . . . . . . . . . . . . . . . . . . . . . . X . . . . X . . * R ( O p 2.i % # 1.1 T b.q T ! h *XsX+X:.J = & : O y !.jX>XR . . . . . . . . . . . . . . . . . . . . . . . . . . . X X . . . . . . . . . . . . . . . . . . . % % ! I.T._ 7 { <X XG.#X<X. y *X|.V.G J /.D  .7 O ].t q O . 6 :.T . . . . . . . . . . . . . . . . . . . . . . . 5 d.b . . . . . . . . . . . . . . . . f % & d . . * GXGXGXGXGXGXGXGXGXGXGXGXGXGXGXGXGXGXGXGXGXGX",
"GXGXGXGXGXGXGXGXGXGXGXGXGXGXGXGXGXGXGXGXGXGXGX@ X . . . . . . . . X . . . > y.+ . . . . . . . . . . . . . . . . . . . . . . . . . . . . . . . . . . o R R * 6 c.y # 2.2 # i c.*.O   [ 6 O @ z &.{ 6 ( E.J e 4.N.U.%.h . . . . . . . . . . . . . . . . . . . . . . . . . . . . . . . . X . . X X . . . . . . O 7 1.hX<X_ 7 -.jXsX&X.XG.tX) . 4.oXX.D R.U.q 1 b.  J R . . . i :.i . . . . . X . . . . . . . . . . . . . . . . . . . b d., . . . . . . . . . . . . . . . % - % . . . GXGXGXGXGXGXGXGXGXGXGXGXGXGXGXGXGXGXGXGXGXGXGX",
"GXGXGXGXGXGXGXGXGXGXGXGXGXGXGXGXGXGXGXGXGXGXGXw . . . . . . . . . . . . O e.> . . X . . X . . . . . . . . . . . . X . . . . . . . . . . . . . . . . . . K $.y + :.8 y U   7 M.9X-.. X h T.>X'.S.-XG G qXlX:X( 7 ( 3.^.:X8.e . . X . . . . . . . . . . . X . . . . . . . . . . . . . . . X X X X . . . @ 7 _ U.kX~.P e   # j I.1XeXsXsXyX$ : 9.G ` :X^ @ # ( T . :.6 O . J X.j . . . . . . . . . . . . . . . . . . . . . . . . . . . M p.  . . . . . . . . . . . X . - - - % . . 6 GXGXGXGXGXGXGXGXGXGXGXGXGXGXGXGXGXGXGXGXGXGXGX",
"GXGXGXGXGXGXGXGXGXGXGXGXGXGXGXGXGXGXGXGXGXGXGXGX= . . . . . . . . . . . Z + . . . . . . . . . . . . . . . . . . . . . . . . . . . . . . . . . X . . . . % p  .J . U 1 O.b.[.N.J % . U j y c.k.S.G.4.D oX0XqXN.U.1.7 w >.<XcX2XU.( * . . . . . . . . X X . . . . . . . . . . . . . X . . X X . : @ U ;.I.^.,.U 3 I.hXgX2X<.* 3 p ~ R.sX>.. % = V.OX&.6 $ # T.#   #.% % ( ,.6 . . . . . . . . X . . . . . . . . . . . . . . . . . . . . y.e.. . . . . . . . . . . . . X - f % . & GXGXGXGXGXGXGXGXGXGXGXGXGXGXGXGXGXGXGXGXGXGXGXGX",
"GXGXGXGXGXGXGXGXGXGXGXGXGXGXGXGXGXGXGXGXGXGXGXGXGX% . . . . . . . . . A > . . . . . . . . . . . . . . . . . . . . . . . . . X . X . . . . . . . . . . . . . 8  .) + O S @.F # o X . + U.>.6 K N.B.C.q &.qX%XC.'.O.= = p S 6 $.!.rXsX@XW.;.h @ X . . . X . . . . . . . . . . . . . . 6 t ( >.W.>XxX2XI.K 2 # ~.yXm.T.tXtXqXuXU.h % % $ - . w 0.C.#XqXqXW.>.@.. = h 9  .) % . . . . . . . . . . . . . . . . . . . . . . . . . . . . . . + p.b . . . . . . . . . . . . . . % . . 8 GXGXGXGXGXGXGXGXGXGXGXGXGXGXGXGXGXGXGXGXGXGXGXGX",
"GXGXGXGXGXGXGXGXGXGXGXGXGXGXGXGXGXGXGXGXGXGXGXGXGXw . . . . . . . . v > . . . . . . . . . . . . . . . . . . . . . . . . . . . . . . . . . . . . . . . . . . . O R  .t O & # # O * % ) X...I.&.1 / *X= = rXF.` 2 q ^ R.iXsXOX-.) G  .+.R.,XsXzX2X+XV.~.*.&.U u w 6 7 e y Y [ { <.R.:X1XsXqXOX3.( 7 9 [ 7 = R.dXm.H ;XeXqX9X8X|.$X&.$ . . @ : :   p # i T P u % . S X.J . X . . . . . . . . . . . . . . . . . . . . . . . . . . . . . . . > f.5 . . . . . . . . . . . . . . . 8 GXGXGXGXGXGXGXGXGXGXGXGXGXGXGXGXGXGXGXGXGXGXGXGXGX",
"GXGXGXGXGXGXGXGXGXGXGXGXGXGXGXGXGXGXGXGXGXGXGXGXGXGX= . . . . . . , + . . . . . . . . . . . . . . . . . . . . . . . . . . . . . . . . . . . . . . . . . . . . .   p R / O O { $.b.U P S i 3 7 *.L 3 u % j O e 1.<X<X.XZ.aXwXeXqXyX:X3.~ @ O u _ n.N.!.+X2XuXyXxXcX>XQ.Q.!.1X<X].I.&.+.^ p a ;.R.2XbX&.# 4.zXV.D 3.aXwX&X0X*X>.t 1 ^ e 9 1.) t     . . . . % O R %.t . . . . . . X . . . . . . . . . . . . . . . . . . . . . . . . . . . . 5 g.+ . . . . . . . . . . . . . & GXGXGXGXGXGXGXGXGXGXGXGXGXGXGXGXGXGXGXGXGXGXGXGXGXGX",
"GXGXGXGXGXGXGXGXGXGXGXGXGXGXGXGXGXGXGXGXGXGXGXGXGXGXGX* . X . . + + . . . . . . . . . . . . . . . . . . . . . . . . . . . . . . . . . . X . . . . . . . . . . . . . 1 R $.7 o D s U O O 8 % . O 6 $.I % @ =.yX&XS.B.Z.Z.eXdXeXwX0X0XqX+X! @ *././ a I r # 1 $ o o 1 2 1 . * ` +.!   =.yXcXgXgXgXgX-.. $.cX!.= ` *X$X&XV.P $ p 1.m.>.O *.#.#.#X`.%.P @ . % y O.( & . . . . . . . . . . . . . . . . . . . . . . . . . . . . . . . . . . . . . b y.. . . . . . . . . . . . O GXGXGXGXGXGXGXGXGXGXGXGXGXGXGXGXGXGXGXGXGXGXGXGXGXGXGX",
"GXGXGXGXGXGXGXGXGXGXGXGXGXGXGXGXGXGXGXGXGXGXGXGXGXGXGXGX. . . . . . . . . . . . . . . . . . . . . . . . . . . . . . . . . . . . . . X . . . . . . . . . . . . . . . . . S $.R O % . Y i c.& # J 1.].$.% 6 D 3 / m.z.x.x.B.0XwXqXqX%X` $ P *X&Xv.;Xy Y 2XW.].>XcXlX].5X} 2 >.tXqXc.E.q _ sXzXgXgX1.o i jX*X@.F.G.C.o.6 # _ ).3.i D P 8 U.7 F o.Z.S.B.R O ..@.a . . . . . . . . . . . . . . . . X . . . . . X . . . . . . . . . . . . . . . . . Z A . . . . . . . . . . . 8 GXGXGXGXGXGXGXGXGXGXGXGXGXGXGXGXGXGXGXGXGXGXGXGXGXGXGX",
"GXGXGXGXGXGXGXGXGXGXGXGXGXGXGXGXGXGXGXGXGXGXGXGXGXGXGXGX8 . . X . . . . . . . . . . . . . . . . . . . X . . . . . . . X . . X . . . . . . . . . . . . . . . . X . . . . . * D :.J O e O 9 _ 2.l.R # . . # J ^.b.K q ) z.#.oXqX&Xc.q 2 E.sXV.X.# C.*Xi F M.c.B.tXwX`.y t OXsX&X..G x.@XL r A.0Xb.  w yX=X.XN.O.H S Y Y.:X( @ : 2 ,.O ..S @   w X.T   S $.` & X . . . . . . . . X . . . . . . . . . X . . . . . . . . . . . . . . . . . . . . . . y.5 . . . . . . . . . = GXGXGXGXGXGXGXGXGXGXGXGXGXGXGXGXGXGXGXGXGXGXGXGXGXGXGXGX",
"GXGXGXGXGXGXGXGXGXGXGXGXGXGXGXGXGXGXGXGXGXGXGXGXGXGXGXGXGX= . . . . . . . . . . . . . . . . . . . . . . . . . X . . . . . . . . . . . . . . . . . . . . . . . . . . . . . . . p ) T t % Y :.D 1 $ . . . . * 1.7 >.:X3.p = F M.F : ;.jXsXN.5.p * o.G.*XD F *X;XeX^.# e 2XsXC.q 2 H B.S.&X3.  } $ = XXc.K q G  .n./.*.p 1 . . % J J 1 2.o 6  .) @ 6 ..U t . . . . . . . . . . . . . . . . . . . . . . . . . . X . . . . . . . . . . . . . . . . . O y.+ . . . . . . . & GXGXGXGXGXGXGXGXGXGXGXGXGXGXGXGXGXGXGXGXGXGXGXGXGXGXGXGXGX",
"GXGXGXGXGXGXGXGXGXGXGXGXGXGXGXGXGXGXGXGXGXGXGXGXGXGXGXGXGXGX- X . . . . . . . . . . . . . . . . . X . . . . . . . . . . . . . . . . . . . . . . . . . . . . . . . . . . . . . . O S ..U 1   . i / j O O . . *.6 : @ u +.-.  t D ` 4.m.m.oXrXsXOXN.,.S.*Xu K iX;.O I yX;X`.n.b.O.v.S.G..XC.&.. . *   = _ ~.:XZ.O.].{ # O . . O ,.. L S { / @ & X.c.K O . . . . . . . . . X . . . X . . . . X . . . . . . . . . . X . . . . X . . . . . . . . . . . > e.. . . . . . . GXGXGXGXGXGXGXGXGXGXGXGXGXGXGXGXGXGXGXGXGXGXGXGXGXGXGXGXGXGX",
"GXGXGXGXGXGXGXGXGXGXGXGXGXGXGXGXGXGXGXGXGXGXGXGXGXGXGXGXGXGXGXO . . . . . . . . . . . . . . . . . . . . . . . . . . . . . X . . . . . X . . . . . . . . . . . . . . . . . . . . X . + F :.J 9   3 D Y.*.7 X q +.: X = *.! 6 q *./.R.{ a $ o $ F O.,.#.@.3.w = % ! :XW.N.n.,.O.` P a 7 O . : @   ;.3.m.^ 2 G G $ 9 ..~.i + . P S 1 %.F o + U *.F O . . . . . . . . . . . . . . . . . . . . . . . . . . . . . . . . . . . . . . X . . . . . . . . . . v A . . . . . 8 GXGXGXGXGXGXGXGXGXGXGXGXGXGXGXGXGXGXGXGXGXGXGXGXGXGXGXGXGXGX",
"GXGXGXGXGXGXGXGXGXGXGXGXGXGXGXGXGXGXGXGXGXGXGXGXGXGXGXGXGXGXGXw . . . . . . . . . . . . . . . . . . . . . . . . . X . . . . . . . . . . . . . X . . . . . . . . . . . . . . . . X . X X # D ) U r X   D c._ t W.o ) c.2 : ( H q 4.F ~ M.R././.OXV.V.3.O.P l : % & t p i K ^ _ &.>./.!.E.= . L :X .-.q @ . q 7 . @ o 7 b. .6 *.O * O # ^ :./ * . . . . . . . . . . . . . . . . . . . . . . . . . . . . . . . . . . . . . . . . . . . . . . . . . . . . b 4 . . . 8 GXGXGXGXGXGXGXGXGXGXGXGXGXGXGXGXGXGXGXGXGXGXGXGXGXGXGXGXGXGXGX",
"GXGXGXGXGXGXGXGXGXGXGXGXGXGXGXGXGXGXGXGXGXGXGXGXGXGXGXGXGXGXGXGXw . . . . . . . . . . . . . . . . X . . . . . . . . . . . . . . . . . . . . . . . . . . . . . X . . . . . . . . . . . . . . O S X.R S O . 7 R :.b.F   % R c.@.  7 n.^ p #   . p / G.2.>.X.y y u e 9.I.c.-X;X@Xk.z.S.V.6 . q @XX.:.,.<.R % . . . 6 @ . O K b.# . 6 T $.K 6 . . . . . . . . . . . . . . . . . . . . X . . . . . . X . . . . . . . . . . . . X . . . . . . . X . . . . . . N + . = GXGXGXGXGXGXGXGXGXGXGXGXGXGXGXGXGXGXGXGXGXGXGXGXGXGXGXGXGXGXGXGX",
"GXGXGXGXGXGXGXGXGXGXGXGXGXGXGXGXGXGXGXGXGXGXGXGXGXGXGXGXGXGXGXGXGX= . . . . . . . . . . . . . . . . . . . . . . . . . . . . . . X . . . . . . . . . . . . . . . . . . . . . . . . X . . . . X . O i T _ J 1   # * . . ( k.X.Z.^ D H Y.F : . X  .M.D   & N.R c.) p # 7 N.S.x.o.Q #.B.= . w `.@.1 # p ,.X.7.8 O . o b.u . . O t I :.D * . . . . . . . . . . . . . . . . . . X . . . . . . . . . . . . . . X . . . . . . . . . . . . X . . . . . . . . . . O Z * GXGXGXGXGXGXGXGXGXGXGXGXGXGXGXGXGXGXGXGXGXGXGXGXGXGXGXGXGXGXGXGXGX",
"GXGXGXGXGXGXGXGXGXGXGXGXGXGXGXGXGXGXGXGXGXGXGXGXGXGXGXGXGXGXGXGXGXGX= . . . . . . . . . . . . . . . . . X . . . . . X . . . . X . . . . . . . . . . . . . . . . . . . . . . . . . . . . . . . . . . . e S 2. .D # . u @.x.X.H >.$ 6 F 3.$ # <.O.1 J O 1 T X.X.o.>.j . o :.o.Q o.#.# . @ C.@.$ .   % o T R U h . . p & 6 L :.U p O . . . . . . . . . . . . . . . . . . . . . . . . . . . X . . . . . . . . . . . . . . . . . . . . . . . . . . . . X X X . 9 h.GXGXGXGXGXGXGXGXGXGXGXGXGXGXGXGXGXGXGXGXGXGXGXGXGXGXGXGXGXGXGXGXGX",
"GXGXGXGXGXGXGXGXGXGXGXGXGXGXGXGXGXGXGXGXGXGXGXGXGXGXGXGXGXGXGXGXGXGXGX@ . . . . . X . . . . . . . . . . . . . . . . . . . . . . . . . . . . . X . X . . . . . . . . . . . . . . . . . . . . . X . . . . . . K R ../ T q + q S H ^ X X ..$.I.p : O i 1 $.T 3 / H 9 R J @ + P #.,.6 X X &.o.$ e T O.,.M.#.X.i O . 6 K  . .S 7 . . . . . . . . . . . . . . . . . . . . . X . . . . . . . . . . . . . . . . . . . . . . . . . . . . . . . . . . . . . . . X . GXGXGXGXGXGXGXGXGXGXGXGXGXGXGXGXGXGXGXGXGXGXGXGXGXGXGXGXGXGXGXGXGXGXGX",
"GXGXGXGXGXGXGXGXGXGXGXGXGXGXGXGXGXGXGXGXGXGXGXGXGXGXGXGXGXGXGXGXGXGXGXGX& . . . . . . X . . . . . . . . . . . . . . . . . . . . . . . . . . . . . . . . . . X . . . . . . . . . . . . . . . . . . . . . . . . . & K T 2.+.T i + O   . O ) # . . . j %.H D y 3  .D t @.I .   j t % O *.x.v.oX>.T T p + . O j S _ 2.K y . . . . . . . . . X . . . . . . . . . . . . . . . . . . . . . . . . . . . . . . . . . . . . . . X . . . . . . X . . . X . . . . : GXGXGXGXGXGXGXGXGXGXGXGXGXGXGXGXGXGXGXGXGXGXGXGXGXGXGXGXGXGXGXGXGXGXGXGX",
"GXGXGXGXGXGXGXGXGXGXGXGXGXGXGXGXGXGXGXGXGXGXGXGXGXGXGXGXGXGXGXGXGXGXGXGXGX- . . . . . . . . . . . . . . . . . . X . . . . . . . . X . . . . X . . . X . . . . . . . . . . . . . . . . . . . . . . . . . . . . . X . X . i D X.2.X.P P 7 o X . . . J F G R K X...*.H X.$.U . . . . [ H i # o X O e U K +.c.U i 6 . . . . . . . . . . . . . . . . . . . . . . . . . . . . . . . . . . . . . . . . . . . . . X . . . . . . . . . . . . . . . . . . . . @ e GXGXGXGXGXGXGXGXGXGXGXGXGXGXGXGXGXGXGXGXGXGXGXGXGXGXGXGXGXGXGXGXGXGXGXGX",
"GXGXGXGXGXGXGXGXGXGXGXGXGXGXGXGXGXGXGXGXGXGXGXGXGXGXGXGXGXGXGXGXGXGXGXGXGXGXO . . . . . . . . . X . . . . . . . . . . . . . . . . . . . . . . . . . . . . . . . . . . . . . . . . . . . . . . . . . . . . . . . . . X . . . . . u J S ( *.) ( P T S t 1 + o   .         O   .   * u J T J _ @.v...P J t . . . . . . . . . . . . . . . . . X . . . . . . . . . . . . . . . . . . X . . . . . . . . . . X . . . . . . . . . . . . . . . . . . . . . . w GXGXGXGXGXGXGXGXGXGXGXGXGXGXGXGXGXGXGXGXGXGXGXGXGXGXGXGXGXGXGXGXGXGXGXGXGX",
"GXGXGXGXGXGXGXGXGXGXGXGXGXGXGXGXGXGXGXGXGXGXGXGXGXGXGXGXGXGXGXGXGXGXGXGXGXGXGX. . X . . . . . . . . . . X . . . . . . . . . . X . . . . . . . . . . . . . . . . . . . . . . . . . . . . . . . . . . . . . . . . . . . . . . . . . . . . & u S y J P X.( ..>.:.@.#.O.#...:.,.,.%.( / R j K i w . . . . . . . . . . . . . . . . . . . X . . . . . . . . . . . . . . . . . X . . . . . . . X . . . . . . . . . . . . . . . . X . . . . . . . . . . . 6 GXGXGXGXGXGXGXGXGXGXGXGXGXGXGXGXGXGXGXGXGXGXGXGXGXGXGXGXGXGXGXGXGXGXGXGXGXGX",
"GXGXGXGXGXGXGXGXGXGXGXGXGXGXGXGXGXGXGXGXGXGXGXGXGXGXGXGXGXGXGXGXGXGXGXGXGXGXGXGX. . . . . . . . . . . . . . . . . . . . . . . . . . . . . . . . . . . . . . . . . . . . . . . . . . . . . . X . . . . . . . . . . . . . . . . . . . X . . . . . . . . . . O 6 8 e 7 e 8 7 * . . . . . . . . . . . . . . . . . X . X . . . . . . . . . . . . . . . . . . . . . . . . . . . . X . . . . . . . . . . . X . . . . . . . . . . . . . . . . . . . . . 8 GXGXGXGXGXGXGXGXGXGXGXGXGXGXGXGXGXGXGXGXGXGXGXGXGXGXGXGXGXGXGXGXGXGXGXGXGXGXGX",
"GXGXGXGXGXGXGXGXGXGXGXGXGXGXGXGXGXGXGXGXGXGXGXGXGXGXGXGXGXGXGXGXGXGXGXGXGXGXGXGXGXO . . . . . . . . . . . . . . . . X . . . . . . . . . . . . . . . . . . . . . . . . . . . . . . . X . . . . . . . . . . . . . . . . . . . . . . . . . . . . . . . . . . . X X . . . . . . . . . . . . . . . . . . . X . . . . . . . . . X . . . . . X . . . . . . . . . . . . . . X . . . . . . . . . . . . . . . . . . X . . . . . . . . X . . . X . X . . 8 GXGXGXGXGXGXGXGXGXGXGXGXGXGXGXGXGXGXGXGXGXGXGXGXGXGXGXGXGXGXGXGXGXGXGXGXGXGXGXGX",
"GXGXGXGXGXGXGXGXGXGXGXGXGXGXGXGXGXGXGXGXGXGXGXGXGXGXGXGXGXGXGXGXGXGXGXGXGXGXGXGXGXGX& . . . . . . . . X . . . . . . . . X . . . . . . . . . . . . . . . . . . . . . . . . . . . . . . . . . . . . . . . . . . . . . . . . . . . . . . . . . . . . . . . . . . . . . . . . . . . . . . . . . . . . . . . . . . . . . . . . . . . . . . . . . . X . . . . . . . . . . . . . . . . . . . . . . . . . . . . . . . . . . . X . . . . . . . . . @ w GXGXGXGXGXGXGXGXGXGXGXGXGXGXGXGXGXGXGXGXGXGXGXGXGXGXGXGXGXGXGXGXGXGXGXGXGXGXGXGXGX",
"GXGXGXGXGXGXGXGXGXGXGXGXGXGXGXGXGXGXGXGXGXGXGXGXGXGXGXGXGXGXGXGXGXGXGXGXGXGXGXGXGXGXGX& . . . . . . . . . . X . . . . . . . . . . X . . X . . . . . . . X . . . . . . . . . . . . . . . . . . . . . . . . . . . . . . . . . . . . . X . . . . . . . . . . . . . . . . . . . . . . . . . . . . . . . . . . . . . . . . . . . . . . . . . . . . . . . . . X . . . . . . . . . . . . . . . . . . . . . . . . . . . . . . . . . . . . . . . . e GXGXGXGXGXGXGXGXGXGXGXGXGXGXGXGXGXGXGXGXGXGXGXGXGXGXGXGXGXGXGXGXGXGXGXGXGXGXGXGXGXGX",
"GXGXGXGXGXGXGXGXGXGXGXGXGXGXGXGXGXGXGXGXGXGXGXGXGXGXGXGXGXGXGXGXGXGXGXGXGXGXGXGXGXGXGXGX& . . . . . X . . . . . . . . . . . . . . . . . . . . . . . . . . . . . . . . . . . . . . . X . . . . . . . . . . . . . . . . . . . . . . . . . . . . . . . . . . . . . . . . . . . . . . . . . . . . . . . . . . . . . . . . . . . . . . . . . . . . . . . . . . . . . . . . . . . . . . . . . . . . . . . . . . . . . . . . . . . . . . . . O GXGXGXGXGXGXGXGXGXGXGXGXGXGXGXGXGXGXGXGXGXGXGXGXGXGXGXGXGXGXGXGXGXGXGXGXGXGXGXGXGXGXGXGX",
"GXGXGXGXGXGXGXGXGXGXGXGXGXGXGXGXGXGXGXGXGXGXGXGXGXGXGXGXGXGXGXGXGXGXGXGXGXGXGXGXGXGXGXGXGX* . X . . . . . . . . . . . . . . . . . . . . . . . . X . . . . . . X . . . . . . . . . . . . X . . . . . . . . . . . . . . . . . . . . X . . . . . . . . . . . . . . . . . . . . . . . . . . . . . . . . X . . . . . . . . . . . . . . . . X . . . . . . . . . . . . . . . . . . . . . . . . . . . . . . . . . . . . . . . . . . . X . . & GXGXGXGXGXGXGXGXGXGXGXGXGXGXGXGXGXGXGXGXGXGXGXGXGXGXGXGXGXGXGXGXGXGXGXGXGXGXGXGXGXGXGXGXGX",
"GXGXGXGXGXGXGXGXGXGXGXGXGXGXGXGXGXGXGXGXGXGXGXGXGXGXGXGXGXGXGXGXGXGXGXGXGXGXGXGXGXGXGXGXGXGX* X . . . . . . . . . . . . . . . . . . . . . . X . . . . . . . . . . X . . . . . . . . . . . . . . . . . . . . . . . . . . . . . . . . . . . . . . . . . . . . . . . . . . . . . . . . . . . . . . . . . . X . . . . . . . . X . . . . . . . . X . . . . . . . . . . . . . . . . . . . . . . . . . . . . . . X . . . . . X . . . . . @ GXGXGXGXGXGXGXGXGXGXGXGXGXGXGXGXGXGXGXGXGXGXGXGXGXGXGXGXGXGXGXGXGXGXGXGXGXGXGXGXGXGXGXGXGXGX",
"GXGXGXGXGXGXGXGXGXGXGXGXGXGXGXGXGXGXGXGXGXGXGXGXGXGXGXGXGXGXGXGXGXGXGXGXGXGXGXGXGXGXGXGXGXGXGX= . . . . . . . X . . . . X . . . . . X . . . . . . . . . . . . . . . . . . X . . . . . . . . . . . . . . . . . . . . . . . . . . . . . . . . . . . . . . . . . . . . . . . . . . . . . . . . . . . . . . . . . . . . . X . . . . . . . . . . . . . . X . . . . . . . . . . . . . . . . . . . . . . X . . . . . . . . . . . . . . & GXGXGXGXGXGXGXGXGXGXGXGXGXGXGXGXGXGXGXGXGXGXGXGXGXGXGXGXGXGXGXGXGXGXGXGXGXGXGXGXGXGXGXGXGXGXGX",
"GXGXGXGXGXGXGXGXGXGXGXGXGXGXGXGXGXGXGXGXGXGXGXGXGXGXGXGXGXGXGXGXGXGXGXGXGXGXGXGXGXGXGXGXGXGXGXGXw .   . . . . . X . . . . . . . . . . . . . . . . . . . . . . . . . . . . . . . . . . . . . . . X . . . . X . . . . . X . . . . . . . . . . . . . . . . . . . . . . . . . . . . . . . . . . . X . . . . . . . . . . . . . . . . . . . . . . . . . . . . . . . . . . . . . . . . . . . . . . . . . . . . . . . . . . . . . . . 8 GXGXGXGXGXGXGXGXGXGXGXGXGXGXGXGXGXGXGXGXGXGXGXGXGXGXGXGXGXGXGXGXGXGXGXGXGXGXGXGXGXGXGXGXGXGXGXGX",
"GXGXGXGXGXGXGXGXGXGXGXGXGXGXGXGXGXGXGXGXGXGXGXGXGXGXGXGXGXGXGXGXGXGXGXGXGXGXGXGXGXGXGXGXGXGXGXGXGXGX- . X . . . . . . . . . . . . . . . . . . . . . . . . . . . . . . . . . . . . X . . . . . . . . . . . . . . . . . . . . . X . X . . . . X . . . . . . . . . . . . . . . . . . . . X . . . . . . . . . . . . . . . . . . . X . . . . . . . . . . . . X . . . . . . . . . . . X . . . . . . . . . . . . . . . . . . . . O w GXGXGXGXGXGXGXGXGXGXGXGXGXGXGXGXGXGXGXGXGXGXGXGXGXGXGXGXGXGXGXGXGXGXGXGXGXGXGXGXGXGXGXGXGXGXGXGXGX",
"GXGXGXGXGXGXGXGXGXGXGXGXGXGXGXGXGXGXGXGXGXGXGXGXGXGXGXGXGXGXGXGXGXGXGXGXGXGXGXGXGXGXGXGXGXGXGXGXGXGXGX* . . . . . . . . . . . . . X . . . . . . . . . . . . . . . . . . . . . . . . . . . . . . . . . . . . . . . . . . . . . . . . . . . . . . . . . X . . . . . . . . . . . . . . . . . . . . . . . . . . . . X . . . . . . . . . . . . . . . . . . . . . . . . . . . . . . . . . . . . . . . . X . . X . . . . . . . * GXGXGXGXGXGXGXGXGXGXGXGXGXGXGXGXGXGXGXGXGXGXGXGXGXGXGXGXGXGXGXGXGXGXGXGXGXGXGXGXGXGXGXGXGXGXGXGXGXGXGX",
"GXGXGXGXGXGXGXGXGXGXGXGXGXGXGXGXGXGXGXGXGXGXGXGXGXGXGXGXGXGXGXGXGXGXGXGXGXGXGXGXGXGXGXGXGXGXGXGXGXGXGXGXw   . . . . X . . . . X . . . . . . . . . . . . . . . . . . . . . . . . . . . . . . . X . . . . . . . . . . . . . . . . . . . . . . . . . . . . . . . . . . . . . . . . . . . . . . . . . . . . . . X . . . . . . . . . . . . . . . . . . . . . . . . . . . . X . X . . . . . . . . . . . . . . . . . . . . . = GXGXGXGXGXGXGXGXGXGXGXGXGXGXGXGXGXGXGXGXGXGXGXGXGXGXGXGXGXGXGXGXGXGXGXGXGXGXGXGXGXGXGXGXGXGXGXGXGXGXGXGX",
"GXGXGXGXGXGXGXGXGXGXGXGXGXGXGXGXGXGXGXGXGXGXGXGXGXGXGXGXGXGXGXGXGXGXGXGXGXGXGXGXGXGXGXGXGXGXGXGXGXGXGXGXGXGX& . . . . . . . . . . . . . . . . X . . . . . . . . . . . . . . . . . . . . . . X . . . . . . . . . . . . . . . . . . . . . . . . . . . X . . . . . . . . . . . . . . . . . . . . . . X . . . . . . . . . . . . . . . . . . . . . . . . . . . . . . . . . . . . . . . . . . . . . . . . . . . X . . . O 6 GXGXGXGXGXGXGXGXGXGXGXGXGXGXGXGXGXGXGXGXGXGXGXGXGXGXGXGXGXGXGXGXGXGXGXGXGXGXGXGXGXGXGXGXGXGXGXGXGXGXGXGXGX",
"GXGXGXGXGXGXGXGXGXGXGXGXGXGXGXGXGXGXGXGXGXGXGXGXGXGXGXGXGXGXGXGXGXGXGXGXGXGXGXGXGXGXGXGXGXGXGXGXGXGXGXGXGXGXGX* . . . . . . . . . . . . . . . . . . . . . . . . . . . . . . . . . . . . . . . . . . . . . X . . . . X . . . . . . . . . . . . . . . . . . . . . . . . . . . . . . . X . . . . . . . . . . X . . . X . . . . X . . . . . . . . . . . . . . . . . . . . . . . . . . X . . . X . . . . . . . . . . & GXGXGXGXGXGXGXGXGXGXGXGXGXGXGXGXGXGXGXGXGXGXGXGXGXGXGXGXGXGXGXGXGXGXGXGXGXGXGXGXGXGXGXGXGXGXGXGXGXGXGXGXGXGXGX",
"GXGXGXGXGXGXGXGXGXGXGXGXGXGXGXGXGXGXGXGXGXGXGXGXGXGXGXGXGXGXGXGXGXGXGXGXGXGXGXGXGXGXGXGXGXGXGXGXGXGXGXGXGXGXGXGX8 . . . . . . . X . . . . . . . . . . . . . . . X . . . . . . . . X . . . . . . . . . . . . . . . . . . . . . . . . . X . . . . . . . . . . . . . . . . . . . . . . . . X . . . . . . . . . . . . . . . . . . . . . . . . . . . . X . . . . X . . . . . . X . . . . . . . . . . . . . . . . . = GXGXGXGXGXGXGXGXGXGXGXGXGXGXGXGXGXGXGXGXGXGXGXGXGXGXGXGXGXGXGXGXGXGXGXGXGXGXGXGXGXGXGXGXGXGXGXGXGXGXGXGXGXGXGXGX",
"GXGXGXGXGXGXGXGXGXGXGXGXGXGXGXGXGXGXGXGXGXGXGXGXGXGXGXGXGXGXGXGXGXGXGXGXGXGXGXGXGXGXGXGXGXGXGXGXGXGXGXGXGXGXGXGXGXGX& . . . . . . . . . . . . . . . . . . . . . . . . . . . X . . . . . . . . . . . X . . . . . . . . . . . X . . . . . X . . . . . . . . . . . . . . . . . . . . . . . . . . . . . . . . . . . . . . . . . . . . . . . . . . . . . . . . . . . . X . . . . . . . . . X . . . . X . . . X & e GXGXGXGXGXGXGXGXGXGXGXGXGXGXGXGXGXGXGXGXGXGXGXGXGXGXGXGXGXGXGXGXGXGXGXGXGXGXGXGXGXGXGXGXGXGXGXGXGXGXGXGXGXGXGXGXGX",
"GXGXGXGXGXGXGXGXGXGXGXGXGXGXGXGXGXGXGXGXGXGXGXGXGXGXGXGXGXGXGXGXGXGXGXGXGXGXGXGXGXGXGXGXGXGXGXGXGXGXGXGXGXGXGXGXGXGXGX8 O . . . . . . . . . . . . . X . . . . X . . . . . . . . . . . . . . . . . . . . . . . . . . . . . . . . . . . . . . . . . . . . . . . . . . . . . . . . . . . . . X . . . . . . . . . . . . . . . . . . . . . . . . . . . . . . . . . . . . . . . . . . . . . . . . . . . . . . 6 GXGXGXGXGXGXGXGXGXGXGXGXGXGXGXGXGXGXGXGXGXGXGXGXGXGXGXGXGXGXGXGXGXGXGXGXGXGXGXGXGXGXGXGXGXGXGXGXGXGXGXGXGXGXGXGXGXGXGX",
"GXGXGXGXGXGXGXGXGXGXGXGXGXGXGXGXGXGXGXGXGXGXGXGXGXGXGXGXGXGXGXGXGXGXGXGXGXGXGXGXGXGXGXGXGXGXGXGXGXGXGXGXGXGXGXGXGXGXGXGXGX* . . . . . . . . . . . . . . . . . . . . . . . . . . X . . . . . . . . . X . . . . . . . . . . X . . . . . . . . . . . . . . . . . . . . . . . . . . . . . . . . . . . . . . . . . . . . . . . . . . . . . . . . . . . . . . . . . . . . . . . . . . . . . . . . . . . . & GXGXGXGXGXGXGXGXGXGXGXGXGXGXGXGXGXGXGXGXGXGXGXGXGXGXGXGXGXGXGXGXGXGXGXGXGXGXGXGXGXGXGXGXGXGXGXGXGXGXGXGXGXGXGXGXGXGXGXGXGX",
"GXGXGXGXGXGXGXGXGXGXGXGXGXGXGXGXGXGXGXGXGXGXGXGXGXGXGXGXGXGXGXGXGXGXGXGXGXGXGXGXGXGXGXGXGXGXGXGXGXGXGXGXGXGXGXGXGXGXGXGXGXGXw & . . . . . . . . . . . . . . . . . X . . . . . . . . . . . . . . . . . . X . . . . . . . . . . . . . . . . . . . . . . . . . . . . . . . . . . . . . . . . . . . . . . . . . . . . . . . . . . . . . . . . . . . . . . . . . . . . . . . . . . . . . . . . . X X . 8 GXGXGXGXGXGXGXGXGXGXGXGXGXGXGXGXGXGXGXGXGXGXGXGXGXGXGXGXGXGXGXGXGXGXGXGXGXGXGXGXGXGXGXGXGXGXGXGXGXGXGXGXGXGXGXGXGXGXGXGXGXGX",
"GXGXGXGXGXGXGXGXGXGXGXGXGXGXGXGXGXGXGXGXGXGXGXGXGXGXGXGXGXGXGXGXGXGXGXGXGXGXGXGXGXGXGXGXGXGXGXGXGXGXGXGXGXGXGXGXGXGXGXGXGXGXGXGX6 . . . . . . X . . . . . . . . . . . . . . . X . . . . X . . . . . . . . . . . . . . X . . . . . . . X . X . . . . . . . . . . . . . . . . . . . . . . . . . . . . . . X . . . . . X . . . . X . . . . . . . . . . . . . . . . X . . . . . . . . . . . . . . * GXGXGXGXGXGXGXGXGXGXGXGXGXGXGXGXGXGXGXGXGXGXGXGXGXGXGXGXGXGXGXGXGXGXGXGXGXGXGXGXGXGXGXGXGXGXGXGXGXGXGXGXGXGXGXGXGXGXGXGXGXGXGXGX",
"GXGXGXGXGXGXGXGXGXGXGXGXGXGXGXGXGXGXGXGXGXGXGXGXGXGXGXGXGXGXGXGXGXGXGXGXGXGXGXGXGXGXGXGXGXGXGXGXGXGXGXGXGXGXGXGXGXGXGXGXGXGXGXGXGXGX* . . . . . . . . . . . . . . . . X . . . . . . . . . . . . . . . . . . . . . . . . . . . . . . . . . . . . . . . . . . . . . . . . . . . . . . . . . . . . . . . . . . . . . . . . . . . . . . . . . . . . . . . . . . . . . . . . X . . . . . X X . & e GXGXGXGXGXGXGXGXGXGXGXGXGXGXGXGXGXGXGXGXGXGXGXGXGXGXGXGXGXGXGXGXGXGXGXGXGXGXGXGXGXGXGXGXGXGXGXGXGXGXGXGXGXGXGXGXGXGXGXGXGXGXGXGXGX",
"GXGXGXGXGXGXGXGXGXGXGXGXGXGXGXGXGXGXGXGXGXGXGXGXGXGXGXGXGXGXGXGXGXGXGXGXGXGXGXGXGXGXGXGXGXGXGXGXGXGXGXGXGXGXGXGXGXGXGXGXGXGXGXGXGXGXGXe * . . . . . . . . . . . . . . . . . . . . X . . X . . . . . . . . . . . . . . . . . . . . . . . . . . . . . . . . . . . . . . . . . . . . . . . . . . . X . . . . . . X . . . . . . . . . . . . . . . X . . . X . . . . . . . . . . . X . . X & w GXGXGXGXGXGXGXGXGXGXGXGXGXGXGXGXGXGXGXGXGXGXGXGXGXGXGXGXGXGXGXGXGXGXGXGXGXGXGXGXGXGXGXGXGXGXGXGXGXGXGXGXGXGXGXGXGXGXGXGXGXGXGXGXGXGXGX",
"GXGXGXGXGXGXGXGXGXGXGXGXGXGXGXGXGXGXGXGXGXGXGXGXGXGXGXGXGXGXGXGXGXGXGXGXGXGXGXGXGXGXGXGXGXGXGXGXGXGXGXGXGXGXGXGXGXGXGXGXGXGXGXGXGXGXGXGXGX8 & . . . X . . . . . . . . . . . . . . . . . . . . . . . . . . . . . . . . . . . . . . . . . . X . . . . . . . . . . . . . . . . . . . . X . . . . . . . . . . . . . . X . . . . . . . . . . . . . . . X . . . . . . . . . . . . . X . % 6 GXGXGXGXGXGXGXGXGXGXGXGXGXGXGXGXGXGXGXGXGXGXGXGXGXGXGXGXGXGXGXGXGXGXGXGXGXGXGXGXGXGXGXGXGXGXGXGXGXGXGXGXGXGXGXGXGXGXGXGXGXGXGXGXGXGXGXGXGX",
"GXGXGXGXGXGXGXGXGXGXGXGXGXGXGXGXGXGXGXGXGXGXGXGXGXGXGXGXGXGXGXGXGXGXGXGXGXGXGXGXGXGXGXGXGXGXGXGXGXGXGXGXGXGXGXGXGXGXGXGXGXGXGXGXGXGXGXGXGXGXGX8 % . . . . . . . . . . . . . . . . . . . . . . . . . . . X . . . . . . . X . . . . X . . . . . . . . . . . . . . . . . . . . . . . . . . . . X . . . . . . . . . . . . . . X . . . . X . . . . . . . . . . . . . . . . . . . . . = GXGXGXGXGXGXGXGXGXGXGXGXGXGXGXGXGXGXGXGXGXGXGXGXGXGXGXGXGXGXGXGXGXGXGXGXGXGXGXGXGXGXGXGXGXGXGXGXGXGXGXGXGXGXGXGXGXGXGXGXGXGXGXGXGXGXGXGXGXGXGX",
"GXGXGXGXGXGXGXGXGXGXGXGXGXGXGXGXGXGXGXGXGXGXGXGXGXGXGXGXGXGXGXGXGXGXGXGXGXGXGXGXGXGXGXGXGXGXGXGXGXGXGXGXGXGXGXGXGXGXGXGXGXGXGXGXGXGXGXGXGXGXGXGXGXw & . . . . . . . . . . . . . . . X . . . . X X . . . . . . . . . . . . . . . X . . . . . . . . . . . . . . . . . . . . . . . . . . . . . . . . . . . . . . . . . . . . . . . . . . . . . . . . . . . . . . . . . . . X & 6 GXGXGXGXGXGXGXGXGXGXGXGXGXGXGXGXGXGXGXGXGXGXGXGXGXGXGXGXGXGXGXGXGXGXGXGXGXGXGXGXGXGXGXGXGXGXGXGXGXGXGXGXGXGXGXGXGXGXGXGXGXGXGXGXGXGXGXGXGXGXGXGXGX",
"GXGXGXGXGXGXGXGXGXGXGXGXGXGXGXGXGXGXGXGXGXGXGXGXGXGXGXGXGXGXGXGXGXGXGXGXGXGXGXGXGXGXGXGXGXGXGXGXGXGXGXGXGXGXGXGXGXGXGXGXGXGXGXGXGXGXGXGXGXGXGXGXGXGXGXw *   . . . . . . . . . . . . . . . . . . . . . . . . . . . . . . . . . X . . . . . . . . . . . . . . . . . . . . . . . . . . . . . . . . . X . . . . . . . . . . . . . . . . . . . . . . . . . . . . . . . . . & = GXGXGXGXGXGXGXGXGXGXGXGXGXGXGXGXGXGXGXGXGXGXGXGXGXGXGXGXGXGXGXGXGXGXGXGXGXGXGXGXGXGXGXGXGXGXGXGXGXGXGXGXGXGXGXGXGXGXGXGXGXGXGXGXGXGXGXGXGXGXGXGXGXGXGX",
"GXGXGXGXGXGXGXGXGXGXGXGXGXGXGXGXGXGXGXGXGXGXGXGXGXGXGXGXGXGXGXGXGXGXGXGXGXGXGXGXGXGXGXGXGXGXGXGXGXGXGXGXGXGXGXGXGXGXGXGXGXGXGXGXGXGXGXGXGXGXGXGXGXGXGXGXGXGX= . . . . . . . . . . . . . . . . . . . . . . . . . . . . . . . . . . . . . . . . . . . . . . . . . . . . . . . . . . . . . . . . . . . . . . . . . . X . . . . X . . . . . . . . . . . . . . . . . . * w GXGXGXGXGXGXGXGXGXGXGXGXGXGXGXGXGXGXGXGXGXGXGXGXGXGXGXGXGXGXGXGXGXGXGXGXGXGXGXGXGXGXGXGXGXGXGXGXGXGXGXGXGXGXGXGXGXGXGXGXGXGXGXGXGXGXGXGXGXGXGXGXGXGXGXGXGX",
"GXGXGXGXGXGXGXGXGXGXGXGXGXGXGXGXGXGXGXGXGXGXGXGXGXGXGXGXGXGXGXGXGXGXGXGXGXGXGXGXGXGXGXGXGXGXGXGXGXGXGXGXGXGXGXGXGXGXGXGXGXGXGXGXGXGXGXGXGXGXGXGXGXGXGXGXGXGXGXGX= & . . . . . . . . . . . . . . . . . . . X . . X . . . . . . . . . . . . . . . . . . . . . . . . . . . . . . . . . . . . . . . . . . . X . . . . . . . . . . . . . . . . . . . . . . . . . . = GXGXGXGXGXGXGXGXGXGXGXGXGXGXGXGXGXGXGXGXGXGXGXGXGXGXGXGXGXGXGXGXGXGXGXGXGXGXGXGXGXGXGXGXGXGXGXGXGXGXGXGXGXGXGXGXGXGXGXGXGXGXGXGXGXGXGXGXGXGXGXGXGXGXGXGXGXGXGXGX",
"GXGXGXGXGXGXGXGXGXGXGXGXGXGXGXGXGXGXGXGXGXGXGXGXGXGXGXGXGXGXGXGXGXGXGXGXGXGXGXGXGXGXGXGXGXGXGXGXGXGXGXGXGXGXGXGXGXGXGXGXGXGXGXGXGXGXGXGXGXGXGXGXGXGXGXGXGXGXGXGXGXGXw * . . . . . . . . . . . . . . . . . . . . . X . . . . . . . . . . . . . . . . . . . . . . . . . . . . . . . . . . . . . . . . . . . . . . X . . . . . . . . . . . . . X . . . . . * 6 GXGXGXGXGXGXGXGXGXGXGXGXGXGXGXGXGXGXGXGXGXGXGXGXGXGXGXGXGXGXGXGXGXGXGXGXGXGXGXGXGXGXGXGXGXGXGXGXGXGXGXGXGXGXGXGXGXGXGXGXGXGXGXGXGXGXGXGXGXGXGXGXGXGXGXGXGXGXGXGXGXGX",
"GXGXGXGXGXGXGXGXGXGXGXGXGXGXGXGXGXGXGXGXGXGXGXGXGXGXGXGXGXGXGXGXGXGXGXGXGXGXGXGXGXGXGXGXGXGXGXGXGXGXGXGXGXGXGXGXGXGXGXGXGXGXGXGXGXGXGXGXGXGXGXGXGXGXGXGXGXGXGXGXGXGXGXGXGX6 * . . . X . . . X . . X . . X . . . . . . . . . . . . X . . . . X . . . . . . . . % . . . . . . . . . . . . . . . X X . . . . . . . . . . . . . . . . . . . . . . . . % = GXGXGXGXGXGXGXGXGXGXGXGXGXGXGXGXGXGXGXGXGXGXGXGXGXGXGXGXGXGXGXGXGXGXGXGXGXGXGXGXGXGXGXGXGXGXGXGXGXGXGXGXGXGXGXGXGXGXGXGXGXGXGXGXGXGXGXGXGXGXGXGXGXGXGXGXGXGXGXGXGXGXGXGXGX",
"GXGXGXGXGXGXGXGXGXGXGXGXGXGXGXGXGXGXGXGXGXGXGXGXGXGXGXGXGXGXGXGXGXGXGXGXGXGXGXGXGXGXGXGXGXGXGXGXGXGXGXGXGXGXGXGXGXGXGXGXGXGXGXGXGXGXGXGXGXGXGXGXGXGXGXGXGXGXGXGXGXGXGXGXGXGXGXGX= & . . . . . . . . . . . . . . . . . . . . X . . . . . . . . . . . . . . . . - - % . . . . . . . . . . . . . . . . . . X . . . . . . . . . . X . . . . . X & = e GXGXGXGXGXGXGXGXGXGXGXGXGXGXGXGXGXGXGXGXGXGXGXGXGXGXGXGXGXGXGXGXGXGXGXGXGXGXGXGXGXGXGXGXGXGXGXGXGXGXGXGXGXGXGXGXGXGXGXGXGXGXGXGXGXGXGXGXGXGXGXGXGXGXGXGXGXGXGXGXGXGXGXGXGXGXGX",
"GXGXGXGXGXGXGXGXGXGXGXGXGXGXGXGXGXGXGXGXGXGXGXGXGXGXGXGXGXGXGXGXGXGXGXGXGXGXGXGXGXGXGXGXGXGXGXGXGXGXGXGXGXGXGXGXGXGXGXGXGXGXGXGXGXGXGXGXGXGXGXGXGXGXGXGXGXGXGXGXGXGXGXGXGXGXGXGXGXGXGX8 *   . . . . . . . . . . . . . . . . . . . . . . . . . . . . . . . % d d d - - . . . . . . . . . . . . . . . . . . . . . . . . . . . . . . . . & = w GXGXGXGXGXGXGXGXGXGXGXGXGXGXGXGXGXGXGXGXGXGXGXGXGXGXGXGXGXGXGXGXGXGXGXGXGXGXGXGXGXGXGXGXGXGXGXGXGXGXGXGXGXGXGXGXGXGXGXGXGXGXGXGXGXGXGXGXGXGXGXGXGXGXGXGXGXGXGXGXGXGXGXGXGXGXGXGXGXGX",
"GXGXGXGXGXGXGXGXGXGXGXGXGXGXGXGXGXGXGXGXGXGXGXGXGXGXGXGXGXGXGXGXGXGXGXGXGXGXGXGXGXGXGXGXGXGXGXGXGXGXGXGXGXGXGXGXGXGXGXGXGXGXGXGXGXGXGXGXGXGXGXGXGXGXGXGXGXGXGXGXGXGXGXGXGXGXGXGXGXGXGXGXGXGXw = & . . . . . . . . . . . . . . . . . . . . . . . . . . . . f - d f . d % . . . . . X . . . . . . . . . . . . X X . . . . . . . @ = 6 GXGXGXGXGXGXGXGXGXGXGXGXGXGXGXGXGXGXGXGXGXGXGXGXGXGXGXGXGXGXGXGXGXGXGXGXGXGXGXGXGXGXGXGXGXGXGXGXGXGXGXGXGXGXGXGXGXGXGXGXGXGXGXGXGXGXGXGXGXGXGXGXGXGXGXGXGXGXGXGXGXGXGXGXGXGXGXGXGXGXGXGXGXGX",
"GXGXGXGXGXGXGXGXGXGXGXGXGXGXGXGXGXGXGXGXGXGXGXGXGXGXGXGXGXGXGXGXGXGXGXGXGXGXGXGXGXGXGXGXGXGXGXGXGXGXGXGXGXGXGXGXGXGXGXGXGXGXGXGXGXGXGXGXGXGXGXGXGXGXGXGXGXGXGXGXGXGXGXGXGXGXGXGXGXGXGXGXGXGXGXGXGXGX8 * * . . . . . . . . X . . . . . . . . . . . . . . . % ; d f % - . . . . . . . . . . . X X . . . . . . . X . . . & * 6 GXGXGXGXGXGXGXGXGXGXGXGXGXGXGXGXGXGXGXGXGXGXGXGXGXGXGXGXGXGXGXGXGXGXGXGXGXGXGXGXGXGXGXGXGXGXGXGXGXGXGXGXGXGXGXGXGXGXGXGXGXGXGXGXGXGXGXGXGXGXGXGXGXGXGXGXGXGXGXGXGXGXGXGXGXGXGXGXGXGXGXGXGXGXGXGXGXGX",
"GXGXGXGXGXGXGXGXGXGXGXGXGXGXGXGXGXGXGXGXGXGXGXGXGXGXGXGXGXGXGXGXGXGXGXGXGXGXGXGXGXGXGXGXGXGXGXGXGXGXGXGXGXGXGXGXGXGXGXGXGXGXGXGXGXGXGXGXGXGXGXGXGXGXGXGXGXGXGXGXGXGXGXGXGXGXGXGXGXGXGXGXGXGXGXGXGXGXGXGXGXGXw 8 % &   . . . . . X . . . . . . . . . . . . . - d d d . . . . . . . . . . . . . X . . . . X . & * & 8 GXGXGXGXGXGXGXGXGXGXGXGXGXGXGXGXGXGXGXGXGXGXGXGXGXGXGXGXGXGXGXGXGXGXGXGXGXGXGXGXGXGXGXGXGXGXGXGXGXGXGXGXGXGXGXGXGXGXGXGXGXGXGXGXGXGXGXGXGXGXGXGXGXGXGXGXGXGXGXGXGXGXGXGXGXGXGXGXGXGXGXGXGXGXGXGXGXGXGXGXGXGX",
"GXGXGXGXGXGXGXGXGXGXGXGXGXGXGXGXGXGXGXGXGXGXGXGXGXGXGXGXGXGXGXGXGXGXGXGXGXGXGXGXGXGXGXGXGXGXGXGXGXGXGXGXGXGXGXGXGXGXGXGXGXGXGXGXGXGXGXGXGXGXGXGXGXGXGXGXGXGXGXGXGXGXGXGXGXGXGXGXGXGXGXGXGXGXGXGXGXGXGXGXGXGXGXGXGXGXGXGX6 = * & * . . . . X . . . . . . . . X ; - . . . . . . . . . . X . . . & & * = = e GXGXGXGXGXGXGXGXGXGXGXGXGXGXGXGXGXGXGXGXGXGXGXGXGXGXGXGXGXGXGXGXGXGXGXGXGXGXGXGXGXGXGXGXGXGXGXGXGXGXGXGXGXGXGXGXGXGXGXGXGXGXGXGXGXGXGXGXGXGXGXGXGXGXGXGXGXGXGXGXGXGXGXGXGXGXGXGXGXGXGXGXGXGXGXGXGXGXGXGXGXGXGXGXGXGXGX",
"GXGXGXGXGXGXGXGXGXGXGXGXGXGXGXGXGXGXGXGXGXGXGXGXGXGXGXGXGXGXGXGXGXGXGXGXGXGXGXGXGXGXGXGXGXGXGXGXGXGXGXGXGXGXGXGXGXGXGXGXGXGXGXGXGXGXGXGXGXGXGXGXGXGXGXGXGXGXGXGXGXGXGXGXGXGXGXGXGXGXGXGXGXGXGXGXGXGXGXGXGXGXGXGXGXGXGXGXGXGXGXGXGXGXGXw = 6 = * * * - O & @ & @ . & O & % & * * * * 6 6 w GXGXGXGXGXGXGXGXGXGXGXGXGXGXGXGXGXGXGXGXGXGXGXGXGXGXGXGXGXGXGXGXGXGXGXGXGXGXGXGXGXGXGXGXGXGXGXGXGXGXGXGXGXGXGXGXGXGXGXGXGXGXGXGXGXGXGXGXGXGXGXGXGXGXGXGXGXGXGXGXGXGXGXGXGXGXGXGXGXGXGXGXGXGXGXGXGXGXGXGXGXGXGXGXGXGXGXGXGXGXGXGXGXGXGX",
"GXGXGXGXGXGXGXGXGXGXGXGXGXGXGXGXGXGXGXGXGXGXGXGXGXGXGXGXGXGXGXGXGXGXGXGXGXGXGXGXGXGXGXGXGXGXGXGXGXGXGXGXGXGXGXGXGXGXGXGXGXGXGXGXGXGXGXGXGXGXGXGXGXGXGXGXGXGXGXGXGXGXGXGXGXGXGXGXGXGXGXGXGXGXGXGXGXGXGXGXGXGXGXGXGXGXGXGXGXGXGXGXGXGXGXGXGXGXGXGXGXGXGXGXGXGXGXGXGXGXGXGXGXGXGXGXGXGXGXGXGXGXGXGXGXGXGXGXGXGXGXGXGXGXGXGXGXGXGXGXGXGXGXGXGXGXGXGXGXGXGXGXGXGXGXGXGXGXGXGXGXGXGXGXGXGXGXGXGXGXGXGXGXGXGXGXGXGXGXGXGXGXGXGXGXGXGXGXGXGXGXGXGXGXGXGXGXGXGXGXGXGXGXGXGXGXGXGXGXGXGXGXGXGXGXGXGXGXGXGXGXGXGXGXGXGXGXGXGXGXGXGXGXGXGXGX",
"GXGXGXGXGXGXGXGXGXGXGXGXGXGXGXGXGXGXGXGXGXGXGXGXGXGXGXGXGXGXGXGXGXGXGXGXGXGXGXGXGXGXGXGXGXGXGXGXGXGXGXGXGXGXGXGXGXGXGXGXGXGXGXGXGXGXGXGXGXGXGXGXGXGXGXGXGXGXGXGXGXGXGXGXGXGXGXGXGXGXGXGXGXGXGXGXGXGXGXGXGXGXGXGXGXGXGXGXGXGXGXGXGXGXGXGXGXGXGXGXGXGXGXGXGXGXGXGXGXGXGXGXGXGXGXGXGXGXGXGXGXGXGXGXGXGXGXGXGXGXGXGXGXGXGXGXGXGXGXGXGXGXGXGXGXGXGXGXGXGXGXGXGXGXGXGXGXGXGXGXGXGXGXGXGXGXGXGXGXGXGXGXGXGXGXGXGXGXGXGXGXGXGXGXGXGXGXGXGXGXGXGXGXGXGXGXGXGXGXGXGXGXGXGXGXGXGXGXGXGXGXGXGXGXGXGXGXGXGXGXGXGXGXGXGXGXGXGXGXGXGXGXGXGXGXGX",
"GXGXGXGXGXGXGXGXGXGXGXGXGXGXGXGXGXGXGXGXGXGXGXGXGXGXGXGXGXGXGXGXGXGXGXGXGXGXGXGXGXGXGXGXGXGXGXGXGXGXGXGXGXGXGXGXGXGXGXGXGXGXGXGXGXGXGXGXGXGXGXGXGXGXGXGXGXGXGXGXGXGXGXGXGXGXGXGXGXGXGXGXGXGXGXGXGXGXGXGXGXGXGXGXGXGXGXGXGXGXGXGXGXGXGXGXGXGXGXGXGXGXGXGXGXGXGXGXGXGXGXGXGXGXGXGXGXGXGXGXGXGXGXGXGXGXGXGXGXGXGXGXGXGXGXGXGXGXGXGXGXGXGXGXGXGXGXGXGXGXGXGXGXGXGXGXGXGXGXGXGXGXGXGXGXGXGXGXGXGXGXGXGXGXGXGXGXGXGXGXGXGXGXGXGXGXGXGXGXGXGXGXGXGXGXGXGXGXGXGXGXGXGXGXGXGXGXGXGXGXGXGXGXGXGXGXGXGXGXGXGXGXGXGXGXGXGXGXGXGXGXGXGXGXGXGX"
};
