/* XPM */
static char *bitcoin128[] = {
/* columns rows colors chars-per-pixel */
"128 128 216 2 ",
"   c #08080A",
".  c #120D0D",
"X  c #1B0A0C",
"o  c #13110F",
"O  c #1A140F",
"+  c #0F0F11",
"@  c #141312",
"#  c #1A1612",
"$  c #1C1914",
"%  c #171718",
"&  c #1A1A1C",
"*  c #240B0D",
"=  c #2B0C0E",
"-  c #330D0F",
";  c #350C10",
":  c #3D0D11",
">  c #231C14",
",  c #291F14",
"<  c #231F19",
"1  c #241410",
"2  c #321813",
"3  c #2C2115",
"4  c #26211A",
"5  c #2C241A",
"6  c #2E281E",
"7  c #262017",
"8  c #31261A",
"9  c #342A1C",
"0  c #3B2D1D",
"q  c #362417",
"w  c #3E301E",
"e  c #1E1E20",
"r  c #282725",
"t  c #342D21",
"y  c #392F21",
"u  c #3C3222",
"i  c #3A3327",
"p  c #430E11",
"a  c #4C0E13",
"s  c #530E14",
"d  c #5C0F15",
"f  c #4C1012",
"g  c #541213",
"h  c #5C1516",
"j  c #631215",
"k  c #6B1416",
"l  c #6E1218",
"z  c #731417",
"x  c #7A1617",
"c  c #731118",
"v  c #7C1419",
"b  c #402E1A",
"n  c #42321E",
"m  c #4A361E",
"M  c #4D381E",
"N  c #543C1E",
"B  c #5F231D",
"V  c #63271D",
"C  c #452C26",
"Z  c #433522",
"A  c #493622",
"S  c #463825",
"D  c #4B3A24",
"F  c #443929",
"G  c #4C3E2A",
"H  c #523E24",
"J  c #503F28",
"K  c #5E3C25",
"L  c #5C2422",
"P  c #6A3026",
"I  c #4E412C",
"U  c #544126",
"Y  c #5A4325",
"T  c #54432B",
"R  c #5A462A",
"E  c #5D492D",
"W  c #56482E",
"Q  c #4C4231",
"!  c #564933",
"~  c #5C4B32",
"^  c #524531",
"/  c #5D513A",
"(  c #624523",
")  c #634925",
"_  c #634C2C",
"`  c #694E2B",
"'  c #694A28",
"]  c #66502E",
"[  c #6B522E",
"{  c #72552D",
"}  c #7B5B2D",
"|  c #78552C",
" . c #634E31",
".. c #674C31",
"X. c #655133",
"o. c #6C5533",
"O. c #6E5835",
"+. c #6E5B3C",
"@. c #655439",
"#. c #715631",
"$. c #745A35",
"%. c #7B5C33",
"&. c #745D3B",
"*. c #795F39",
"=. c #74553A",
"-. c #7E6135",
";. c #7C613A",
":. c #76623E",
">. c #584F42",
",. c #7F5C42",
"<. c #685B42",
"1. c #7D6845",
"2. c #841519",
"3. c #8C1819",
"4. c #8D131B",
"5. c #93141C",
"6. c #9B151D",
"7. c #94191A",
"8. c #9A1A1B",
"9. c #AD161F",
"0. c #A31A1C",
"q. c #AC191E",
"w. c #A5151E",
"e. c #B3191F",
"r. c #B21720",
"t. c #BA1721",
"y. c #B61920",
"u. c #BC1821",
"i. c #AF1620",
"p. c #C31822",
"a. c #835E2D",
"s. c #805F32",
"d. c #86612F",
"f. c #846335",
"g. c #8A6534",
"h. c #8D6936",
"j. c #83653B",
"k. c #896739",
"l. c #85693D",
"z. c #8C6B3B",
"x. c #936C35",
"c. c #9B6D35",
"v. c #926E3B",
"b. c #95713D",
"n. c #9B733C",
"m. c #9C753B",
"M. c #976A2E",
"N. c #A4793D",
"B. c #AA7C3D",
"V. c #A27538",
"C. c #B07F3B",
"Z. c #846A43",
"A. c #8B6E43",
"S. c #836947",
"D. c #8D7144",
"F. c #89724A",
"G. c #947343",
"H. c #9A7541",
"J. c #9C7944",
"K. c #947A4F",
"L. c #9B7B4B",
"P. c #977648",
"I. c #8A7551",
"U. c #997D51",
"Y. c #916F43",
"T. c #A37C43",
"R. c #A97E41",
"E. c #A27E4A",
"W. c #806D62",
"Q. c #B3823D",
"!. c #B9863F",
"~. c #9F8254",
"^. c #AC8243",
"/. c #A4814B",
"(. c #AB854B",
"). c #AC884D",
"_. c #B38543",
"`. c #B88742",
"'. c #B68845",
"]. c #BC8B45",
"[. c #B38748",
"{. c #B3894B",
"}. c #BA8C4A",
"|. c #BE914D",
" X c #A68552",
".X c #AD8A54",
"XX c #AA8B5A",
"oX c #B48E53",
"OX c #B88E52",
"+X c #B4925B",
"@X c #B99358",
"#X c #B89967",
"$X c #938171",
"%X c #C18E46",
"&X c #C08E49",
"*X c #C4924B",
"=X c #CA974D",
"-X c #C79449",
";X c #C29553",
":X c #CC9B54",
">X c #C39B5C",
",X c #C89B58",
"<X c #D29F54",
"1X c #D3A156",
"2X c #D4A45C",
"3X c #D9A85E",
"4X c #CEA35F",
"5X c #CBA362",
"6X c #C9A468",
"7X c #D8AB65",
"8X c #DBB16D",
"9X c #CDAC72",
"0X c #E3BA76",
"qX c #E0B167",
"wX c #E6C182",
"eX c None",
/* pixels */
"eXeXeXeXeXeXeXeXeXeXeXeXeXeXeXeXeXeXeXeXeXeXeXeXeXeXeXeXeXeXeXeXeXeXeXeXeXeXeXeXeXeXeXeXeXeXeXeXeXeXeXeXeXeXeXeXeXeXeXeXeXeXeXeXeXeXeXeXeXeXeXeXeXeXeXeXeXeXeXeXeXeXeXeXeXeXeXeXeXeXeXeXeXeXeXeXeXeXeXeXeXeXeXeXeXeXeXeXeXeXeXeXeXeXeXeXeXeXeXeXeXeXeXeXeXeXeXeX",
"eXeXeXeXeXeXeXeXeXeXeXeXeXeXeXeXeXeXeXeXeXeXeXeXeXeXeXeXeXeXeXeXeXeXeXeXeXeXeXeXeXeXeXeXeXeXeXeXeXeXeXeXeXeXeXeXeXeXeXeXeXeX# # & # eXeXeXeXeXeXeXeXeXeXeXeXeXeXeXeXeXeXeXeXeXeXeXeXeXeXeXeXeXeXeXeXeXeXeXeXeXeXeXeXeXeXeXeXeXeXeXeXeXeXeXeXeXeXeXeXeXeXeXeXeXeX",
"eXeXeXeXeXeXeXeXeXeXeXeXeXeXeXeXeXeXeXeXeXeXeXeXeXeXeXeXeXeXeXeXeXeXeXeXeXeXeXeXeXeXeXeXeXeXeXeXeXeXeXeXeX@ @ o .       + % +   &             + @ o @ eXeXeXeXeXeXeXeXeXeXeXeXeXeXeXeXeXeXeXeXeXeXeXeXeXeXeXeXeXeXeXeXeXeXeXeXeXeXeXeXeXeXeXeXeXeXeXeXeXeXeXeXeX",
"eXeXeXeXeXeXeXeXeXeXeXeXeXeXeXeXeXeXeXeXeXeXeXeXeXeXeXeXeXeXeXeXeXeXeXeXeXeXeXeXeXeXeXeXeXeXeXeX# @ .                   % & e & @ % @                       @ # eXeXeXeXeXeXeXeXeXeXeXeXeXeXeXeXeXeXeXeXeXeXeXeXeXeXeXeXeXeXeXeXeXeXeXeXeXeXeXeXeXeXeXeXeXeXeXeX",
"eXeXeXeXeXeXeXeXeXeXeXeXeXeXeXeXeXeXeXeXeXeXeXeXeXeXeXeXeXeXeXeXeXeXeXeXeXeXeXeXeXeXeXeXeX@ o                           % % . 4 e & +                             o @ eXeXeXeXeXeXeXeXeXeXeXeXeXeXeXeXeXeXeXeXeXeXeXeXeXeXeXeXeXeXeXeXeXeXeXeXeXeXeXeXeXeXeXeXeX",
"eXeXeXeXeXeXeXeXeXeXeXeXeXeXeXeXeXeXeXeXeXeXeXeXeXeXeXeXeXeXeXeXeXeXeXeXeXeXeXeXeXeX$                                                                                     @ eXeXeXeXeXeXeXeXeXeXeXeXeXeXeXeXeXeXeXeXeXeXeXeXeXeXeXeXeXeXeXeXeXeXeXeXeXeXeXeXeXeX",
"eXeXeXeXeXeXeXeXeXeXeXeXeXeXeXeXeXeXeXeXeXeXeXeXeXeXeXeXeXeXeXeXeXeXeXeXeXeXeXeXo                                               .                                               $ eXeXeXeXeXeXeXeXeXeXeXeXeXeXeXeXeXeXeXeXeXeXeXeXeXeXeXeXeXeXeXeXeXeXeXeXeXeXeX",
"eXeXeXeXeXeXeXeXeXeXeXeXeXeXeXeXeXeXeXeXeXeXeXeXeXeXeXeXeXeXeXeXeXeXeXeXeX$ +                                                 ; :                                                   # eXeXeXeXeXeXeXeXeXeXeXeXeXeXeXeXeXeXeXeXeXeXeXeXeXeXeXeXeXeXeXeXeXeXeXeXeX",
"eXeXeXeXeXeXeXeXeXeXeXeXeXeXeXeXeXeXeXeXeXeXeXeXeXeXeXeXeXeXeXeXeXeXeX$                                                       j l                                                       # eXeXeXeXeXeXeXeXeXeXeXeXeXeXeXeXeXeXeXeXeXeXeXeXeXeXeXeXeXeXeXeXeXeXeX",
"eXeXeXeXeXeXeXeXeXeXeXeXeXeXeXeXeXeXeXeXeXeXeXeXeXeXeXeXeXeXeXeXeX# +                                                         4.6.                                                          $ eXeXeXeXeXeXeXeXeXeXeXeXeXeXeXeXeXeXeXeXeXeXeXeXeXeXeXeXeXeXeXeXeX",
"eXeXeXeXeXeXeXeXeXeXeXeXeXeXeXeXeXeXeXeXeXeXeXeXeXeXeXeXeXeXeXeXo                                                             r.p.X                                                           + eXeXeXeXeXeXeXeXeXeXeXeXeXeXeXeXeXeXeXeXeXeXeXeXeXeXeXeXeXeXeXeX",
"eXeXeXeXeXeXeXeXeXeXeXeXeXeXeXeXeXeXeXeXeXeXeXeXeXeXeXeXeXeX@ %                                                             * p.p.p                                                             @ @ eXeXeXeXeXeXeXeXeXeXeXeXeXeXeXeXeXeXeXeXeXeXeXeXeXeXeXeXeXeX",
"eXeXeXeXeXeXeXeXeXeXeXeXeXeXeXeXeXeXeXeXeXeXeXeXeXeXeXeXeX.   + o                                                           a p.p.l                                                           @ r     eXeXeXeXeXeXeXeXeXeXeXeXeXeXeXeXeXeXeXeXeXeXeXeXeXeXeXeXeX",
"eXeXeXeXeXeXeXeXeXeXeXeXeXeXeXeXeXeXeXeXeXeXeXeXeXeXeX& +     @                                                             c p.p.6.                                                                    @ eXeXeXeXeXeXeXeXeXeXeXeXeXeXeXeXeXeXeXeXeXeXeXeXeXeXeX",
"eXeXeXeXeXeXeXeXeXeXeXeXeXeXeXeXeXeXeXeXeXeXeXeXeXeX+ @ + +                                                                 5.p.p.p.                                                                  & @ + eXeXeXeXeXeXeXeXeXeXeXeXeXeXeXeXeXeXeXeXeXeXeXeXeXeX",
"eXeXeXeXeXeXeXeXeXeXeXeXeXeXeXeXeXeXeXeXeXeXeXeXeX    + @ +                                                                 e.p.p.p.;                                                                 & @     eXeXeXeXeXeXeXeXeXeXeXeXeXeXeXeXeXeXeXeXeXeXeXeXeX",
"eXeXeXeXeXeXeXeXeXeXeXeXeXeXeXeXeXeXeXeXeXeXeX#   @ +                                                                     = p.p.p.p.d                                                                           @ eXeXeXeXeXeXeXeXeXeXeXeXeXeXeXeXeXeXeXeXeXeXeX",
"eXeXeXeXeXeXeXeXeXeXeXeXeXeXeXeXeXeXeXeXeXeX@ @ + @ +                                                                     s p.p.p.p.2.                                                                      + r   @ eXeXeXeXeXeXeXeXeXeXeXeXeXeXeXeXeXeXeXeXeXeX",
"eXeXeXeXeXeXeXeXeXeXeXeXeXeXeXeXeXeXeXeXeX#   + + +                                                                       v p.p.i.9.5.                                                                        &     o eXeXeXeXeXeXeXeXeXeXeXeXeXeXeXeXeXeXeXeXeX",
"eXeXeXeXeXeXeXeXeXeXeXeXeXeXeXeXeXeXeXeX& + + +                                                                   i 1.S.S.S.,.S.A..XZ.6 r                                                                             @ eXeXeXeXeXeXeXeXeXeXeXeXeXeXeXeXeXeXeXeX",
"eXeXeXeXeXeXeXeXeXeXeXeXeXeXeXeXeXeXeXo   & @ +                                                             # i I.>XR.R.:X2X5X5X2X=X].;X:X5X.XI.+.Q r 4 +                                                           & &   eXeXeXeXeXeXeXeXeXeXeXeXeXeXeXeXeXeXeX",
"eXeXeXeXeXeXeXeXeXeXeXeXeXeXeXeXeXeX@     + +                                                               4 U...D...XX@.Q L C Z P j.N.C.C.!.%X].|.).T                                                             & @   @ eXeXeXeXeXeXeXeXeXeXeXeXeXeXeXeXeXeX",
"eXeXeXeXeXeXeXeXeXeXeXeXeXeXeXeXeX# % +                                                             7 @.:.o.H XXD ;Xf.g.$.>.W.$XC P =.#.z.^.C.T.z.] u t @                                                                   @ eXeXeXeXeXeXeXeXeXeXeXeXeXeXeXeXeX",
"eXeXeXeXeXeXeXeXeXeXeXeXeXeXeXeX$ @ +                                                         6 S.+X1.b.k.N I 0X8X1X2X2X=X'.K.K.(.7X1X<X<X=X-X%X%X-X].` 3 W O.9                                                           + + @ eXeXeXeXeXeXeXeXeXeXeXeXeXeXeXeX",
"eXeXeXeXeXeXeXeXeXeXeXeXeXeXeXeX                                                        o / @X+X^.) D Y 3   F.{._ Y U D n N ' o.` [ B.%Xg.x.Q.!.!.} > n {.G.;X7X>Xl.w                                                     e e   eXeXeXeXeXeXeXeXeXeXeXeXeXeXeXeX",
"eXeXeXeXeXeXeXeXeXeXeXeXeXeXeX@                                                     o i @.D.).O m E O.Y b.Y +.0 _ H Y 3   3 q 1 B %.a.V.x.` { M.} 0 U f.} _ $.Z.>X8X7X+XW                                                         eXeXeXeXeXeXeXeXeXeXeXeXeXeXeX",
"eXeXeXeXeXeXeXeXeXeXeXeXeXeX@ + @ +                                               ! 6Xm.] z.U 7 S 3 m O n 9 $ 5 # T >   Z ) o 1 _ R.M.( H d.B.h.3 n } R 9 o } n Z Z :. X5X>X .+                                                   @ eXeXeXeXeXeXeXeXeXeXeXeXeXeX",
"eXeXeXeXeXeXeXeXeXeXeXeXeX#     +                                             6 XX>X7 Q.Y O.:.Y 0 7 G w o   o ! T     y U O ! J.c.$.U [ ( m ,         $ M %.$.D 8 S D m.(.m./.L.I                                               & @ @ eXeXeXeXeXeXeXeXeXeXeXeXeX",
"eXeXeXeXeXeXeXeXeXeXeXeXeX                                                  +.7X3X@Xo D ^.m.w 3 I n       i I +   / ^ Z F T.V.' V c 5.r.6.                  o ) %.9 ' N J.:X2X1X,X/.5                                           & @   % eXeXeXeXeXeXeXeXeXeXeXeX",
"eXeXeXeXeXeXeXeXeXeXeXeX@ + +                                             I :.$.$.I 6 M 0 3 T Z         6 +       S G.J.N.N z 9.p.p.p.p.t.                      o ) %.o ) { {.:X^.'.;XX.                                                eXeXeXeXeXeXeXeXeXeXeXeX",
"eXeXeXeXeXeXeXeXeXeXeX@   +                                           @ ~.oX@XXX:.:.b.[ T R o                       , V v t.p.p.p.p.p.p.p.X                         3 -.7 x.U n O.$.X.X.9                                               @ eXeXeXeXeXeXeXeXeXeXeX",
"eXeXeXeXeXeXeXeXeXeXeX                                              9 F. X] ] w +.}.} U w                           X p.p.p.p.p.p.p.p.p.p.:                           o _ Z N.n N.X.U m.).I                                         + r + eXeXeXeXeXeXeXeXeXeXeX",
"eXeXeXeXeXeXeXeXeXeX@ @                                           Q 0X.XE 4Xm.I P.R c.8                             = p.p.p.p.p.p.p.p.p.p.d                               D G.$.f.-.1.D z.H.&..                                       +   @ eXeXeXeXeXeXeXeXeXeX",
"eXeXeXeXeXeXeXeXeX# +   +                                       ! 0X/.@.7X/.j..X9 B.U                               s p.p.p.p.p.p.p.p.p.p.v                               @ ! }.n %XE I 7 z.[ P..                                           @ eXeXeXeXeXeXeXeXeX",
"eXeXeXeXeXeXeXeXeX+   +                                       ^ wXU.&. X[ E J   _ T.                                c p.p.p.p.p.p.p.p.p.p.6.                                $ 2Xw Y -.OXJ.W &.Y /.#                                           eXeXeXeXeXeXeXeXeX",
"eXeXeXeXeXeXeXeX#                                           G wX~.# ! j.L.*.O.5 J.*.                                4.p.p.p.p.p.p.p.p.p.p.e.                                  8XI X.P.O.X.z. X~ j.).o                                           eXeXeXeXeXeXeXeX",
"eXeXeXeXeXeXeXeX@ % +                                     > +XXX6 X.D.~ ;.T.o.7 |.:.                                r.p.p.p.p.p.p.p.p.p.p.p.X                               + 8XW ] #. .T.b.S 5 < ..L.                                          eXeXeXeXeXeXeXeX",
"eXeXeXeXeXeXeX# + + +                                   $ 5X(.W G.# z.T.O.$.z.$ *XI.                              . p.p.p.p.p.p.p.p.p.p.p.p.:                               i 7X_ G [ T.o.X.B.u z.J.8 ~                                         @ eXeXeXeXeXeXeX",
"eXeXeXeXeXeXeX+   +                                     +X>X^ }.T 5 _ +.T.X.-.u N.5Xo                             = p.p.p.p.p.p.p.p.p.p.p.p.s                               I.1XY U ^.X.z.N.Z o n.=Xl.G &                                         eXeXeXeXeXeXeX",
"eXeXeXeXeXeXeX                                        1.8XI }.X./.4 L.f.X.m.E T G ].F.                            a p.p.p.p.p.p.p.p.p.p.p.p.c                             4 5X].6 T.~ N.j.X.[.@ B.:X-X..z.                                        $ eXeXeXeXeXeX",
"eXeXeXeXeXeX@ @ +                                   i 0XX.(.-.l.k.4 4 l.x.] m.E u } '.1.                    X f 2.e.p.p.p.p.p.p.p.p.p.p.p.p.p.4.g X                     # +X].{ W R N.X.v.J.# S J =X=X[.@.Y.                                      o eXeXeXeXeXeX",
"eXeXeXeXeXeX+ + +                                 @ 9XL.l.J.O.Q.W k.u { ;.b.X.h. .8 Y 3                 * k 8.8.8.e.p.p.p.p.p.p.p.p.p.p.p.p.e.8.8.8.z =                 < V.g.u _ N.W B. .| 6 | G.{ 2Xl.J.A.T                                       eXeXeXeXeXeX",
"eXeXeXeXeX@                                       I.6X/ |.W ].W ].T $ ] x.o.m.] g.O.O               . j 8.8.8.8.8.e.p.p.p.p.p.p.p.p.p.p.p.p.p.0.8.8.8.8.k X               O w W N._ V.T Q.u S G `.@.T.,X*.;.@X#                                     o eXeXeXeXeX",
"eXeXeXeXeX                                      i wX~ |.[ (.O.J.-.k.o.3 I m.] m.o.3               - 3.8.8.8.8.8.8.p.p.p.p.p.p.p.p.p.p.p.p.p.p.0.8.8.8.8.8.7.p               > g...n.[ n.9 # %.T...'.T :XZ.(.G.A.                                      eXeXeXeXeX",
"eXeXeXeXeX                                      #XU.D.m.;.^.&.Q.X.!.I U U G Q.] m               d 8.8.8.8.8.8.8.0.p.p.p.p.p.p.p.p.p.p.p.p.p.p.q.8.8.8.8.8.8.8.j .             3 f.f.j.Y > f.W ].$.T.G.#.2X=.` ;X8                                     eXeXeXeXeX",
"eXeXeXeX@                                     $ w 6 |.~ *X~ '.E '.o.^.-.> R T R               k 8.8.8.8.8.8.8.8.0.u.p.p.p.p.p.p.p.p.p.p.p.p.p.q.8.8.8.8.8.8.8.8.x .             N _ $.# y B.z.j.].^ ].W `.G._ x.G.                                    # eXeXeXeX",
"eXeXeXeX+                                     L.T X.@ &.z.v.h.j.^.O.!.W g.$ 8               x 8.8.8.8.8.8.8.8.8.0.p.p.p.p.p.p.p.p.p.p.p.p.p.p.e.8.8.8.8.8.8.8.8.8.2.X             0 @ H N...]. .].z.k.[.J #.O D H.8                                     eXeXeXeX",
"eXeXeXeX                                    i ;X~ ].u > 7 _.~ %XE '.O.Q.h.[ o             z 8.8.8.8.8.8.8.8.8.8.q.p.p.p.p.p.p.p.p.p.p.p.p.p.p.e.8.8.8.8.8.8.8.8.8.8.v               h.T `.o._.T.;.%XW v.@ H R g.D S                                     eXeXeXeX",
"eXeXeX$                                     K.[ ).%.b.f.9   ..b.;.^.O.!.E R             h 8.8.8.8.8.8.8.8.8.8.8.e.p.p.p.p.p.p.p.p.p.p.p.p.p.p.u.8.8.8.8.8.8.8.8.8.8.8.k             m z.b._.X.]...T.9 $ o.) N.R v.#                                       eXeXeX",
"eXeXeX@                                   @ ,X~ *XI *XW ].G <   b.] ^.f.z.o           - 8.8.8.8.8.8.8.8.8.8.8.8.e.p.p.p.p.p.p.p.p.p.p.p.p.p.p.p.8.8.8.8.8.8.8.8.8.8.8.8.p             V.X.].o.b.Z   Y y B.S C.T R.W 9                                   . eXeXeX",
"eXeXeX@                                   +.;.(.z.A.^.o.^.W V.5 o $ g.E N           . 3.8.8.8.8.8.8.8.8.8.8.8.8.e.p.p.p.p.p.p.p.p.p.p.p.p.p.p.p.0.8.8.8.8.8.8.8.8.8.8.8.7.*           n k.{ w   Z 8 h.` h.=.k.j.%.%...                                    eXeXeX",
"eXeXeX                                    +X~ =XI *X .'.[ N._ x.R U + 3 o           j 8.8.8.8.8.8.8.8.8.8.8.8.8.e.p.p.p.p.p.p.p.p.p.p.p.p.p.p.p.q.8.8.8.8.8.8.8.8.8.8.8.8.z             8 o n D ` g.Y R.H R.T `.T `. .o                                   eXeXeX",
"eXeXeX                                  5 P.l.(.X.}.W `.T Q.G C.W M.T 3           * 7.8.8.8.8.8.8.8.8.8.8.8.8.8.p.p.p.p.p.p.p.p.p.p.p.p.p.p.p.p.q.8.8.8.8.8.8.8.8.8.8.8.8.8.-           o { H g.9 _.8 _.T `.T `.E _.~ T                                   $ eXeX",
"eXeX#                                    .~ *XE ^.f.b.k.k.x.$.x.-.) g.o           k 8.8.8.8.8.8.8.8.8.8.8.8.8.8.p.p.p.p.p.p.p.p.p.p.p.p.p.p.p.p.e.8.8.8.8.8.8.8.8.8.8.8.8.8.x             d.G _.> _.J b.s.k.;.z.z.f.f. .                                  @ eXeX",
"eXeX@                                   1. .%XT %X^ %XR `.T R.R Q.~ d.          X 8.8.8.8.8.8.8.8.8.8.8.8.8.8.q.p.p.p.p.p.p.p.p.p.p.p.p.p.p.p.p.p.0.8.8.8.8.8.8.8.8.8.8.8.8.8.=           Y { v.R %.g.) _.T `.T `.R [.J                                   @ eXeX",
"eXeX                                    ~ T.b.;.[._ }.~ `.Z B.R m.o.H           f 8.8.8.8.8.8.8.8.8.8.8.8.8.8.u.p.p.p.p.p.p.p.p.p.p.e.p.p.p.p.p.p.e.8.8.8.8.8.8.8.8.8.8.8.8.8.j           3 m.Y } 8 ` 6 _.G ].T _.J _.T >                                 . eXeX",
"eXeX.                                   F -XE }.$.J.f.z.$.  , y N h.$           x 8.8.8.8.8.8.8.8.8.8.8.8.8.q.p.p.p.p.p.p.p.e.0.8.8.8.8.8.e.p.p.p.p.0.8.8.8.8.8.8.8.8.8.8.8.8.3.            V.8 A     + N.` n.' N.[ n.#.+                                   eXeX",
"eXeX                                    O.-X^ -XT %XT v.@ <       7           X 8.8.8.8.8.8.8.8.8.8.8.8.8.0.p.p.p.p.p.p.u.0.0.8.8.8.8.8.8.8.0.e.p.p.p.0.8.8.8.8.8.8.8.8.8.8.8.8.=           >         S 8 z.{ z.} b.#.N.                                    eXeX",
"eXeX                                    T.J.#.'.R ].y Z Z .                   : 8.8.8.8.8.8.8.8.8.8.8.8.0.p.p.p.p.p.p.e.8.8.8.8.8.8.8.8.8.8.8.8.e.p.p.p.8.8.8.8.8.8.8.8.8.8.8.8.s                     D T F A _.T _.T _.$                                   eXeX",
"eXeX                                  o *Xo.T.k.j.v.& %.Z                     d 8.8.8.8.8.8.8.8.8.8.8.0.p.p.p.p.p.p.0.8.8.8.8.8.8.8.8.8.8.8.8.8.0.p.p.p.e.8.8.8.8.8.8.8.8.8.8.8.l                     D T I > !.T C.W Q.A                                   eXeX",
"eXeX                                  w -XJ *XE }.R o.' D                     z 8.8.8.8.8.8.8.8.8.8.0.u.p.p.p.p.e.0.8.8.8.8.8.8.8.8.8.8.8.8.8.8.8.0.p.p.p.q.8.8.8.8.8.8.8.8.8.8.2.                    J y t 6 v.T _.R Q.Y                                   eXeX",
"eXeX                                  E *XT %X~ %XF *.A J                     3.8.8.8.8.8.8.8.8.8.8.p.p.p.p.p.e.8.0.8.8.8.8.8.8.8.8.8.8.8.8.8.8.8.8.0.p.p.p.0.8.8.8.8.8.8.8.8.8.8.                    G 9 y *.u { m.[ n.%.                                  # eX",
"eX$                                   $.[._ *XT k.F `.9 T                     7.8.8.8.8.8.8.8.8.8.e.p.p.p.p.e.0.8.8.8.8.8.8.8.8.8.8.8.8.8.8.8.8.8.8.8.e.p.p.p.8.8.8.8.8.8.8.8.8.8..                   G y l.t T R *.g.f.g.                                  @ eX",
"eX#                                   -.z.k.^.[ 8 J T.@ J                     7.8.8.8.8.8.8.8.8.e.p.p.p.p.e.0.8.8.8.8.8.8.8.8.8.8.8.8.8.8.8.8.8.8.8.8.8.e.p.p.e.8.8.8.8.8.8.8.8.8.X                   G Z W Z %.6 ) V._ x.                                  @ eX",
"eX@                                   z.#.T.z.J Q R J t I                     8.8.8.8.8.8.8.8.q.p.p.p.p.e.8.8.8.8.8.8.8.8.8.8.8.8.8.8.8.8.8.8.8.8.8.8.8.8.e.p.p.q.8.8.8.8.8.8.8.8.X                   I @ @ *.} y D Q.Y b.                                    eX",
"eXo                                   h.T ].{ # E.5 &.i R                     7.8.8.8.8.8.8.q.p.p.p.p.e.8.8.8.7.8.8.8.8.8.8.8.8.8.8.8.8.8.8.8.8.8.8.8.8.8.8.p.p.p.0.8.8.8.8.8.8.8.X                   R ^ 9 } Y   8 Q.T x.                                  @ eX",
"eXeX                                  %.T %XT y ;Xu =.u ~                     3.8.8.8.8.8.q.p.p.p.p.e.0.8.8.8.8.8.8.8.8.8.8.8.8.8.8.8.8.8.8.8.8.8.8.8.8.8.8.0.p.p.p.8.8.8.8.8.8.8.                    R ~ o.D 8 t @ _.E g.                                  # eX",
"eXeX                                  #.~ %X0 & >Xu # W _                     x 8.8.8.8.0.p.p.p.p.e.8.8.8.8.8.8.8.8.8.8.8.8.8.8.8.8.8.8.8.8.8.8.8.8.8.8.8.8.8.w.p.p.e.8.8.8.8.8.3.                    W G v.@ > Y   _.~ |                                   eXeX",
"eXeX                                  R T ].4 4  .F + *...                    d 8.8.8.8.p.p.p.p.e.8.8.8.8.8.8.8.8.8.8.8.8.8.8.8.8.8.8.8.8.8.8.8.8.8.8.8.8.8.8.8.q.p.p.q.8.8.8.8.k                     ~ n.y F s.{   n.R )                                   eXeX",
"eXeX                                  Z T ].@ i *.! P.t E                     p 8.8.0.e.p.p.p.q.8.8.8.8.8.8.8.8.8.8.8.8.8.8.8.8.8.8.8.8.8.8.8.8.8.8.8.8.8.8.8.8.8.e.p.p.0.8.8.8.g                      .G @...C.f.  g.U S                                   eXeX",
"eXeX                                  < R `.  Z {.u }.E.A 5                   * 8.0.e.p.p.p.e.8.8.8.8.8.8.8.8.8.8.8.8.8.8.8.8.8.8.8.8.8.8.8.8.8.8.8.8.8.8.8.8.8.8.8.e.p.e.0.8.8.-                   $ G i *XT z.| t $.A 9                                   eXeX",
"eXeX.                                   G T.  J v.o.v.=.u ~                     2.e.p.p.p.e.8.8.8.8.8.8.8.8.8.8.8.8.8.8.8.8.8.8.8.8.8.8.8.8.8.8.8.8.8.8.8.8.8.8.8.8.0.p.p.e.8.7.                    F S ;XT.t   . b ` A +                                   eXeX",
"eXeXo                                   0 x.  W { 8 o.J ..`                     v p.p.p.e.8.8.8.8.8.8.8.8.8.8.8.8.8.8.8.8.8.8.8.8.8.8.8.8.8.8.8.8.8.8.8.8.8.8.8.8.8.8.0.p.p.q.j                     @._ s.f.> T @ n ) n                                     eXeX",
"eXeX@                                   4 h.  Z J h.8 R H...                  p p.p.p.e.8.8.8.8.8.8.8.8.8.8.8.8.8.8.8.8.8.8.8.8.8.8.8.8.8.8.8.8.8.8.8.8.8.8.8.8.8.8.8.8.0.p.p.a                     $.F | { 3 b D q Y 8                                   o eXeX",
"eXeX@                                     k.  1 D s.R  .n I Z               = e.p.p.q.8.8.8.8.8.8.8.8.8.8.8.8.8.8.8.8.8.8.8.8.8.8.8.8.8.8.8.8.8.8.8.8.8.8.8.8.8.8.8.8.8.8.q.p.e.X                 < j.&.j.[ A m ` o U $                                   @ eXeX",
"eXeXeX                                    _   . _   J $.b.0 *.            * e.p.p.2.8.8.8.8.8.8.8.8.8.8.8.8.8.8.8.8.8.8.8.8.8.8.8.8.8.8.8.8.8.8.8.8.8.8.8.8.8.8.8.8.8.8.8.8.6.p.4.                ~ $.{ A.0 S n N   J                                     # eXeX",
"eXeXeX                                    u     ..8 < R ].T $.@         X w.p.p.z   k 8.8.8.8.8.8.8.8.8.8.8.8.8.8.8.8.8.8.8.8.8.8.8.8.8.8.8.8.8.8.8.8.8.8.8.8.8.8.8.8.8.6.v   5.p.j               O.*.m 9 Z g.# m   9                                     eXeXeX",
"eXeXeX.                                         Z D ..3 b.U R ..        5.p.p.c     X 7.8.8.8.8.8.8.8.8.8.8.8.8.8.8.8.8.8.8.8.8.8.8.8.8.8.8.8.8.8.8.8.8.8.8.8.8.8.8.8.8.6.=   X 9.p.-           6 R #.D Z.` f.o u                                         eXeXeX",
"eXeXeX@                                         # ( R O.9 E G.%..     2.p.p.c         p 8.8.8.8.8.8.8.8.8.8.8.8.8.8.8.8.8.8.8.8.8.8.8.8.8.8.8.8.8.8.8.8.8.8.8.8.8.8.8.8.g       = t.r.X         ..S  .l.Y w   3 O                                       @ eXeXeX",
"eXeXeX@                                           R m ( > G Y I (   j p.p.c             k 8.8.8.8.8.8.8.8.8.8.8.8.8.8.8.8.8.8.8.8.8.8.8.8.8.8.8.8.8.8.8.8.8.8.8.8.8.8.z           p p.5.      < @.;.W F 8 $ > A                                         @ eXeXeX",
"eXeXeXeX                                          n n A A P.Z.t Y.p p.p.c                 x 8.8.8.8.8.8.8.8.8.8.8.8.8.8.8.8.8.8.8.8.8.8.8.8.8.8.8.8.8.8.8.8.8.8.8.8.2..             j p.j     =.+.n   ~ l.$.# A                                         eXeXeXeX",
"eXeXeXeX                                            H 8 } _ Q.{.Y =.w.z                   X 2.8.8.8.8.8.8.8.8.8.8.8.8.8.8.8.8.8.8.8.8.8.8.8.8.8.8.8.8.8.8.8.8.8.8.3.X                 2.p.: 6 #.G.U i u U A Z #                                   & &   eXeXeXeX",
"eXeXeXeX@                                           A > g.f.n.n.@.*.0                       . v 8.8.8.8.8.8.8.8.8.8.8.8.8.8.8.8.8.8.8.8.8.8.8.8.8.8.8.8.8.8.8.8.2.*                   . 6.c Z.j._ Y I E ( 8 D                                   + e % @ eXeXeXeX",
"eXeXeXeXeX                                          $ D f.Q._ b.v. .Y.                        . k 8.8.8.8.8.8.8.8.8.8.8.8.8.8.8.8.8.8.8.8.8.8.8.8.8.8.8.8.8.8.x .                       X _ ..` U b.H ` } 9 ,                                   % e + @ eXeXeXeX",
"eXeXeXeXeX                                            J # D A.T _ *.[ o.                          f 7.8.8.8.8.8.8.8.8.8.8.8.8.8.8.8.8.8.8.8.8.8.8.8.8.8.8.8.s                           < $.O.G T.G _ 9 0 D                                           eXeXeXeXeX",
"eXeXeXeXeX#                                           1 A 8 h S 6 1 D ;.u                           X z 8.8.8.8.8.8.8.8.8.8.8.8.8.8.8.8.8.8.8.7.8.8.8.8.x *                             j.o.z.O.> 4 S 6 8 ,                                         @ eXeXeXeXeX",
"eXeXeXeXeXeX                                            K < L 0 E z.;.Z l.7                             - x 8.8.8.8.8.8.8.8.8.8.8.8.8.8.8.8.8.8.8.8.2.p                               O.[ O._ L.w E 3   D                                     @     eXeXeXeXeXeX",
"eXeXeXeXeXeXo                                         p h ( R %.Z { | R &.G.&                               * d 3.8.8.8.8.8.8.8.8.8.8.8.8.8.8.7.j =                                 W X.L.>X^.G D l $ w .                                   +     @ eXeXeXeXeXeX",
"eXeXeXeXeXeX$                                       ; t.c Z 0 6 D T m.$.Q.f.G.$                                   = g k 2.8.8.8.8.7.8.3.k s =                                     Z O.A.k.Q.` W D q 9 0                                     + @ @ @ eXeXeXeXeXeX",
"eXeXeXeXeXeXeX                                    X i.2.    R ) ) R E ] N.!.o.D.#                                           . . X X                                             Z f.:.m g.k.%.w H Z K ;                                           eXeXeXeXeXeXeX",
"eXeXeXeXeXeXeX@                                   w.v       # Y 5 H 3 Z D ) %.u G.4                                                                                           F O.:.:., g.] B.8 ` n 2 r.*                                 +     @ eXeXeXeXeXeXeX",
"eXeXeXeXeXeXeXeX                                4.2.          8 9 _ R n S #.n u R A.Z                                                                                       W #./.) O.3 Y N.N.O q 9 . a 6..                             + & @   eXeXeXeXeXeXeXeX",
"eXeXeXeXeXeXeXeX$                             c 2.              m >     9 J ..1 n.f.*.@.                                                                                . *.;.oX].0 ^ w %.{ | $ A       l c                               r + @ eXeXeXeXeXeXeXeX",
"eXeXeXeXeXeXeXeXeX                          d 2.                  A 7 ) N $.A G | ( o.T Z.$                                                                           4 Z.w ;.} ] + U j.D   o D X         4.a                           & &   eXeXeXeXeXeXeXeXeX",
"eXeXeXeXeXeXeXeXeX#                       : 4.                      S > 3 m ` A J H ' A E Z.~                                                                       G o.t +.D.J.W E *.  H   A o             6.=                         @   @ eXeXeXeXeXeXeXeXeX",
"eXeXeXeXeXeXeXeXeXeX                    * v                         . Z O . O Z T m ` %.*.$.X.A.9                                                               0 %.R > D.5 *.w 8 o.  8 0 m #               * 5.                            eXeXeXeXeXeXeXeXeXeX",
"eXeXeXeXeXeXeXeXeXeXeX                X c                               m 0 ;.T y _ H v.A x.;X_ R ;.t                                                       5 *.;.;.l.I ].h.Z ] A J A D D o                   - c                   % +   @ eXeXeXeXeXeXeXeXeXeX",
"eXeXeXeXeXeXeXeXeXeXeXo             . j                                   m q J 1 D A Y < j.J Z 6 F $.Z.Z @                                           . ^ *._ Z.'.'.A f.} o.A n J O O H o                       s s               . @ . @ eXeXeXeXeXeXeXeXeXeXeX",
"eXeXeXeXeXeXeXeXeXeXeXeX            a                                       0 0 0 n T g.< t s.b.g.s.;X..W &.A.W $                               $ S ..&.A.&.y o.J.oXo E l.3 A > m > H o                           c ;             + %   eXeXeXeXeXeXeXeXeXeXeXeX",
"eXeXeXeXeXeXeXeXeXeXeXeXeX        - .                                         , A > 0 X   T _ K v.8 `.{ n o.$.=.z.D.Z.o.Y S 6 $ o $ 7 i I -.l.l.&.T 0 ).z.=X*Xk.7 o o G { $.R . 0 Z                                 c               . % eXeXeXeXeXeXeXeXeXeXeXeX",
"eXeXeXeXeXeXeXeXeXeXeXeXeX@     X                                               o m 3 Z H 3 , , w 4 6 z.^.V.:X=X|.z.$ ] [ O.$.$.O.E E z.T -.A.).@X0 oXU _.[.$.Y R 9 { ) 9   o A 3                                   X j             @ eXeXeXeXeXeXeXeXeXeXeXeXeX",
"eXeXeXeXeXeXeXeXeXeXeXeXeXeX@                                                       8 A # 6 A H ) > 5 [ ) d.m.-Xk.D J.{ v.~ z.OXOXE j.^.%.E P.|.5 E.n.f.) W W 0 m Y > _ ) Z H O                                       * s           eXeXeXeXeXeXeXeXeXeXeXeXeXeX",
"eXeXeXeXeXeXeXeXeXeXeXeXeXeXeX                                                        o b b y , 5   o m I T q U T (.b.{ g.v.E ^.Z J./.U d.B.E > 9 U [ %.j.1   9 5 m 0 0 Y >                                             - =       eXeXeXeXeXeXeXeXeXeXeXeXeXeXeX",
"eXeXeXeXeXeXeXeXeXeXeXeXeXeXeXeX                                                          # A 9 7 U n U $ m 0 m ;.E T ] k.$.G . I ' ] E ] E + S O.m , > 3 E , Z 3 8 M 0                                                   p .   # eXeXeXeXeXeXeXeXeXeXeXeXeXeXeX",
"eXeXeXeXeXeXeXeXeXeXeXeXeXeXeXeX@                                                             o n 0 > 0 0 # { ( N U . 3 | n R J w { N.a.g.9 n ` N ..5   9 o 0 3 A 9 .                                                       p @ eXeXeXeXeXeXeXeXeXeXeXeXeXeXeXeX",
"eXeXeXeXeXeXeXeXeXeXeXeXeXeXeXeXeXo                                                               . 9 J 0 m m N > H A D 3 3 N ( S $ N | q > ) 3 n Y D @ 3 n A >                                                             # eXeXeXeXeXeXeXeXeXeXeXeXeXeXeXeXeX",
"eXeXeXeXeXeXeXeXeXeXeXeXeXeXeXeXeXeX@                                                                   O 0 D m 8 > >   > H m H M ) $ $ $ ) Y q n 9 Z 0 8 o                                                               @ eXeXeXeXeXeXeXeXeXeXeXeXeXeXeXeXeXeX",
"eXeXeXeXeXeXeXeXeXeXeXeXeXeXeXeXeXeXeXo                                                                         > 7 A n m n n n w b n 0 Z m D D 5 1                                                                       eXeXeXeXeXeXeXeXeXeXeXeXeXeXeXeXeXeXeX",
"eXeXeXeXeXeXeXeXeXeXeXeXeXeXeXeXeXeXeXeX                                                                                      o $ @ o                                                                                   eXeXeXeXeXeXeXeXeXeXeXeXeXeXeXeXeXeXeXeX",
"eXeXeXeXeXeXeXeXeXeXeXeXeXeXeXeXeXeXeXeXeXo                                                                                                                                                                         . eXeXeXeXeXeXeXeXeXeXeXeXeXeXeXeXeXeXeXeXeX",
"eXeXeXeXeXeXeXeXeXeXeXeXeXeXeXeXeXeXeXeXeXeX.                                                                                                                                                                     . eXeXeXeXeXeXeXeXeXeXeXeXeXeXeXeXeXeXeXeXeXeX",
"eXeXeXeXeXeXeXeXeXeXeXeXeXeXeXeXeXeXeXeXeXeXeX.                                                                                                                                                                   eXeXeXeXeXeXeXeXeXeXeXeXeXeXeXeXeXeXeXeXeXeXeX",
"eXeXeXeXeXeXeXeXeXeXeXeXeXeXeXeXeXeXeXeXeXeXeXeXeX                                                                                                                                                            # eXeXeXeXeXeXeXeXeXeXeXeXeXeXeXeXeXeXeXeXeXeXeXeX",
"eXeXeXeXeXeXeXeXeXeXeXeXeXeXeXeXeXeXeXeXeXeXeXeXeXeXo                                                                                                                                                       eXeXeXeXeXeXeXeXeXeXeXeXeXeXeXeXeXeXeXeXeXeXeXeXeXeX",
"eXeXeXeXeXeXeXeXeXeXeXeXeXeXeXeXeXeXeXeXeXeXeXeXeXeXeX@                                                                                                                                                 @ eXeXeXeXeXeXeXeXeXeXeXeXeXeXeXeXeXeXeXeXeXeXeXeXeXeXeX",
"eXeXeXeXeXeXeXeXeXeXeXeXeXeXeXeXeXeXeXeXeXeXeXeXeXeXeXeX$                                                                                                                                             # eXeXeXeXeXeXeXeXeXeXeXeXeXeXeXeXeXeXeXeXeXeXeXeXeXeXeXeX",
"eXeXeXeXeXeXeXeXeXeXeXeXeXeXeXeXeXeXeXeXeXeXeXeXeXeXeXeXeXeX@                                                                                                                                     @ eXeXeXeXeXeXeXeXeXeXeXeXeXeXeXeXeXeXeXeXeXeXeXeXeXeXeXeXeXeX",
"eXeXeXeXeXeXeXeXeXeXeXeXeXeXeXeXeXeXeXeXeXeXeXeXeXeXeXeXeXeXeXeX                                                                                                                                # eXeXeXeXeXeXeXeXeXeXeXeXeXeXeXeXeXeXeXeXeXeXeXeXeXeXeXeXeXeXeX",
"eXeXeXeXeXeXeXeXeXeXeXeXeXeXeXeXeXeXeXeXeXeXeXeXeXeXeXeXeXeXeXeXeX$                                                                                                                         @ eXeXeXeXeXeXeXeXeXeXeXeXeXeXeXeXeXeXeXeXeXeXeXeXeXeXeXeXeXeXeXeXeX",
"eXeXeXeXeXeXeXeXeXeXeXeXeXeXeXeXeXeXeXeXeXeXeXeXeXeXeXeXeXeXeXeXeXeXeX#                                                                                                                 o eXeXeXeXeXeXeXeXeXeXeXeXeXeXeXeXeXeXeXeXeXeXeXeXeXeXeXeXeXeXeXeXeXeXeX",
"eXeXeXeXeXeXeXeXeXeXeXeXeXeXeXeXeXeXeXeXeXeXeXeXeXeXeXeXeXeXeXeXeXeXeXeXeX@                                                                                                         @ eXeXeXeXeXeXeXeXeXeXeXeXeXeXeXeXeXeXeXeXeXeXeXeXeXeXeXeXeXeXeXeXeXeXeXeXeX",
"eXeXeXeXeXeXeXeXeXeXeXeXeXeXeXeXeXeXeXeXeXeXeXeXeXeXeXeXeXeXeXeXeXeXeXeXeXeXeX$ o                                                                                               # eXeXeXeXeXeXeXeXeXeXeXeXeXeXeXeXeXeXeXeXeXeXeXeXeXeXeXeXeXeXeXeXeXeXeXeXeXeXeX",
"eXeXeXeXeXeXeXeXeXeXeXeXeXeXeXeXeXeXeXeXeXeXeXeXeXeXeXeXeXeXeXeXeXeXeXeXeXeXeXeXeXeXo                                                                                     @ eXeXeXeXeXeXeXeXeXeXeXeXeXeXeXeXeXeXeXeXeXeXeXeXeXeXeXeXeXeXeXeXeXeXeXeXeXeXeXeXeXeX",
"eXeXeXeXeXeXeXeXeXeXeXeXeXeXeXeXeXeXeXeXeXeXeXeXeXeXeXeXeXeXeXeXeXeXeXeXeXeXeXeXeXeXeXeXeXo +                                 & &                                   @ # eXeXeXeXeXeXeXeXeXeXeXeXeXeXeXeXeXeXeXeXeXeXeXeXeXeXeXeXeXeXeXeXeXeXeXeXeXeXeXeXeXeXeXeX",
"eXeXeXeXeXeXeXeXeXeXeXeXeXeXeXeXeXeXeXeXeXeXeXeXeXeXeXeXeXeXeXeXeXeXeXeXeXeXeXeXeXeXeXeXeXeXeXeX@ @                         @ e & @                         o o eXeXeXeXeXeXeXeXeXeXeXeXeXeXeXeXeXeXeXeXeXeXeXeXeXeXeXeXeXeXeXeXeXeXeXeXeXeXeXeXeXeXeXeXeXeXeXeX",
"eXeXeXeXeXeXeXeXeXeXeXeXeXeXeXeXeXeXeXeXeXeXeXeXeXeXeXeXeXeXeXeXeXeXeXeXeXeXeXeXeXeXeXeXeXeXeXeXeXeXeXeX. . @                 @ &                 o @ @ eXeXeXeXeXeXeXeXeXeXeXeXeXeXeXeXeXeXeXeXeXeXeXeXeXeXeXeXeXeXeXeXeXeXeXeXeXeXeXeXeXeXeXeXeXeXeXeXeXeXeXeX",
"eXeXeXeXeXeXeXeXeXeXeXeXeXeXeXeXeXeXeXeXeXeXeXeXeXeXeXeXeXeXeXeXeXeXeXeXeXeXeXeXeXeXeXeXeXeXeXeXeXeXeXeXeXeXeXeXeXeXeXeXeX@ # @ @ @ @ eXeXeXeXeXeXeXeXeXeXeXeXeXeXeXeXeXeXeXeXeXeXeXeXeXeXeXeXeXeXeXeXeXeXeXeXeXeXeXeXeXeXeXeXeXeXeXeXeXeXeXeXeXeXeXeXeXeXeXeXeX",
"eXeXeXeXeXeXeXeXeXeXeXeXeXeXeXeXeXeXeXeXeXeXeXeXeXeXeXeXeXeXeXeXeXeXeXeXeXeXeXeXeXeXeXeXeXeXeXeXeXeXeXeXeXeXeXeXeXeXeXeXeXeXeXeXeXeXeXeXeXeXeXeXeXeXeXeXeXeXeXeXeXeXeXeXeXeXeXeXeXeXeXeXeXeXeXeXeXeXeXeXeXeXeXeXeXeXeXeXeXeXeXeXeXeXeXeXeXeXeXeXeXeXeXeXeXeXeXeX"
};
