/* XPM */
static char *bitcoin64[] = {
/* columns rows colors chars-per-pixel */
"64 64 154 2 ",
"   c #08080A",
".  c #120C0D",
"X  c #190A0C",
"o  c #13110E",
"O  c #0F0F11",
"+  c #110F11",
"@  c #131212",
"#  c #1A1611",
"$  c #1D1813",
"%  c #161618",
"&  c #1C1A19",
"*  c #240A0D",
"=  c #2B0C0E",
"-  c #320D0F",
";  c #360C10",
":  c #3C0C11",
">  c #241C14",
",  c #281F15",
"<  c #331312",
"1  c #272017",
"2  c #2B2117",
"3  c #27221B",
"4  c #2C2419",
"5  c #322516",
"6  c #312619",
"7  c #352A1C",
"8  c #3A2D1D",
"9  c #3E311F",
"0  c #372D20",
"q  c #382F21",
"w  c #3C3121",
"e  c #440F11",
"r  c #4B0E12",
"t  c #550F14",
"y  c #5C0F15",
"u  c #4D1012",
"i  c #501113",
"p  c #591213",
"a  c #591A18",
"s  c #661415",
"d  c #6B1316",
"f  c #641E1D",
"g  c #721417",
"h  c #791218",
"j  c #41291C",
"k  c #43321E",
"l  c #4A351F",
"z  c #4A381F",
"x  c #4F2D20",
"c  c #542B22",
"v  c #443521",
"b  c #493721",
"n  c #473925",
"m  c #4C3B23",
"M  c #443A29",
"N  c #4D3E2A",
"B  c #543122",
"V  c #523E24",
"C  c #5B3D26",
"Z  c #503F28",
"A  c #623B2E",
"S  c #4F402B",
"D  c #554126",
"F  c #5B4425",
"G  c #54432A",
"H  c #5A4529",
"J  c #5E492C",
"K  c #5B4A31",
"L  c #614625",
"P  c #604129",
"I  c #634C2B",
"U  c #6A4D2B",
"Y  c #6C512D",
"T  c #72552E",
"R  c #76592F",
"E  c #7C5A2D",
"W  c #634E31",
"Q  c #675131",
"!  c #6C5432",
"~  c #65543A",
"^  c #6E5B3E",
"/  c #725732",
"(  c #755A34",
")  c #7C5E33",
"_  c #745C3A",
"`  c #785E39",
"'  c #7F6035",
"]  c #7C623B",
"[  c #6D5C40",
"{  c #85131A",
"}  c #88141A",
"|  c #8D181A",
" . c #91141C",
".. c #99141D",
"X. c #94191B",
"o. c #9A1A1B",
"O. c #A5151E",
"+. c #AF161F",
"@. c #A21A1C",
"#. c #AB191E",
"$. c #B1191F",
"%. c #B41720",
"&. c #B81721",
"*. c #B61920",
"=. c #BD1821",
"-. c #8A3D27",
";. c #A13A32",
":. c #C31822",
">. c #A64B38",
",. c #836335",
"<. c #896636",
"1. c #8D6A37",
"2. c #856639",
"3. c #89653A",
"4. c #86693C",
"5. c #8C6B3B",
"6. c #926C37",
"7. c #92663C",
"8. c #916E3C",
"9. c #9D7236",
"0. c #93703D",
"q. c #9A743F",
"w. c #9E783E",
"e. c #A3793D",
"r. c #836A42",
"t. c #8C6E41",
"y. c #906643",
"u. c #8C7043",
"i. c #8D734B",
"p. c #937444",
"a. c #9A7642",
"s. c #9E7843",
"d. c #947448",
"f. c #96794B",
"g. c #8F785C",
"h. c #A37D47",
"j. c #A27E49",
"k. c #AC8245",
"l. c #A4814A",
"z. c #AA854C",
"x. c #AE884E",
"c. c #B68742",
"v. c #B88947",
"b. c #B58A4A",
"n. c #BF8E49",
"m. c #BE914C",
"M. c #A68653",
"N. c #A88956",
"B. c #A28658",
"V. c #B68E52",
"C. c #B99254",
"Z. c #BD975B",
"A. c #CA9B54",
"S. c None",
/* pixels */
"S.S.S.S.S.S.S.S.S.S.S.S.S.S.S.S.S.S.S.S.S.S.S.S.S.S.S.S.S.S.S.S.S.S.S.S.S.S.S.S.S.S.S.S.S.S.S.S.S.S.S.S.S.S.S.S.S.S.S.S.S.S.S.S.",
"S.S.S.S.S.S.S.S.S.S.S.S.S.S.S.S.S.S.S.S.S.S.S.S.S.@ O .     % % %         . @ S.S.S.S.S.S.S.S.S.S.S.S.S.S.S.S.S.S.S.S.S.S.S.S.S.",
"S.S.S.S.S.S.S.S.S.S.S.S.S.S.S.S.S.S.S.S.S.S.                  . @                   S.S.S.S.S.S.S.S.S.S.S.S.S.S.S.S.S.S.S.S.S.S.",
"S.S.S.S.S.S.S.S.S.S.S.S.S.S.S.S.S.S.S.o                       X X                       o S.S.S.S.S.S.S.S.S.S.S.S.S.S.S.S.S.S.S.",
"S.S.S.S.S.S.S.S.S.S.S.S.S.S.S.S.S.                            : e                           O S.S.S.S.S.S.S.S.S.S.S.S.S.S.S.S.S.",
"S.S.S.S.S.S.S.S.S.S.S.S.S.S.S.%                               s h                               @ S.S.S.S.S.S.S.S.S.S.S.S.S.S.S.",
"S.S.S.S.S.S.S.S.S.S.S.S.S.S.                                   .O.                              @   S.S.S.S.S.S.S.S.S.S.S.S.S.S.",
"S.S.S.S.S.S.S.S.S.S.S.S.S.. %                                 +.:.                                @ @ S.S.S.S.S.S.S.S.S.S.S.S.S.",
"S.S.S.S.S.S.S.S.S.S.S.@ @                                   * :.:.:                                   @ @ S.S.S.S.S.S.S.S.S.S.S.",
"S.S.S.S.S.S.S.S.S.S.% O                                 @ M A ;.>.c .                                     o S.S.S.S.S.S.S.S.S.S.",
"S.S.S.S.S.S.S.S.S.o O                                 M d.a.d.y.7.h.A.h.8.G                               %   S.S.S.S.S.S.S.S.S.",
"S.S.S.S.S.S.S.S.@ O                           O G Q / i.x.k.p.g.3.h.c.c.w.I 2 4                               @ S.S.S.S.S.S.S.S.",
"S.S.S.S.S.S.S.S.                          # K u.Y H b ] F b 5 b U e.,.9.E z <.l.Z.^ &                       O O S.S.S.S.S.S.S.S.",
"S.S.S.S.S.S.S.  O                     O ] 8.! G 7 8 > 4 7 # v m 7.U L F $ k k L 9 2.V.! #                       @ S.S.S.S.S.S.S.",
"S.S.S.S.S.S.O                       & u.i.7 Y w 2   & & 6 / ,.-...+.y         > n D 1.A.b.G                     O   S.S.S.S.S.S.",
"S.S.S.S.S.O                       9 f.] r.R k             p +.:.:.:.h             6 F F ' ! S                     @ @ S.S.S.S.S.",
"S.S.S.S.S.O                     ~ M.l.4.( z               { :.:.:.:...              $ 4.,.J ( I                       S.S.S.S.S.",
"S.S.S.S.O                     ~ i.] ] 9 4.                o.:.:.:.:.$.                _ D u.] _ ]                       S.S.S.S.",
"S.S.S.S.@                   M f.S 4.] G l.                $.:.:.:.:.:.X               r.J ( ,.G Y N                     S.S.S.S.",
"S.S.S.o                   1 M.5.G ] ] J a.3             * :.:.:.:.:.:.-             O C.J 2.2.n v.] 4                     S.S.S.",
"S.S.S.@ O                 B.8.2.W H ' ' G /         * s #.:.:.:.:.:.:.#.s =         I ) Y ,.,.v 2.b.4.#                   S.S.S.",
"S.S.S.                  [ i.5.5.2.n ' ' I       X s o.o.#.:.:.:.:.:.:.+.o.o.d X       D ' ,.m ! 8.j.t.]                   S.S.S.",
"S.S.                    ^ 0.0.5.1./ z T o     X | o.o.o.$.:.:.:.:.:.:.$.o.o.o.| =     O Y J I 5.5.2.h.3.7                 @ S.S.",
"S.S.                  ! _ w ' 5.5.1.Y o     * X.o.o.o.@.$.:.:.:.:.:.:.:.o.o.o.o.X.=     o D <.q.h.2.m V G                   S.S.",
"S.S.                  t.5.5.V n 4.6.D     . | o.o.o.o.o.$.:.:.:.:.:.:.:.o.o.o.o.o.X.X     L q.5.D 7 T ,.! o                 S.S.",
"S.@                 N p.5.5.2.T 8 S $     s o.o.o.o.o.o.=.:.:.:.:.:.:.:.@.o.o.o.o.o.d     o V 7 H ) ,.,.' 9                   S.",
"S.                  K 0.8.5.,.,.T z     = X.o.o.o.o.o.o.:.:.:.:.:.:.:.:.@.o.o.o.o.o.o.=     l R T / 2.3.,.Q                 . S.",
"S.                  ] 5.5.5.,.,.<.8     s o.o.o.o.o.o.@.:.:.:.:.:.:.:.:.$.o.o.o.o.o.o.g     > ) I L ,.,.2.,.                  S.",
"S.                  8.5.5.) 4 $ 9       X.o.o.o.o.o.@.=.:.:.$.#.o.o.#.$.:.+.o.o.o.o.o.X..     9 o # T ,.<.<.                  S.",
"S.                  w.0.5.n 1         = o.o.o.o.o.o.$.:.:.$.o.o.o.o.o.o.$.:.@.o.o.o.o.o.-         4 S T ,.,.$                 S.",
"S.                4 5.5.2.I 4         e o.o.o.o.o.$.:.:.@.o.o.o.o.o.o.o.@.$.$.@.o.o.o.o.r         4 8 J ,.,.8                 S.",
"S.                9 5.5.D U 4         i o.o.o.o.$.:.:.#.o.o.o.o.o.o.o.o.o.@.:.$.o.o.o.o.p         3 G D H ,.z                 S.",
"S.                b 3.H K N 4         i o.o.o.$.:.$.@.o.o.o.o.o.o.o.o.o.o.o.@.:.#.o.o.o.p         5 4 T 4 <.z                 S.",
"S.                v 5.q 2.M 7         e o.o.+.:.:.@.o.o.o.o.o.o.o.o.o.o.o.o.o.#.:.@.o.o.u         4 Q 4 4 2.l                 S.",
"S.                2 3., K G 7         = o.@.:.$.@.o.o.o.o.o.o.o.o.o.o.o.o.o.o.o.$.:.o.o.-         7 W ( l / 4                 S.",
"S.                  ,.4 ` d.v         . o.:.:.o.o.o.o.o.o.o.o.o.o.o.o.o.o.o.o.o.@.$.$....         v a.n j F o                 S.",
"S..                 I 4 I Z /         X +.:.@.o.o.o.o.o.o.o.o.o.o.o.o.o.o.o.o.o.o.o.$.|           W ) 8 7 m                   S.",
"S.                  9 . m I H 0       ..$.@.o.o.o.o.o.o.o.o.o.o.o.o.o.o.o.o.o.o.o.o.@.$.=       > ( ! v 8 5                   S.",
"S.o                 @   n b ) D     { +.* d o.o.o.o.o.o.o.o.o.o.o.o.o.o.o.o.o.o.o.o.h - O..     w W H m > o                 o S.",
"S.S.                    7 H v ! $ d +.*   X | o.o.o.o.o.o.o.o.o.o.o.o.o.o.o.o.o.o. .X   r }   o W W 8 ,                     S.S.",
"S.S.                    . v ! 5.U O.*       = X.o.o.o.o.o.o.o.o.o.o.o.o.o.o.o.o.o.=       d y b W q I 5                   O S.S.",
"S.S.                      7 6.<.( 7           = X.o.o.o.o.X.o.o.o.o.o.o.o.o.o.| =           f ( Y H V #                 % @ S.S.",
"S.S.S.                    # 7 P B ! @           X d X.o.o.o.o.o.o.o.o.o.o.o.g X             W ! m v 7                     o S.S.",
"S.S.S.                    X c C I I ! .             - d X.o.o.o.o.o.o.o.g -               S u.' B > #                 O   S.S.S.",
"S.S.S.@                   { < b F / e.!                 . - u p p u = .                 v ! 6.J v j                   O @ S.S.S.",
"S.S.S.S.                g *   4 v l H m ! @                                           n ] m ) I v i ;               @   S.S.S.S.",
"S.S.S.S.              t =       4 > D n ' Q 4                                     . D 4.H J V 8 >   y X             % @ S.S.S.S.",
"S.S.S.S.S.          : =           5 , v m I _ G o                               5 V G ] G 6 6 >       y               S.S.S.S.S.",
"S.S.S.S.S.o       * *               5 V v I I Q G Z #                       q W a.Y 1.m k 9 #           r         @ . S.S.S.S.S.",
"S.S.S.S.S.S.    X X                   > 7 b 6 R / 8.I _ G w 4 @ . $ 8 n N / p.) I 7 I 7 7 #             * =       + S.S.S.S.S.S.",
"S.S.S.S.S.S.S.                          # 8 7 8 8 V <.A.2.I / 5._ 2.Q h./ 3.<.H n F 8 5 o                 = X     S.S.S.S.S.S.S.",
"S.S.S.S.S.S.S.S.                            , 8 4 8 k 8 ' / ,.H Q / ) 7 Z V m , 8 8 >                       ;   @ S.S.S.S.S.S.S.",
"S.S.S.S.S.S.S.S.@                               , 8 7 F l 5 l D v E l m V > 4 7 >                             < S.S.S.S.S.S.S.S.",
"S.S.S.S.S.S.S.S.S..                                 # , , 4 j l z 4 k z 5 > @                                 S.S.S.S.S.S.S.S.S.",
"S.S.S.S.S.S.S.S.S.S.                                            .                                         . S.S.S.S.S.S.S.S.S.S.",
"S.S.S.S.S.S.S.S.S.S.S.                                                                                    S.S.S.S.S.S.S.S.S.S.S.",
"S.S.S.S.S.S.S.S.S.S.S.S.S.                                                                            @ S.S.S.S.S.S.S.S.S.S.S.S.",
"S.S.S.S.S.S.S.S.S.S.S.S.S.S.                                                                        S.S.S.S.S.S.S.S.S.S.S.S.S.S.",
"S.S.S.S.S.S.S.S.S.S.S.S.S.S.S.@                                                                 o S.S.S.S.S.S.S.S.S.S.S.S.S.S.S.",
"S.S.S.S.S.S.S.S.S.S.S.S.S.S.S.S.S..                                                           S.S.S.S.S.S.S.S.S.S.S.S.S.S.S.S.S.",
"S.S.S.S.S.S.S.S.S.S.S.S.S.S.S.S.S.S.S.@                                                   S.S.S.S.S.S.S.S.S.S.S.S.S.S.S.S.S.S.S.",
"S.S.S.S.S.S.S.S.S.S.S.S.S.S.S.S.S.S.S.S.S.S.                  O +                 @ o S.S.S.S.S.S.S.S.S.S.S.S.S.S.S.S.S.S.S.S.S.",
"S.S.S.S.S.S.S.S.S.S.S.S.S.S.S.S.S.S.S.S.S.S.S.S.S..           @ @             S.S.S.S.S.S.S.S.S.S.S.S.S.S.S.S.S.S.S.S.S.S.S.S.S.",
"S.S.S.S.S.S.S.S.S.S.S.S.S.S.S.S.S.S.S.S.S.S.S.S.S.S.S.S.S.S.S.S.S.S.S.S.S.S.S.S.S.S.S.S.S.S.S.S.S.S.S.S.S.S.S.S.S.S.S.S.S.S.S.S."
};
