/* XPM */
static char *bitcoin16[] = {
/* columns rows colors chars-per-pixel */
"16 16 65 1 ",
"  c #08080A",
". c #09090B",
"X c #0B080A",
"o c #0A0A0B",
"O c #0A0A0C",
"+ c #0C0C0C",
"@ c gray5",
"# c #100F0F",
"$ c #130E0E",
"% c #0E0E10",
"& c #111111",
"* c #121110",
"= c #131311",
"- c #171310",
"; c #191611",
": c #1E1811",
"> c #1E1913",
", c #1F1913",
"< c #230A0D",
"1 c #201B15",
"2 c #221C16",
"3 c #241C14",
"4 c #281F16",
"5 c #2F2518",
"6 c #32281A",
"7 c #580F14",
"8 c #463824",
"9 c #473824",
"0 c #4B3A26",
"q c #4F3C24",
"w c #4F3C25",
"e c #553F23",
"r c #513D24",
"t c #564226",
"y c #5C4629",
"u c #58472D",
"i c #5E492A",
"p c #604B2E",
"a c #654D2D",
"s c #644F2F",
"d c #674F31",
"f c #665132",
"g c #775B31",
"h c #765D36",
"j c #7A5D33",
"k c #7F6235",
"l c #78613B",
"z c #7F653B",
"x c #9A1A1B",
"c c #9F1A1C",
"v c #A7191D",
"b c #B81920",
"n c #842F22",
"m c #C01821",
"M c #C31822",
"N c #826132",
"B c #806034",
"V c #876538",
"C c #8B6A39",
"Z c #8F6C3A",
"A c #8F6E3B",
"S c #90703F",
"D c #9E7D4B",
"F c #A47F49",
"G c None",
/* pixels */
"GGGGGG %O GGGGGG",
"GGGG        GGGG",
"GG=    Dl*   =GG",
"GG   B;8n,Z   GG",
"G   z  MM  h   G",
"G  S8 xMMx rF  G",
"  #C,xxMMxx-B>  ",
"  gy xbxxMx 0N  ",
"  id vxxxxv fa  ",
"  OV xxxxxx i   ",
"G  w1 xxxx #t  G",
"G  O6>     w7 OG",
"GG   5jauAt  <GG",
"GG@    53     GG",
"GGGG        GGGG",
"GGGGGG    GGGGGG"
};
