/* XPM */
static char *bitcoin32[] = {
/* columns rows colors chars-per-pixel */
"32 32 230 2 ",
"   c #08080A",
".  c #09090A",
"X  c #08090B",
"o  c #09090B",
"O  c #0B080A",
"+  c #0A0A0B",
"@  c #0B0A0B",
"#  c #0C080A",
"$  c #0D090B",
"%  c #0E080B",
"&  c #0E090B",
"*  c #0A0A0C",
"=  c #0B0B0D",
"-  c #0C0B0C",
";  c #0D0B0D",
":  c #0D0C0C",
">  c #0D0C0D",
",  c gray5",
"<  c #0E0C0C",
"1  c #0E0D0D",
"2  c #0F0D0D",
"3  c #0F0E0D",
"4  c #0F0F0D",
"5  c #0C0C0E",
"6  c #0D0D0F",
"7  c #0E0E0E",
"8  c #0F0E0E",
"9  c #0F0E0F",
"0  c gray6",
"q  c #10090B",
"w  c #11090B",
"e  c #13090B",
"r  c #100E0D",
"t  c #100E0E",
"y  c #110E0E",
"u  c #100F0E",
"i  c #110F0E",
"p  c #1B0A0C",
"a  c #12100E",
"s  c #13100E",
"d  c #12100F",
"f  c #15110F",
"g  c #0E0E10",
"h  c #171513",
"j  c #131315",
"k  c #151414",
"l  c #1B1612",
"z  c #1E1812",
"x  c #1A1A1C",
"c  c #280C0E",
"v  c #2E0D0E",
"b  c #340D0F",
"n  c #360C10",
"m  c #3C0C11",
"M  c #231C14",
"N  c #231E18",
"B  c #292016",
"V  c #2D2318",
"C  c #2E2318",
"Z  c #2F251A",
"A  c #312619",
"S  c #32271A",
"D  c #382718",
"F  c #372B1B",
"G  c #362B1D",
"H  c #3A2C1B",
"J  c #3A2D1E",
"K  c #3B2F1F",
"L  c #3D2F1C",
"P  c #3C2F1E",
"I  c #3E311F",
"U  c #342D24",
"Y  c #480D12",
"T  c #480E12",
"R  c #4A0E13",
"E  c #5C0F15",
"W  c #611015",
"Q  c #711117",
"!  c #7C1219",
"~  c #43201A",
"^  c #462F1E",
"/  c #41301E",
"(  c #46331D",
")  c #47351E",
"_  c #592B20",
"`  c #403220",
"'  c #423422",
"]  c #443420",
"[  c #443521",
"{  c #443622",
"}  c #413525",
"|  c #483620",
" . c #493620",
".. c #493721",
"X. c #473924",
"o. c #483821",
"O. c #493822",
"+. c #483823",
"@. c #4A3A23",
"#. c #4D3B22",
"$. c #4D3A23",
"%. c #4A3A25",
"&. c #483A27",
"*. c #4B3D27",
"=. c #4F3C25",
"-. c #4D3C26",
";. c #4D3D27",
":. c #4D3F2A",
">. c #513D21",
",. c #513E22",
"<. c #513E25",
"1. c #523F25",
"2. c #533F25",
"3. c #743D2B",
"4. c #4D412D",
"5. c #584427",
"6. c #5A4427",
"7. c #5D4426",
"8. c #57452B",
"9. c #52432D",
"0. c #5B4429",
"q. c #5B462A",
"w. c #5B472B",
"e. c #5D492B",
"r. c #5B482C",
"t. c #5D482C",
"y. c #5F4B2D",
"u. c #5D4D33",
"i. c #5F483F",
"p. c #614827",
"a. c #634929",
"s. c #634B29",
"d. c #614B2B",
"f. c #644C2B",
"g. c #654D2C",
"h. c #694E2B",
"j. c #67502F",
"k. c #6A502B",
"l. c #6C502B",
"z. c #6D542E",
"x. c #75582F",
"c. c #624D30",
"v. c #754831",
"b. c #645132",
"n. c #6C5430",
"m. c #6C5736",
"M. c #705632",
"N. c #705732",
"B. c #765931",
"V. c #725834",
"C. c #725935",
"Z. c #735A35",
"A. c #785C34",
"S. c #7A5F36",
"D. c #7D5F34",
"F. c #7E5E34",
"G. c #745D3A",
"H. c #785E39",
"J. c #785F3B",
"K. c #7D6035",
"L. c #7F6137",
"P. c #796039",
"I. c #86131A",
"U. c #8E181A",
"Y. c #95141C",
"T. c #99141D",
"R. c #90191A",
"E. c #92191A",
"W. c #94191A",
"Q. c #9A1A1B",
"!. c #9B1A1B",
"~. c #9D1A1B",
"^. c #9D1A1C",
"/. c #A1151E",
"(. c #AF161F",
"). c #A21A1C",
"_. c #A6191D",
"`. c #AC191E",
"'. c #B3191F",
"]. c #92211F",
"[. c #B51920",
"{. c #B91820",
"}. c #BB1821",
"|. c #BD1821",
" X c #BF1821",
".X c #C11822",
"XX c #C21822",
"oX c #C31822",
"OX c #836031",
"+X c #816132",
"@X c #816134",
"#X c #806135",
"$X c #826034",
"%X c #826235",
"&X c #806336",
"*X c #826337",
"=X c #846335",
"-X c #826437",
";X c #8B6837",
":X c #806339",
">X c #836639",
",X c #846438",
"<X c #856538",
"1X c #876739",
"2X c #86683B",
"3X c #86693F",
"4X c #876A3E",
"5X c #8A693A",
"6X c #8B693A",
"7X c #886A3B",
"8X c #8A6A3B",
"9X c #8E6D3A",
"0X c #8F6D3A",
"qX c #896A3D",
"wX c #8F6D3C",
"eX c #8F6F3E",
"rX c #906A36",
"tX c #906C39",
"yX c #906E3D",
"uX c #91703E",
"iX c #99723C",
"pX c #8D7246",
"aX c #937141",
"sX c #957340",
"dX c #9D7D4B",
"fX c #8E7750",
"gX c #B3843E",
"hX c #A2814F",
"jX c #A38654",
"kX c None",
/* pixels */
"kXkXkXkXkXkXkXkXkXkXkXkXkXkX> h > > kXkXkXkXkXkXkXkXkXkXkXkXkXkX",
"kXkXkXkXkXkXkXkXkXkX> +   +     +     + + > kXkXkXkXkXkXkXkXkXkX",
"kXkXkXkXkXkXkXkX- +             +             - kXkXkXkXkXkXkXkX",
"kXkXkXkXkXkXkX*               Y E               + kXkXkXkXkXkXkX",
"kXkXkXkXkXj -             +   Y./.  +             * i kXkXkXkXkX",
"kXkXkXkXh *             i J eXi.v.gX,X            + > > kXkXkXkX",
"kXkXkXkX+           4.2X>.+.+.F rX+X>.6.dX:.          + kXkXkXkX",
"kXkXkX>         + pXb.J   + X.W.oX%     ] *XuX+         + kXkXkX",
"kXkX> +         jXZ.k.      b oXoXR       N F.Z.*         - kXkX",
"kXkXg +       hX*.S.u.      Q oXoXI.      U n.F.,X          kXkX",
"kX>         fXqX-.*X[     R.|.oXoXoXU.-   p.*XO.sXpX        > kX",
"kX          8.9X9XI   c Q.Q.oXoXoXoXQ.Q.v   $.iX6Xd.-       + kX",
"kX+       G.yXq.z.+   Q.Q.Q.oXoXoXoXQ.Q.Q.-   x...F.q.        kX",
"kX      + eX;X+Xx.+ U.Q.Q.Q.oXoXoXoXQ.Q.Q.W.  h.*X,X=X      + kX",
">         8X*Xj >   Q.Q.Q.|.oX~.Q.~.oXQ.Q.Q.+ >   s.=X        > ",
"> +       9Xn.+ +   Q.Q.'.oXQ.Q.Q.Q.).'.Q.Q.      t.*X      + > ",
"-         tX9.      ~.'.oXQ.Q.Q.Q.Q.Q._._.Q.%     6.h.+       - ",
">         s.J.d     ).'.Q.Q.Q.Q.Q.Q.Q.Q.'.~.    - H.<.        i ",
"kX+       ..g.]   e oXQ.Q.Q.Q.Q.Q.Q.Q.Q.Q.|.    { 2.L         kX",
"kX        * 0.g.  (.  Q.Q.Q.Q.Q.Q.Q.Q.Q.Q.- T.  t.$.+ +     + kX",
"kX+         V ;X3.    v Q.Q.Q.Q.Q.Q.Q.Q.b     _ -.]         x kX",
"kX>           ~ t.i     - W.Q.Q.Q.Q.W.%     + Z.I >       + > kX",
"kXkX        ! M <.+X>           %           H.=X^       + * kXkX",
"kXkX+     R     A 7.s.}                 l m.-.z   E     + > kXkX",
"kXkXkX+ p         C $.d.L.&.+       A g.M...N       m   j kXkXkX",
"kXkXkXkX            i J l l.qXA.qX:XL.H / A +         w kXkXkXkX",
"kXkXkXkXi               k ) F ( H >.) N +             i kXkXkXkX",
"kXkXkXkXkXi                                         i kXkXkXkXkX",
"kXkXkXkXkXkXkX+                               + + kXkXkXkXkXkXkX",
"kXkXkXkXkXkXkXkX+ +                           + kXkXkXkXkXkXkXkX",
"kXkXkXkXkXkXkXkXkXkX> +         + *     + - kXkXkXkXkXkXkXkXkXkX",
"kXkXkXkXkXkXkXkXkXkXkXkXkXkXi - - > kXkXkXkXkXkXkXkXkXkXkXkXkXkX"
};
